; HEADER_BLOCK_START
; generated by OrcaSlicer 2.3.0 on 2026-04-09 at 21:52:31
; total layer number: 176
;_GP_TOTAL_LAYER_NUMBER_PLACEHOLDER
; filament_density: 1.24
; filament_diameter: 1.75
; max_z_height: 35.30
; HEADER_BLOCK_END

; THUMBNAIL_BLOCK_START

;
; THUMBNAIL_BLOCK_END

; external perimeters extrusion width = 0.42mm
; perimeters extrusion width = 0.45mm
; infill extrusion width = 0.45mm
; solid infill extrusion width = 0.42mm
; top infill extrusion width = 0.42mm
; support material extrusion width = 0.42mm
; first layer extrusion width = 0.50mm

; EXECUTABLE_BLOCK_START
M73 P0 R18
M106 S0
M106 P2 S0
;TYPE:Custom
M190 S55
M104 S220
G90
M83
G1 Z5 F6000
G1 E-0.2 F800
G1 X110 Y-110 F6000
G1 E2 F800
G1 Y-110 X55 Z0.25 F4800
G1 X-55 E8 F2400
G1 Y-109.6 F2400
G1 X55 E5 F2400
G1 Y-110 X55 Z0.45 F4800
G1 X-55 E8 F2400
G1 Y-109.6 F2400
G1 X55 E5 F2400
G92 E0
G90
G21
M83 ; use relative distances for extrusion
; filament start gcode
;right_extruder_material: PLA
SET_PRESSURE_ADVANCE ADVANCE=0.025; Override pressure advance value
M106 S0
M106 P2 S0
;LAYER_CHANGE
;Z:0.2
;HEIGHT:0.2
;BEFORE_LAYER_CHANGE
;0.2
G1 E-.8 F2100
M73 P1 R18
;AFTER_LAYER_CHANGE
;0.2
;_SET_FAN_SPEED_CHANGING_LAYER
SET_VELOCITY_LIMIT ACCEL=500
G1 X-5.806 Y-2.877 F30000
G1 Z.6
G1 Z.2
G1 E.8 F2100
;TYPE:Support interface
;WIDTH:0.42
G1 F3000
G1 X-11.56 Y2.877 E.25005
G1 X-12.8 Y2.877 E.03811
G1 X-7.046 Y-2.877 E.25005
G1 X-8.286 Y-2.877 E.03811
G1 X-14.04 Y2.877 E.25005
G1 X-15.281 Y2.877 E.03811
G1 X-9.527 Y-2.877 E.25005
G1 X-10.767 Y-2.877 E.03811
G1 X-16.521 Y2.877 E.25005
G1 X-17.262 Y2.877 E.02278
G1 X-17.262 Y3.618 E.02278
G1 X-19.398 Y5.754 E.09281
G1 X-18.158 Y5.754 E.03811
G1 X-17.262 Y4.859 E.03891
G1 X-17.262 Y5.754 E.02752
G1 X-17.969 Y5.754 E.02172
G1 E-.8 F2100
;WIPE_START
G1 F3000
G1 X-17.262 Y5.754
G1 X-17.262 Y4.859
G1 X-17.544 Y5.14
;WIPE_END
G1 X-21.327 Y-1.489 Z.6 F30000
G1 X-22.119 Y-2.877 Z.6
G1 Z.2
G1 E.8 F2100
G1 F3000
G1 X-23.017 Y-2.877 E.02758
G1 X-23.017 Y-1.791 E.03338
G1 X-21.93 Y-2.877 E.0472
G1 X-20.69 Y-2.877 E.03811
G1 X-23.017 Y-.551 E.1011
G1 X-23.017 Y.69 E.03811
G1 X-19.45 Y-2.877 E.155
G1 X-18.209 Y-2.877 E.03811
G1 X-23.017 Y1.93 E.2089
G1 X-23.017 Y3.171 E.03811
G1 X-16.969 Y-2.877 E.2628
G1 X-15.729 Y-2.877 E.03811
G1 X-23.017 Y4.411 E.3167
G1 X-23.017 Y5.651 E.03811
G1 X-14.488 Y-2.877 E.3706
G1 X-13.248 Y-2.877 E.03811
G1 X-21.879 Y5.754 E.37507
G1 X-20.639 Y5.754 E.03811
G1 X-12.007 Y-2.877 E.37507
G1 X-10.956 Y-2.877 E.03232
G1 E-.8 F2100
;WIPE_START
G1 F3000
G1 X-12.007 Y-2.877
G1 X-12.678 Y-2.207
;WIPE_END
G1 X-5.854 Y-5.626 Z.6 F30000
G1 X-5.598 Y-5.754 Z.6
G1 Z.2
G1 E.8 F2100
G1 F3000
G1 X-5.754 Y-5.754 E.00481
G1 X-5.754 Y-5.409 E.0106
G1 X-5.409 Y-5.754 E.01499
G1 X-4.169 Y-5.754 E.03811
G1 X-5.754 Y-4.169 E.06889
G1 X-5.754 Y-2.928 E.03811
G1 X-2.928 Y-5.754 E.12279
G1 X-1.688 Y-5.754 E.03811
G1 X-10.319 Y2.877 E.37507
G1 X-9.079 Y2.877 E.03811
G1 X-.448 Y-5.754 E.37507
G1 X.793 Y-5.754 E.03811
G1 X-7.839 Y2.877 E.37507
G1 X-6.598 Y2.877 E.03811
G1 X2.033 Y-5.754 E.37507
G1 X3.273 Y-5.754 E.03811
M73 P2 R18
G1 X-5.358 Y2.877 E.37507
G1 X-4.117 Y2.877 E.03811
G1 X4.514 Y-5.754 E.37507
G1 X5.754 Y-5.754 E.03811
G1 X-2.877 Y2.877 E.37507
G1 X-1.637 Y2.877 E.03811
G1 X5.754 Y-4.514 E.32117
G1 X5.754 Y-3.273 E.03811
G1 X-.396 Y2.877 E.26727
G1 X.844 Y2.877 E.03811
G1 X6.598 Y-2.877 E.25005
G1 X7.839 Y-2.877 E.03811
G1 X2.084 Y2.877 E.25005
G1 X3.325 Y2.877 E.03811
G1 X9.079 Y-2.877 E.25005
G1 X10.319 Y-2.877 E.03811
G1 X4.565 Y2.877 E.25005
G1 X5.806 Y2.877 E.03811
G1 X11.56 Y-2.877 E.25005
G1 X12.8 Y-2.877 E.03811
G1 X7.046 Y2.877 E.25005
G1 X8.286 Y2.877 E.03811
G1 X14.04 Y-2.877 E.25005
G1 X15.281 Y-2.877 E.03811
G1 X9.527 Y2.877 E.25005
G1 X10.767 Y2.877 E.03811
G1 X16.521 Y-2.877 E.25005
G1 X17.762 Y-2.877 E.03811
G1 X12.007 Y2.877 E.25005
G1 X13.248 Y2.877 E.03811
G1 X19.002 Y-2.877 E.25005
G1 X20.242 Y-2.877 E.03811
G1 X14.488 Y2.877 E.25005
G1 X15.729 Y2.877 E.03811
G1 X21.483 Y-2.877 E.25005
G1 X22.723 Y-2.877 E.03811
G1 X16.969 Y2.877 E.25005
G1 X17.262 Y2.877 E.00902
G1 X17.262 Y3.824 E.02909
G1 X23.017 Y-1.93 E.25005
G1 X23.017 Y-.69 E.03811
G1 X17.262 Y5.064 E.25005
G1 X17.262 Y5.754 E.0212
G1 X17.813 Y5.754 E.01692
G1 X23.017 Y.551 E.22612
G1 X23.017 Y1.791 E.03811
G1 X19.053 Y5.754 E.17222
G1 X20.294 Y5.754 E.03811
G1 X23.017 Y3.031 E.11832
G1 X23.017 Y4.272 E.03811
G1 X21.534 Y5.754 E.06442
G1 X22.774 Y5.754 E.03811
G1 X23.017 Y5.512 E.01052
M106 S255
M106 P2 S255
;LAYER_CHANGE
;Z:0.5
;HEIGHT:0.3
;BEFORE_LAYER_CHANGE
;0.5
G1 E-.8 F2100
;WIPE_START
G1 F3000
G1 X22.774 Y5.754
G1 X21.534 Y5.754
G1 X21.829 Y5.459
;WIPE_END
;AFTER_LAYER_CHANGE
;0.5
;_SET_FAN_SPEED_CHANGING_LAYER
SET_VELOCITY_LIMIT ACCEL=10000
M140 S50 ; set bed temperature
G17
G3 Z.9 I1.047 J-.621 P1  F30000
G1 X19.29 Y1.18 Z.9
G1 Z.5
G1 E.8 F2100
SET_VELOCITY_LIMIT ACCEL=5000
;TYPE:Outer wall
;HEIGHT:0.2
G1 F600
;_SUPP_INTERFACE_FAN_END
G1 X17.122 Y.787 E.0677
G1 X14.694 Y.406 E.07552
G1 X12.258 Y.084 E.0755
G1 X9.815 Y-.18 E.0755
G1 X7.366 Y-.386 E.07552
G1 X4.913 Y-.533 E.07551
G1 X2.457 Y-.621 E.07551
G1 X0 Y-.65 E.0755
G1 X-2.457 Y-.621 E.0755
G1 X-4.913 Y-.533 E.07551
G1 X-7.366 Y-.386 E.07551
G1 X-9.815 Y-.18 E.07552
G1 X-12.258 Y.084 E.0755
G1 X-14.694 Y.406 E.0755
G1 X-17.122 Y.787 E.07552
M73 P3 R18
G1 X-19.29 Y1.18 E.0677
G1 X-19.29 Y.589 E.01816
G1 X-16.891 Y.16 E.07488
G1 X-14.311 Y-.234 E.0802
G1 X-11.721 Y-.563 E.08022
G1 X-9.124 Y-.826 E.08021
G1 X-6.521 Y-1.024 E.08021
G1 X-3.915 Y-1.156 E.08018
G1 X-1.305 Y-1.222 E.08022
G1 X1.313 Y-1.222 E.08044
G1 X3.915 Y-1.156 E.07998
G1 X6.521 Y-1.024 E.08018
G1 X9.124 Y-.826 E.08021
G1 X11.729 Y-.562 E.08045
G1 X14.311 Y-.234 E.07998
G1 X16.891 Y.16 E.0802
G1 X19.29 Y.589 E.07488
G1 X19.29 Y1.14 E.01693
SET_VELOCITY_LIMIT ACCEL=10000
G1 X19.094 Y.849 F30000
;TYPE:Gap infill
;WIDTH:0.230178
G1 F12000
M106 S255
G1 X16.843 Y.448 E.03489
G1 X14.27 Y.055 E.03972
G1 X12.291 Y-.201 E.03045
G1 X9.841 Y-.465 E.0376
G1 X7.386 Y-.671 E.0376
G1 X4.926 Y-.818 E.0376
G1 X2.463 Y-.907 E.0376
G1 X.001 Y-.936 E.03757
G1 X-2.463 Y-.907 E.0376
G1 X-4.926 Y-.818 E.0376
G1 X-7.386 Y-.671 E.0376
G1 X-9.841 Y-.466 E.0376
G1 X-12.291 Y-.201 E.0376
G1 X-14.27 Y.055 E.03045
G1 X-16.843 Y.448 E.03972
G1 X-19.094 Y.849 E.03489
;LAYER_CHANGE
;Z:0.7
;HEIGHT:0.2
;BEFORE_LAYER_CHANGE
;0.7
G1 E-.8 F2100
;WIPE_START
G1 F12000
G1 X-17.125 Y.498
;WIPE_END
;AFTER_LAYER_CHANGE
;0.7
;_SET_FAN_SPEED_CHANGING_LAYER
G17
G3 Z1.1 I-.023 J1.217 P1  F30000
G1 X19.29 Y1.18 Z1.1
G1 Z.7
G1 E.8 F2100
SET_VELOCITY_LIMIT ACCEL=5000
;TYPE:Outer wall
;WIDTH:0.42
G1 F1200
G1 X17.122 Y.787 E.0677
G1 X14.694 Y.406 E.07551
G1 X12.258 Y.084 E.07551
G1 X9.815 Y-.18 E.07551
G1 X7.366 Y-.386 E.07551
G1 X4.913 Y-.533 E.07551
G1 X2.457 Y-.621 E.07551
G1 X0 Y-.65 E.07551
M73 P3 R17
G1 X-2.457 Y-.621 E.07551
G1 X-4.913 Y-.533 E.07551
G1 X-7.366 Y-.386 E.07551
G1 X-9.815 Y-.18 E.07551
G1 X-12.258 Y.084 E.07551
G1 X-14.694 Y.406 E.07551
G1 X-17.122 Y.787 E.07551
G1 X-19.29 Y1.18 E.0677
G1 X-19.29 Y.589 E.01816
G1 X-16.891 Y.16 E.07489
G1 X-14.311 Y-.234 E.08021
G1 X-11.699 Y-.565 E.0809
G1 X-9.124 Y-.826 E.07952
G1 X-6.522 Y-1.024 E.0802
G1 X-3.915 Y-1.156 E.08021
G1 X-1.305 Y-1.222 E.0802
G1 X1.328 Y-1.221 E.08089
G1 X3.915 Y-1.156 E.07952
G1 X6.521 Y-1.024 E.08021
G1 X9.124 Y-.826 E.08021
G1 X11.721 Y-.563 E.08021
G1 X14.311 Y-.234 E.08021
G1 X16.891 Y.16 E.08021
G1 X19.29 Y.589 E.07489
G1 X19.29 Y1.14 E.01693
SET_VELOCITY_LIMIT ACCEL=10000
G1 X19.094 Y.849 F30000
;TYPE:Gap infill
;WIDTH:0.230159
G1 F1200
G1 X16.843 Y.448 E.03488
G1 X14.27 Y.055 E.03971
G1 X12.291 Y-.201 E.03045
G1 X9.841 Y-.466 E.0376
G1 X7.386 Y-.671 E.0376
G1 X4.926 Y-.818 E.0376
G1 X2.463 Y-.907 E.0376
G1 X-.001 Y-.936 E.0376
G1 X-2.463 Y-.907 E.03757
G1 X-4.926 Y-.818 E.0376
G1 X-7.386 Y-.671 E.0376
G1 X-9.841 Y-.466 E.0376
G1 X-12.291 Y-.201 E.0376
G1 X-14.27 Y.056 E.03045
G1 X-16.843 Y.448 E.03971
G1 X-19.094 Y.849 E.03488
;LAYER_CHANGE
;Z:0.9
;HEIGHT:0.2
;BEFORE_LAYER_CHANGE
;0.9
G1 E-.8 F2100
;WIPE_START
G1 F12000
G1 X-17.125 Y.498
;WIPE_END
;AFTER_LAYER_CHANGE
;0.9
;_SET_FAN_SPEED_CHANGING_LAYER
G17
G3 Z1.3 I-.023 J1.217 P1  F30000
G1 X19.29 Y1.18 Z1.3
G1 Z.9
M73 P4 R17
G1 E.8 F2100
SET_VELOCITY_LIMIT ACCEL=5000
;TYPE:Outer wall
;WIDTH:0.42
G1 F1200
G1 X17.122 Y.787 E.0677
G1 X14.694 Y.406 E.07551
G1 X12.258 Y.084 E.07551
G1 X9.815 Y-.18 E.07551
G1 X7.366 Y-.386 E.07551
G1 X4.913 Y-.533 E.07551
G1 X2.457 Y-.621 E.07551
G1 X0 Y-.65 E.07551
G1 X-2.457 Y-.621 E.07551
G1 X-4.913 Y-.533 E.07551
G1 X-7.366 Y-.386 E.07551
G1 X-9.815 Y-.18 E.07551
G1 X-12.258 Y.084 E.07551
G1 X-14.694 Y.406 E.07551
G1 X-17.122 Y.787 E.07551
G1 X-19.29 Y1.18 E.0677
G1 X-19.29 Y.589 E.01816
G1 X-16.891 Y.16 E.07489
G1 X-14.311 Y-.234 E.08021
G1 X-11.684 Y-.567 E.08135
G1 X-9.124 Y-.826 E.07906
G1 X-6.521 Y-1.024 E.08021
G1 X-3.915 Y-1.156 E.08021
G1 X-1.305 Y-1.222 E.0802
G1 X1.342 Y-1.221 E.08135
G1 X3.915 Y-1.156 E.07906
G1 X6.521 Y-1.024 E.08021
G1 X9.124 Y-.826 E.0802
G1 X11.758 Y-.558 E.08135
G1 X14.311 Y-.234 E.07906
G1 X16.891 Y.16 E.08021
G1 X19.29 Y.589 E.07489
G1 X19.29 Y1.14 E.01693
SET_VELOCITY_LIMIT ACCEL=10000
G1 X19.094 Y.849 F30000
;TYPE:Gap infill
;WIDTH:0.230111
G1 F1200
G1 X16.843 Y.448 E.03487
G1 X14.27 Y.055 E.0397
G1 X12.291 Y-.201 E.03044
G1 X9.841 Y-.465 E.03759
G1 X7.386 Y-.671 E.03759
G1 X4.926 Y-.818 E.03759
G1 X2.463 Y-.907 E.03759
G1 X-.001 Y-.936 E.03759
G1 X-2.463 Y-.907 E.03756
G1 X-4.926 Y-.818 E.03759
G1 X-7.386 Y-.671 E.03759
G1 X-9.841 Y-.466 E.03759
G1 X-12.291 Y-.201 E.03759
G1 X-14.27 Y.056 E.03044
G1 X-16.843 Y.448 E.0397
G1 X-19.094 Y.849 E.03487
;LAYER_CHANGE
;Z:1.1
;HEIGHT:0.2
;BEFORE_LAYER_CHANGE
;1.1
G1 E-.8 F2100
;WIPE_START
G1 F12000
G1 X-17.125 Y.498
;WIPE_END
;AFTER_LAYER_CHANGE
;1.1
;_SET_FAN_SPEED_CHANGING_LAYER
G17
G3 Z1.5 I-.023 J1.217 P1  F30000
G1 X19.29 Y1.18 Z1.5
G1 Z1.1
G1 E.8 F2100
SET_VELOCITY_LIMIT ACCEL=5000
;TYPE:Outer wall
;WIDTH:0.42
G1 F1200
G1 X17.122 Y.787 E.0677
G1 X14.694 Y.406 E.07551
G1 X12.258 Y.084 E.07551
G1 X9.815 Y-.18 E.07551
G1 X7.366 Y-.386 E.07551
G1 X4.913 Y-.533 E.07551
G1 X2.457 Y-.621 E.07551
G1 X0 Y-.65 E.07551
G1 X-2.457 Y-.621 E.07551
G1 X-4.913 Y-.533 E.07551
G1 X-7.366 Y-.386 E.07551
G1 X-9.815 Y-.18 E.07551
G1 X-12.258 Y.084 E.07551
G1 X-14.694 Y.406 E.07551
G1 X-17.122 Y.787 E.07551
G1 X-19.29 Y1.18 E.0677
G1 X-19.29 Y.589 E.01816
G1 X-16.891 Y.16 E.07489
G1 X-14.311 Y-.234 E.08021
G1 X-11.669 Y-.568 E.08181
G1 X-9.124 Y-.826 E.0786
G1 X-6.521 Y-1.024 E.08021
G1 X-3.915 Y-1.156 E.08021
G1 X-1.305 Y-1.222 E.0802
G1 X1.357 Y-1.221 E.08181
G1 X3.915 Y-1.156 E.0786
G1 X6.521 Y-1.024 E.08021
G1 X9.124 Y-.826 E.0802
G1 X11.773 Y-.556 E.08181
G1 X14.311 Y-.234 E.0786
G1 X16.891 Y.16 E.08021
G1 X19.29 Y.589 E.07489
G1 X19.29 Y1.14 E.01693
SET_VELOCITY_LIMIT ACCEL=10000
G1 X19.094 Y.849 F30000
;TYPE:Gap infill
;WIDTH:0.230081
G1 F1200
G1 X16.843 Y.448 E.03487
G1 X14.27 Y.055 E.0397
G1 X12.291 Y-.201 E.03043
G1 X9.841 Y-.465 E.03758
G1 X7.386 Y-.671 E.03758
G1 X4.926 Y-.818 E.03758
G1 X2.463 Y-.907 E.03758
G1 X-.001 Y-.936 E.03758
G1 X-2.463 Y-.907 E.03755
M73 P5 R17
G1 X-4.926 Y-.818 E.03758
G1 X-7.386 Y-.671 E.03758
G1 X-9.841 Y-.466 E.03758
G1 X-12.291 Y-.201 E.03758
G1 X-14.27 Y.056 E.03043
G1 X-16.843 Y.448 E.0397
G1 X-19.094 Y.849 E.03487
;LAYER_CHANGE
;Z:1.3
;HEIGHT:0.2
;BEFORE_LAYER_CHANGE
;1.3
G1 E-.8 F2100
;WIPE_START
G1 F12000
G1 X-17.125 Y.498
;WIPE_END
;AFTER_LAYER_CHANGE
;1.3
;_SET_FAN_SPEED_CHANGING_LAYER
G17
G3 Z1.7 I-.023 J1.217 P1  F30000
G1 X19.29 Y1.18 Z1.7
G1 Z1.3
G1 E.8 F2100
SET_VELOCITY_LIMIT ACCEL=5000
;TYPE:Outer wall
;WIDTH:0.42
G1 F1200
G1 X17.122 Y.787 E.0677
G1 X14.694 Y.406 E.07551
G1 X12.258 Y.084 E.07551
G1 X9.815 Y-.18 E.07551
G1 X7.366 Y-.386 E.07551
G1 X4.913 Y-.533 E.07551
G1 X2.457 Y-.621 E.07551
G1 X0 Y-.65 E.07551
G1 X-2.457 Y-.621 E.07551
G1 X-4.913 Y-.533 E.07551
G1 X-7.366 Y-.386 E.07551
G1 X-9.815 Y-.18 E.07551
G1 X-12.258 Y.084 E.07551
G1 X-14.694 Y.406 E.07551
G1 X-17.122 Y.787 E.07551
G1 X-19.29 Y1.18 E.0677
G1 X-19.29 Y.589 E.01816
G1 X-16.891 Y.16 E.07489
G1 X-14.311 Y-.234 E.08021
G1 X-11.654 Y-.57 E.08227
G1 X-9.124 Y-.826 E.07814
G1 X-6.521 Y-1.024 E.08021
G1 X-3.915 Y-1.156 E.08021
G1 X-1.305 Y-1.222 E.0802
G1 X1.372 Y-1.22 E.08227
G1 X3.915 Y-1.156 E.07814
G1 X6.521 Y-1.024 E.08021
G1 X9.124 Y-.826 E.08021
G1 X11.721 Y-.563 E.08021
G1 X14.311 Y-.234 E.0802
G1 X16.891 Y.16 E.08021
G1 X19.29 Y.589 E.07489
G1 X19.29 Y1.14 E.01693
SET_VELOCITY_LIMIT ACCEL=10000
G1 X19.094 Y.849 F30000
;TYPE:Gap infill
;WIDTH:0.230102
G1 F1200
G1 X16.843 Y.448 E.03487
G1 X14.27 Y.055 E.0397
G1 X12.291 Y-.201 E.03044
G1 X9.841 Y-.466 E.03759
G1 X7.386 Y-.671 E.03759
G1 X4.926 Y-.818 E.03759
G1 X2.463 Y-.907 E.03759
G1 X.001 Y-.936 E.03755
G1 X-2.463 Y-.907 E.03759
G1 X-4.926 Y-.818 E.03759
G1 X-7.386 Y-.671 E.03759
G1 X-9.841 Y-.466 E.03759
G1 X-12.291 Y-.201 E.03759
G1 X-14.27 Y.056 E.03044
G1 X-16.843 Y.448 E.0397
G1 X-19.094 Y.849 E.03487
;LAYER_CHANGE
;Z:1.5
;HEIGHT:0.2
;BEFORE_LAYER_CHANGE
;1.5
G1 E-.8 F2100
;WIPE_START
G1 F12000
G1 X-17.125 Y.498
;WIPE_END
;AFTER_LAYER_CHANGE
;1.5
;_SET_FAN_SPEED_CHANGING_LAYER
G17
G3 Z1.9 I-.023 J1.217 P1  F30000
G1 X19.29 Y1.18 Z1.9
G1 Z1.5
G1 E.8 F2100
SET_VELOCITY_LIMIT ACCEL=5000
;TYPE:Outer wall
;WIDTH:0.42
G1 F1200
G1 X17.122 Y.787 E.0677
G1 X14.694 Y.406 E.07551
G1 X12.258 Y.084 E.07551
G1 X9.815 Y-.18 E.07551
G1 X7.366 Y-.386 E.07551
G1 X4.913 Y-.533 E.07551
G1 X2.457 Y-.621 E.07551
G1 X0 Y-.65 E.07551
G1 X-2.457 Y-.621 E.07551
G1 X-4.913 Y-.533 E.07551
G1 X-7.366 Y-.386 E.07551
G1 X-9.815 Y-.18 E.07551
G1 X-12.258 Y.084 E.07551
G1 X-14.694 Y.406 E.07551
G1 X-17.122 Y.787 E.07551
G1 X-19.29 Y1.18 E.0677
G1 X-19.29 Y.589 E.01816
G1 X-16.891 Y.16 E.07489
G1 X-14.311 Y-.234 E.08021
G1 X-11.639 Y-.571 E.08273
G1 X-9.124 Y-.826 E.07768
G1 X-6.521 Y-1.024 E.08021
G1 X-3.915 Y-1.156 E.08021
G1 X-1.305 Y-1.222 E.0802
G1 X1.387 Y-1.22 E.08273
G1 X3.915 Y-1.156 E.07768
G1 X6.521 Y-1.024 E.08021
G1 X9.124 Y-.826 E.08021
G1 X11.721 Y-.563 E.08021
G1 X14.311 Y-.234 E.0802
G1 X16.891 Y.16 E.08021
G1 X19.29 Y.589 E.07489
M73 P6 R17
G1 X19.29 Y1.14 E.01693
SET_VELOCITY_LIMIT ACCEL=10000
G1 X19.094 Y.849 F30000
;TYPE:Gap infill
;WIDTH:0.230083
G1 F1200
G1 X16.843 Y.448 E.03487
G1 X14.27 Y.055 E.0397
G1 X12.291 Y-.201 E.03043
G1 X9.841 Y-.466 E.03758
G1 X7.386 Y-.671 E.03758
G1 X4.926 Y-.818 E.03758
G1 X2.463 Y-.907 E.03758
G1 X-.001 Y-.935 E.03758
G1 X-2.463 Y-.907 E.03755
G1 X-4.926 Y-.818 E.03758
G1 X-7.386 Y-.671 E.03758
G1 X-9.841 Y-.466 E.03758
G1 X-12.291 Y-.2 E.03758
G1 X-14.27 Y.056 E.03043
G1 X-16.843 Y.448 E.0397
G1 X-19.094 Y.849 E.03487
;LAYER_CHANGE
;Z:1.7
;HEIGHT:0.2
;BEFORE_LAYER_CHANGE
;1.7
G1 E-.8 F2100
;WIPE_START
G1 F12000
G1 X-17.125 Y.498
;WIPE_END
;AFTER_LAYER_CHANGE
;1.7
;_SET_FAN_SPEED_CHANGING_LAYER
G17
G3 Z2.1 I-.023 J1.217 P1  F30000
G1 X19.29 Y1.18 Z2.1
G1 Z1.7
G1 E.8 F2100
SET_VELOCITY_LIMIT ACCEL=5000
;TYPE:Outer wall
;WIDTH:0.42
G1 F1200
G1 X17.122 Y.787 E.0677
G1 X14.694 Y.406 E.07551
G1 X12.258 Y.084 E.07551
G1 X9.815 Y-.18 E.07551
G1 X7.366 Y-.386 E.07551
G1 X4.913 Y-.533 E.07551
G1 X2.457 Y-.621 E.07551
G1 X0 Y-.65 E.07551
G1 X-2.457 Y-.621 E.07551
G1 X-4.913 Y-.533 E.07551
G1 X-7.366 Y-.386 E.07551
G1 X-9.815 Y-.18 E.07551
G1 X-12.258 Y.084 E.07551
G1 X-14.694 Y.406 E.07551
G1 X-17.122 Y.787 E.07551
G1 X-19.29 Y1.18 E.0677
G1 X-19.29 Y.589 E.01816
G1 X-16.891 Y.16 E.07489
G1 X-14.311 Y-.234 E.08021
G1 X-11.721 Y-.563 E.0802
G1 X-9.124 Y-.826 E.08021
G1 X-6.521 Y-1.024 E.08021
G1 X-3.915 Y-1.156 E.08021
G1 X-1.305 Y-1.222 E.0802
G1 X1.402 Y-1.219 E.08319
G1 X3.915 Y-1.156 E.07722
G1 X6.521 Y-1.024 E.08021
G1 X9.124 Y-.826 E.08021
G1 X11.721 Y-.563 E.08021
G1 X14.311 Y-.234 E.08021
G1 X16.891 Y.16 E.08021
G1 X19.29 Y.589 E.07489
G1 X19.29 Y1.14 E.01693
SET_VELOCITY_LIMIT ACCEL=10000
G1 X19.094 Y.849 F30000
;TYPE:Gap infill
;WIDTH:0.230139
G1 F1200
G1 X16.843 Y.448 E.03488
G1 X14.27 Y.055 E.03971
G1 X12.291 Y-.201 E.03044
G1 X9.841 Y-.466 E.0376
G1 X7.386 Y-.671 E.03759
