; HEADER_BLOCK_START
; generated by OrcaSlicer 2.3.0 on 2026-05-31 at 18:09:20
; total layer number: 64
;_GP_TOTAL_LAYER_NUMBER_PLACEHOLDER
; filament_density: 1.24
; filament_diameter: 1.75
; max_z_height: 12.80
; HEADER_BLOCK_END

; THUMBNAIL_BLOCK_START

;
; THUMBNAIL_BLOCK_END

; external perimeters extrusion width = 0.42mm
; perimeters extrusion width = 0.45mm
; infill extrusion width = 0.45mm
; solid infill extrusion width = 0.42mm
; top infill extrusion width = 0.42mm
; first layer extrusion width = 0.50mm

; EXECUTABLE_BLOCK_START
M73 P0 R12
M106 S0
M106 P2 S0
;TYPE:Custom
M190 S55
M104 S220
G90
M83
G1 Z5 F6000
G1 E-0.2 F800
G1 X110 Y-110 F6000
G1 E2 F800
G1 Y-110 X55 Z0.25 F4800
G1 X-55 E8 F2400
G1 Y-109.6 F2400
G1 X55 E5 F2400
G1 Y-110 X55 Z0.45 F4800
M73 P1 R12
G1 X-55 E8 F2400
G1 Y-109.6 F2400
G1 X55 E5 F2400
G92 E0
G90
G21
M83 ; use relative distances for extrusion
; filament start gcode
;right_extruder_material: PLA
SET_PRESSURE_ADVANCE ADVANCE=0.025; Override pressure advance value
M106 S0
M106 P2 S0
;LAYER_CHANGE
;Z:0.2
;HEIGHT:0.2
;BEFORE_LAYER_CHANGE
;0.2
G1 E-.8 F2100
;AFTER_LAYER_CHANGE
;0.2
;_SET_FAN_SPEED_CHANGING_LAYER
SET_VELOCITY_LIMIT ACCEL=500
G1 X-5.332 Y25.088 F30000
G1 Z.6
G1 Z.2
G1 E.8 F2100
;TYPE:Inner wall
;WIDTH:0.5
G1 F3000
G1 X-6.822 Y24.724 E.05712
G1 X-8.288 Y24.272 E.05714
G1 X-9.724 Y23.733 E.05714
G1 X-11.089 Y23.125 E.05564
G1 X-12.488 Y22.402 E.05866
G1 X-13.805 Y21.615 E.05712
M73 P2 R12
G1 X-15.072 Y20.751 E.05714
G1 X-16.286 Y19.813 E.05714
G1 X-17.441 Y18.803 E.05714
G1 X-18.534 Y17.727 E.05714
G1 X-19.561 Y16.586 E.05714
G1 X-20.265 Y15.703 E.04207
G1 X-20.517 Y15.387 E.01507
G1 X-21.401 Y14.132 E.05714
G1 X-22.207 Y12.827 E.05714
G1 X-22.934 Y11.476 E.05714
G1 X-23.579 Y10.084 E.05714
G1 X-24.125 Y8.693 E.05564
G1 X-24.614 Y7.196 E.05866
G1 X-25 Y5.712 E.05712
G1 X-25.296 Y4.207 E.05714
G1 X-25.502 Y2.686 E.05714
G1 X-25.617 Y1.156 E.05714
G1 X-25.64 Y-.378 E.05714
G1 X-25.571 Y-1.91 E.05714
G1 X-25.41 Y-3.436 E.05714
G1 X-25.159 Y-4.95 E.05714
G1 X-24.818 Y-6.445 E.05714
G1 X-24.388 Y-7.918 E.05714
G1 X-23.87 Y-9.362 E.05714
G1 X-23.267 Y-10.773 E.05714
G1 X-22.581 Y-12.145 E.05714
G1 X-21.814 Y-13.474 E.05714
G1 X-20.968 Y-14.754 E.05714
G1 X-20.048 Y-15.982 E.05714
G1 X-19.056 Y-17.152 E.05714
G1 X-17.996 Y-18.261 E.05714
G1 X-16.871 Y-19.305 E.05715
G1 X-15.686 Y-20.279 E.05714
G1 X-14.445 Y-21.181 E.05714
G1 X-13.152 Y-22.007 E.05714
G1 X-11.812 Y-22.754 E.05714
G1 X-10.43 Y-23.42 E.05714
G1 X-9.01 Y-24.002 E.05715
G1 X-7.558 Y-24.497 E.05714
G1 X-6.079 Y-24.906 E.05714
G1 X-4.579 Y-25.225 E.05714
G1 X-3.062 Y-25.453 E.05715
G1 X-1.534 Y-25.591 E.05714
G1 X0 Y-25.637 E.05714
G1 X.359 Y-25.626 E.01339
G1 X1.534 Y-25.591 E.04376
G1 X3.062 Y-25.453 E.05714
G1 X4.579 Y-25.225 E.05715
G1 X6.079 Y-24.906 E.05714
G1 X7.558 Y-24.497 E.05714
G1 X9.01 Y-24.002 E.05714
G1 X10.43 Y-23.42 E.05714
G1 X11.812 Y-22.754 E.05714
G1 X13.152 Y-22.007 E.05714
G1 X14.445 Y-21.181 E.05714
G1 X15.686 Y-20.279 E.05714
G1 X16.871 Y-19.305 E.05714
G1 X17.996 Y-18.261 E.05714
G1 X19.056 Y-17.152 E.05714
G1 X20.048 Y-15.982 E.05714
G1 X20.968 Y-14.754 E.05714
G1 X21.814 Y-13.474 E.05714
G1 X22.581 Y-12.145 E.05714
G1 X23.267 Y-10.773 E.05714
G1 X23.87 Y-9.362 E.05714
G1 X24.388 Y-7.918 E.05714
G1 X24.818 Y-6.445 E.05714
G1 X25.159 Y-4.95 E.05714
G1 X25.41 Y-3.436 E.05714
G1 X25.571 Y-1.91 E.05714
G1 X25.64 Y-.378 E.05714
G1 X25.617 Y1.156 E.05714
G1 X25.502 Y2.686 E.05714
G1 X25.452 Y3.054 E.01381
G1 X25.296 Y4.207 E.04334
G1 X25 Y5.712 E.05714
G1 X24.614 Y7.197 E.05715
G1 X24.14 Y8.656 E.05714
G1 X23.579 Y10.084 E.05714
G1 X22.934 Y11.476 E.05714
G1 X22.207 Y12.827 E.05714
G1 X21.422 Y14.098 E.05564
G1 X20.517 Y15.387 E.05866
G1 X19.561 Y16.586 E.05712
G1 X18.534 Y17.727 E.05714
G1 X17.441 Y18.803 E.05714
G1 X16.286 Y19.813 E.05714
G1 X15.072 Y20.751 E.05714
G1 X13.805 Y21.615 E.05714
G1 X12.488 Y22.402 E.05714
G1 X11.162 Y23.091 E.05564
G1 X9.724 Y23.733 E.05866
G1 X8.288 Y24.272 E.05712
G1 X6.822 Y24.724 E.05714
G1 X5.331 Y25.088 E.05714
G1 X3.861 Y25.355 E.05564
G1 X2.298 Y25.545 E.05866
G1 X.767 Y25.637 E.05713
G1 X-.767 Y25.637 E.05714
G1 X-2.299 Y25.545 E.05714
G1 X-3.782 Y25.367 E.05564
G1 X-5.293 Y25.095 E.05717
G1 X-5.427 Y25.535 F30000
;TYPE:Outer wall
G1 F3000
G1 X-6.943 Y25.165 E.05815
G1 X-8.436 Y24.705 E.05816
G1 X-9.898 Y24.156 E.05816
G1 X-11.287 Y23.538 E.05665
G1 X-12.71 Y22.802 E.05968
G1 X-14.051 Y22.001 E.05815
G1 X-15.341 Y21.121 E.05816
G1 X-16.576 Y20.166 E.05816
G1 X-17.752 Y19.138 E.05816
G1 X-18.865 Y18.043 E.05816
G1 X-19.91 Y16.882 E.05816
G1 X-20.883 Y15.661 E.05816
G1 X-21.782 Y14.384 E.05816
G1 X-22.603 Y13.056 E.05816
G1 X-23.343 Y11.681 E.05816
G1 X-24 Y10.264 E.05816
G1 X-24.555 Y8.848 E.05665
G1 X-25.053 Y7.325 E.05968
G1 X-25.445 Y5.814 E.05816
G1 X-25.747 Y4.282 E.05816
G1 X-25.957 Y2.734 E.05816
G1 X-26.074 Y1.177 E.05816
G1 X-26.097 Y-.385 E.05816
G1 X-26.027 Y-1.945 E.05816
G1 X-25.864 Y-3.498 E.05816
G1 X-25.608 Y-5.038 E.05816
G1 X-25.26 Y-6.56 E.05816
G1 X-24.822 Y-8.059 E.05816
G1 X-24.296 Y-9.529 E.05816
G1 X-23.682 Y-10.965 E.05816
G1 X-22.983 Y-12.362 E.05816
G1 X-22.203 Y-13.714 E.05816
G1 X-21.342 Y-15.018 E.05816
G1 X-20.406 Y-16.267 E.05816
G1 X-19.396 Y-17.458 E.05816
G1 X-18.317 Y-18.587 E.05816
G1 X-17.172 Y-19.649 E.05816
G1 X-15.966 Y-20.641 E.05816
G1 X-14.703 Y-21.559 E.05816
G1 X-13.387 Y-22.399 E.05816
G1 X-12.023 Y-23.16 E.05816
G1 X-10.616 Y-23.837 E.05816
G1 X-9.171 Y-24.43 E.05816
G1 X-7.693 Y-24.934 E.05816
G1 X-6.188 Y-25.35 E.05816
G1 X-4.66 Y-25.674 E.05816
G1 X-3.116 Y-25.907 E.05816
G1 X-1.561 Y-26.047 E.05816
G1 X0 Y-26.094 E.05816
G1 X.373 Y-26.083 E.0139
G1 X1.561 Y-26.047 E.04427
G1 X3.116 Y-25.907 E.05816
G1 X4.66 Y-25.674 E.05816
G1 X6.188 Y-25.35 E.05816
G1 X7.693 Y-24.934 E.05816
G1 X9.171 Y-24.43 E.05816
G1 X10.616 Y-23.837 E.05816
G1 X12.023 Y-23.16 E.05816
G1 X13.387 Y-22.399 E.05816
G1 X14.703 Y-21.559 E.05816
G1 X15.966 Y-20.641 E.05816
G1 X17.172 Y-19.649 E.05816
G1 X18.317 Y-18.587 E.05816
G1 X19.396 Y-17.458 E.05816
G1 X20.406 Y-16.267 E.05816
G1 X21.342 Y-15.018 E.05816
G1 X22.203 Y-13.714 E.05816
G1 X22.983 Y-12.362 E.05816
G1 X23.682 Y-10.965 E.05816
G1 X24.296 Y-9.529 E.05816
G1 X24.822 Y-8.059 E.05816
G1 X25.26 Y-6.56 E.05816
G1 X25.608 Y-5.038 E.05816
G1 X25.864 Y-3.498 E.05816
G1 X26.027 Y-1.945 E.05816
G1 X26.097 Y-.385 E.05816
G1 X26.074 Y1.177 E.05816
G1 X25.957 Y2.734 E.05816
G1 X25.905 Y3.115 E.01432
G1 X25.747 Y4.282 E.04385
G1 X25.445 Y5.814 E.05816
G1 X25.053 Y7.325 E.05816
G1 X24.57 Y8.81 E.05816
G1 X24 Y10.264 E.05816
G1 X23.343 Y11.681 E.05816
G1 X22.603 Y13.056 E.05816
G1 X21.804 Y14.35 E.05665
G1 X20.883 Y15.661 E.05968
G1 X19.91 Y16.882 E.05816
G1 X18.865 Y18.043 E.05816
G1 X17.752 Y19.138 E.05816
G1 X16.576 Y20.166 E.05816
G1 X15.341 Y21.121 E.05816
G1 X14.051 Y22.001 E.05816
G1 X12.71 Y22.802 E.05816
G1 X11.36 Y23.502 E.05665
G1 X9.898 Y24.156 E.05968
G1 X8.436 Y24.705 E.05816
G1 X6.944 Y25.165 E.05816
G1 X5.426 Y25.535 E.05816
G1 X3.93 Y25.807 E.05665
G1 X2.339 Y26.001 E.05968
G1 X.781 Y26.094 E.05816
G1 X-.781 Y26.094 E.05816
G1 X-2.34 Y26.001 E.05816
G1 X-3.85 Y25.819 E.05665
G1 X-5.387 Y25.542 E.05819
G1 E-.8 F2100
;WIPE_START
G1 F3000
G1 X-6.943 Y25.165
G1 X-7.324 Y25.048
;WIPE_END
G1 X-3.875 Y18.239 Z.6 F30000
G1 X15.592 Y-20.178 Z.6
G1 Z.2
G1 E.8 F2100
;TYPE:Bottom surface
;WIDTH:0.502823
G1 F4800
G1 X17.797 Y-17.973 E.11686
G1 X18.801 Y-16.923 E.05444
G1 X19.78 Y-15.768 E.05673
G1 X20.688 Y-14.557 E.05673
G1 X20.931 Y-14.189 E.01653
M73 P3 R12
G1 X14.17 Y-20.95 E.35834
G1 X12.976 Y-21.712 E.05309
G1 X12.481 Y-21.989 E.02126
G1 X21.995 Y-12.475 E.50424
G1 X22.279 Y-11.983 E.02129
G1 X22.721 Y-11.097 E.03709
G1 X11.105 Y-22.714 E.61567
G1 X10.29 Y-23.106 E.03388
G1 X9.904 Y-23.265 E.01565
G1 X23.266 Y-9.902 E.70822
G1 X23.551 Y-9.237 E.0271
G1 X23.701 Y-8.817 E.01673
G1 X8.811 Y-23.707 E.78919
G1 X7.823 Y-24.045 E.03912
G1 X24.064 Y-7.804 E.86074
G1 X24.332 Y-6.885 E.03587
G1 X6.892 Y-24.326 E.92434
G1 X5.994 Y-24.573 E.03491
G1 X24.568 Y-5.999 E.98443
G1 X24.76 Y-5.156 E.0324
G1 X5.168 Y-24.749 E1.0384
G1 X4.355 Y-24.912 E.03108
G1 X24.91 Y-4.356 E1.08944
G1 X25.04 Y-3.576 E.02963
G1 X3.589 Y-25.027 E1.13689
G1 X2.836 Y-25.129 E.02847
G1 X25.129 Y-2.837 E1.1815
G1 X25.205 Y-2.11 E.02739
G1 X2.121 Y-25.194 E1.22343
G1 X1.413 Y-25.251 E.02663
G1 X25.25 Y-1.415 E1.26334
G1 X25.281 Y-.734 E.02555
G1 X.743 Y-25.271 E1.30049
G1 X.072 Y-25.291 E.02514
G1 X25.292 Y-.071 E1.33665
G1 X25.283 Y.569 E.02402
M73 P4 R12
G1 X-.563 Y-25.277 E1.36983
G1 X-1.195 Y-25.258 E.02368
G1 X25.269 Y1.206 E1.40259
G1 X25.224 Y1.811 E.02274
G1 X-1.809 Y-25.222 E1.43274
G1 X-2.406 Y-25.168 E.02245
G1 X25.179 Y2.416 E1.46196
G1 X25.113 Y3.002 E.02207
G1 X-3.003 Y-25.114 E1.49013
G1 X-3.569 Y-25.03 E.02145
G1 X25.036 Y3.574 E1.51603
G1 X24.958 Y4.147 E.02166
G1 X-4.134 Y-24.945 E1.54187
G1 X-4.69 Y-24.85 E.02113
G1 X24.851 Y4.691 E1.56567
G1 X24.744 Y5.234 E.02075
G1 X-5.226 Y-24.736 E1.58843
G1 X-5.763 Y-24.622 E.02055
G1 X24.63 Y5.77 E1.61081
G1 X24.496 Y6.287 E.01999
G1 X-6.284 Y-24.493 E1.63133
G1 X-6.794 Y-24.353 E.01982
M73 P5 R12
G1 X24.362 Y6.803 E1.65123
G1 X24.217 Y7.308 E.01971
G1 X-7.304 Y-24.212 E1.67057
G1 X-7.796 Y-24.054 E.01938
G1 X24.057 Y7.799 E1.68821
G1 X23.898 Y8.29 E.01934
G1 X-8.281 Y-23.888 E1.70545
G1 X-8.766 Y-23.723 E.0192
G1 X23.727 Y8.769 E1.72207
G1 X23.543 Y9.237 E.0188
G1 X-9.233 Y-23.54 E1.73712
G1 X-9.694 Y-23.351 E.01868
G1 X23.36 Y9.704 E1.75186
G1 X23.166 Y10.16 E.01858
M73 P5 R11
G1 X-10.156 Y-23.162 E1.76602
G1 X-10.601 Y-22.957 E.01838
G1 X22.96 Y10.604 E1.77872
G1 X22.754 Y11.049 E.01836
G1 X-11.04 Y-22.745 E1.79108
G1 X-11.479 Y-22.534 E.01826
G1 X22.54 Y11.485 E1.80299
M73 P6 R11
G1 X22.312 Y11.908 E.018
G1 X-11.905 Y-22.31 E1.81351
G1 X-12.323 Y-22.077 E.01792
G1 X22.085 Y12.331 E1.82358
G1 X21.853 Y12.749 E.01792
G1 X-12.74 Y-21.844 E1.8334
G1 X-13.149 Y-21.602 E.01779
G1 X21.604 Y13.151 E1.84189
G1 X21.356 Y13.553 E.01771
G1 X-13.546 Y-21.349 E1.84976
G1 X-13.943 Y-21.095 E.01765
G1 X21.105 Y13.953 E1.85751
G1 X20.837 Y14.335 E.0175
G1 X-14.335 Y-20.837 E1.86409
G1 X-14.712 Y-20.563 E.01745
G1 X20.569 Y14.717 E1.86984
G1 X20.3 Y15.099 E.0175
G1 X-15.088 Y-20.29 E1.87559
G1 X-15.465 Y-20.016 E.01745
M73 P7 R11
G1 X20.016 Y15.465 E1.8805
G1 X19.728 Y15.827 E.01734
G1 X-15.823 Y-19.723 E1.88415
G1 X-16.18 Y-19.43 E.01732
G1 X19.439 Y16.189 E1.88777
G1 X19.141 Y16.541 E.01729
G1 X-16.536 Y-19.136 E1.89086
G1 X-16.88 Y-18.829 E.01726
G1 X18.832 Y16.883 E1.89273
G1 X18.524 Y17.225 E.01726
G1 X-17.217 Y-18.516 E1.89428
G1 X-17.555 Y-18.203 E.01725
G1 X18.212 Y17.563 E1.89559
G1 X17.884 Y17.886 E.01724
G1 X-17.884 Y-17.882 E1.89569
G1 X-18.202 Y-17.55 E.01724
G1 X17.556 Y18.209 E1.89517
G1 X17.229 Y18.531 E.01724
G1 X-18.52 Y-17.217 E1.89466
G1 X-18.835 Y-16.882 E.01724
M73 P8 R11
G1 X16.883 Y18.836 E1.89305
G1 X16.536 Y19.139 E.01727
G1 X-19.134 Y-16.53 E1.89047
G1 X-19.432 Y-16.178 E.01729
G1 X16.189 Y19.443 E1.88789
G1 X15.829 Y19.733 E.01733
G1 X-19.731 Y-15.826 E1.88462
G1 X-20.013 Y-15.458 E.01739
G1 X15.462 Y20.017 E1.88013
G1 X15.095 Y20.3 E.01738
G1 X-20.291 Y-15.086 E1.87546
G1 X-20.57 Y-14.714 E.01741
G1 X14.721 Y20.576 E1.87038
G1 X14.334 Y20.84 E.01754
G1 X-20.837 Y-14.331 E1.86404
G1 X-21.096 Y-13.939 E.01759
G1 X13.947 Y21.103 E1.85725
G1 X13.557 Y21.364 E.01757
M73 P9 R11
G1 X-21.354 Y-13.548 E1.85029
G1 X-21.606 Y-13.149 E.01767
G1 X13.15 Y21.607 E1.84203
G1 X12.743 Y21.85 E.01777
G1 X-21.844 Y-12.736 E1.83307
G1 X-22.082 Y-12.324 E.01784
G1 X12.336 Y22.094 E1.82411
G1 X11.908 Y22.317 E.01807
G1 X-22.316 Y-11.908 E1.81388
G1 X-22.533 Y-11.474 E.01817
G1 X11.48 Y22.539 E1.80268
G1 X11.052 Y22.761 E.01808
G1 X-22.75 Y-11.041 E1.79148
G1 X-22.966 Y-10.606 E.01819
G1 X10.605 Y22.964 E1.7792
G1 X10.155 Y23.165 E.01845
G1 X-23.16 Y-10.15 E1.7657
G1 X-23.355 Y-9.695 E.01857
G1 X9.706 Y23.366 E1.7522
G1 X9.239 Y23.549 E.0188
M73 P10 R11
G1 X-23.55 Y-9.239 E1.73776
G1 X-23.722 Y-8.76 E.01906
G1 X8.766 Y23.727 E1.7218
G1 X8.293 Y23.904 E.01893
G1 X-23.893 Y-8.282 E1.70583
G1 X-24.064 Y-7.802 E.01907
G1 X7.802 Y24.063 E1.68886
G1 X7.304 Y24.217 E.01949
G1 X-24.211 Y-7.299 E1.67031
G1 X-24.358 Y-6.796 E.01965
G1 X6.807 Y24.37 E1.65176
G1 X6.289 Y24.502 E.02006
G1 X-24.502 Y-6.289 E1.63187
G1 X-24.623 Y-5.759 E.02036
G1 X5.766 Y24.629 E1.61057
G1 X5.242 Y24.756 E.02019
G1 X-24.744 Y-5.23 E1.58922
G1 X-24.855 Y-4.69 E.02064
G1 X4.691 Y24.856 E1.56593
G1 X4.141 Y24.956 E.02097
M73 P11 R11
G1 X-24.947 Y-4.133 E1.54166
G1 X-25.04 Y-3.575 E.02119
G1 X3.579 Y25.044 E1.51678
G1 X2.999 Y25.115 E.02189
G1 X-25.112 Y-2.996 E1.48987
G1 X-25.174 Y-2.408 E.02218
G1 X2.419 Y25.185 E1.46242
G1 X1.814 Y25.231 E.02273
G1 X-25.232 Y-1.816 E1.43344
G1 X-25.26 Y-1.193 E.02335
G1 X1.201 Y25.268 E1.4024
G1 X.577 Y25.294 E.0234
G1 X-25.288 Y-.571 E1.37082
G1 X-25.29 Y.078 E.02429
G1 X-.073 Y25.294 E1.33647
G1 X-.724 Y25.294 E.02437
G1 X-25.28 Y.738 E1.30147
G1 X-25.254 Y1.415 E.02539
G1 X-1.414 Y25.255 E1.26351
G1 X-2.105 Y25.213 E.02597
G1 X-25.201 Y2.118 E1.22405
G1 X-25.136 Y2.833 E.02691
G1 X-2.834 Y25.136 E1.18203
G1 X-3.573 Y25.047 E.02791
M73 P12 R11
G1 X-25.034 Y3.585 E1.13745
G1 X-24.918 Y4.352 E.02906
G1 X-4.354 Y24.916 E1.08986
G1 X-5.148 Y24.773 E.0302
G1 X-24.759 Y5.162 E1.03938
G1 X-24.665 Y5.636 E.0181
G1 X-24.57 Y6 E.01412
G1 X-5.998 Y24.573 E.98432
G1 X-6.871 Y24.351 E.03373
G1 X-24.342 Y6.879 E.92598
G1 X-24.048 Y7.823 E.03705
G1 X-7.811 Y24.061 E.86057
G1 X-8.177 Y23.948 E.01436
G1 X-8.813 Y23.709 E.02546
G1 X-23.71 Y8.812 E.78953
G1 X-23.29 Y9.882 E.0431
G1 X-9.887 Y23.285 E.71035
G1 X-11.077 Y22.746 E.04897
G1 X-22.737 Y11.085 E.61799
G1 X-22.627 Y11.323 E.0098
G1 X-22.018 Y12.455 E.04819
G1 X-12.444 Y22.029 E.5074
G1 X-13.62 Y21.326 E.05133
G1 X-14.177 Y20.947 E.02525
G1 X-20.958 Y14.166 E.3594
G1 X-20.243 Y15.181 E.04654
G1 X-19.299 Y16.365 E.05673
G1 X-18.304 Y17.47 E.05574
G1 X-15.619 Y20.155 E.14233
M106 S255
M106 P2 S255
;LAYER_CHANGE
;Z:0.4
;HEIGHT:0.2
;BEFORE_LAYER_CHANGE
;0.4
G1 E-.8 F2100
;WIPE_START
G1 F4800
G1 X-17.033 Y18.741
;WIPE_END
;AFTER_LAYER_CHANGE
;0.4
;_SET_FAN_SPEED_CHANGING_LAYER
SET_VELOCITY_LIMIT ACCEL=10000
M140 S50 ; set bed temperature
G17
G3 Z.8 I-.6 J1.059 P1  F30000
G1 X-5.386 Y25.337 Z.8
G1 Z.4
G1 E.8 F2100
SET_VELOCITY_LIMIT ACCEL=5000
;TYPE:Inner wall
;WIDTH:0.45
G1 F18000
G1 X-6.89 Y24.97 E.05135
G1 X-8.37 Y24.514 E.0514
G1 X-9.821 Y23.969 E.0514
G1 X-11.114 Y23.394 E.04694
G1 X-12.613 Y22.624 E.0559
G1 X-13.942 Y21.83 E.05135
G1 X-15.222 Y20.958 E.0514
G1 X-16.448 Y20.01 E.0514
G1 X-17.615 Y18.99 E.0514
G1 X-18.719 Y17.903 E.0514
G1 X-19.755 Y16.751 E.0514
G1 X-20.638 Y15.645 E.04694
G1 X-21.614 Y14.272 E.0559
G1 X-22.428 Y12.955 E.05135
G1 X-23.162 Y11.59 E.0514
G1 X-23.814 Y10.184 E.0514
G1 X-24.38 Y8.742 E.0514
G1 X-24.859 Y7.268 E.0514
G1 X-25.215 Y5.899 E.04694
G1 X-25.548 Y4.247 E.0559
G1 X-25.756 Y2.713 E.05135
G1 X-25.872 Y1.168 E.0514
G1 X-25.895 Y-.381 E.0514
G1 X-25.825 Y-1.929 E.0514
G1 X-25.663 Y-3.47 E.0514
G1 X-25.409 Y-4.999 E.0514
G1 X-25.065 Y-6.51 E.0514
G1 X-24.63 Y-7.997 E.0514
G1 X-24.107 Y-9.456 E.0514
G1 X-23.551 Y-10.757 E.04694
G1 X-22.805 Y-12.267 E.0559
G1 X-22.031 Y-13.608 E.05135
G1 X-21.177 Y-14.901 E.0514
G1 X-20.248 Y-16.141 E.0514
G1 X-19.246 Y-17.323 E.0514
G1 X-18.175 Y-18.443 E.0514
G1 X-17.039 Y-19.497 E.0514
G1 X-15.842 Y-20.481 E.0514
G1 X-14.589 Y-21.392 E.0514
G1 X-13.283 Y-22.226 E.0514
G1 X-11.93 Y-22.98 E.0514
G1 X-10.534 Y-23.653 E.0514
G1 X-9.1 Y-24.24 E.0514
G1 X-7.633 Y-24.741 E.0514
G1 X-6.14 Y-25.153 E.0514
G1 X-4.624 Y-25.476 E.0514
G1 X-3.092 Y-25.706 E.0514
G1 X-1.549 Y-25.845 E.0514
G1 X0 Y-25.892 E.0514
G1 X1.414 Y-25.849 E.04694
G1 X3.093 Y-25.706 E.0559
G1 X4.624 Y-25.476 E.05135
G1 X6.14 Y-25.153 E.0514
G1 X7.633 Y-24.741 E.0514
G1 X9.1 Y-24.24 E.0514
G1 X10.534 Y-23.653 E.0514
G1 X11.93 Y-22.98 E.0514
G1 X13.283 Y-22.226 E.0514
G1 X14.589 Y-21.392 E.0514
G1 X15.842 Y-20.481 E.0514
G1 X17.039 Y-19.497 E.0514
G1 X18.175 Y-18.443 E.0514
