; HEADER_BLOCK_START
; generated by OrcaSlicer 2.3.0 on 2026-06-07 at 21:14:59
; total layer number: 41
;_GP_TOTAL_LAYER_NUMBER_PLACEHOLDER
; filament_density: 1.24
; filament_diameter: 1.75
; max_z_height: 8.20
; HEADER_BLOCK_END

; THUMBNAIL_BLOCK_START

;
; THUMBNAIL_BLOCK_END

; external perimeters extrusion width = 0.42mm
; perimeters extrusion width = 0.45mm
; infill extrusion width = 0.45mm
; solid infill extrusion width = 0.42mm
; top infill extrusion width = 0.42mm
; first layer extrusion width = 0.50mm

; EXECUTABLE_BLOCK_START
M73 P0 R22
M106 S0
M106 P2 S0
;TYPE:Custom
M190 S55
M104 S220
G90
M83
G1 Z5 F6000
G1 E-0.2 F800
G1 X110 Y-110 F6000
G1 E2 F800
G1 Y-110 X55 Z0.25 F4800
G1 X-55 E8 F2400
G1 Y-109.6 F2400
G1 X55 E5 F2400
G1 Y-110 X55 Z0.45 F4800
G1 X-55 E8 F2400
G1 Y-109.6 F2400
G1 X55 E5 F2400
G92 E0
G90
G21
M83 ; use relative distances for extrusion
; filament start gcode
;right_extruder_material: PLA
SET_PRESSURE_ADVANCE ADVANCE=0.025; Override pressure advance value
M106 S0
M106 P2 S0
;LAYER_CHANGE
;Z:0.2
;HEIGHT:0.2
;BEFORE_LAYER_CHANGE
;0.2
G1 E-.8 F2100
M73 P1 R21
;AFTER_LAYER_CHANGE
;0.2
;_SET_FAN_SPEED_CHANGING_LAYER
SET_VELOCITY_LIMIT ACCEL=500
G1 X27.757 Y59.257 F30000
G1 Z.6
G1 Z.2
G1 E.8 F2100
;TYPE:Inner wall
;WIDTH:0.5
G1 F3000
G1 X27.757 Y-65.743 E4.65577
G1 X34.243 Y-65.743 E.24157
G1 X34.243 Y65.743 E4.89735
G1 X-34.243 Y65.743 E2.55084
G1 X-34.243 Y-65.743 E4.89735
G1 X-27.757 Y-65.743 E.24157
G1 X-27.757 Y59.257 E4.65577
G1 X27.717 Y59.257 E2.0662
M73 P2 R21
G1 X27.3 Y58.8 F30000
;TYPE:Outer wall
G1 F3000
G1 X27.3 Y-66.2 E4.65577
G1 X34.7 Y-66.2 E.27562
G1 X34.7 Y66.2 E4.9314
G1 X-34.7 Y66.2 E2.58489
G1 X-34.7 Y-66.2 E4.9314
G1 X-27.3 Y-66.2 E.27562
G1 X-27.3 Y58.8 E4.65577
G1 X27.26 Y58.8 E2.03215
M73 P3 R21
G1 E-.8 F2100
;WIPE_START
G1 F3000
G1 X27.261 Y56.8
;WIPE_END
G1 X27.629 Y49.176 Z.6 F30000
G1 X33.18 Y-65.606 Z.6
G1 Z.2
G1 E.8 F2100
;TYPE:Bottom surface
;WIDTH:0.500965
G1 F4800
G1 X33.9 Y-64.885 E.03802
G1 X33.9 Y-64.238 E.02418
G1 X32.738 Y-65.4 E.06136
G1 X32.09 Y-65.4 E.02418
G1 X33.9 Y-63.59 E.09555
G1 X33.9 Y-62.942 E.02418
G1 X31.442 Y-65.4 E.12974
G1 X30.794 Y-65.4 E.02418
G1 X33.9 Y-62.294 E.16394
G1 X33.9 Y-61.647 E.02418
G1 X30.147 Y-65.4 E.19813
G1 X29.499 Y-65.4 E.02418
G1 X33.9 Y-60.999 E.23232
G1 X33.9 Y-60.351 E.02418
G1 X28.851 Y-65.4 E.26652
G1 X28.203 Y-65.4 E.02418
G1 X33.9 Y-59.703 E.30071
G1 X33.9 Y-59.056 E.02418
G1 X28.1 Y-64.856 E.30617
G1 X28.1 Y-64.208 E.02418
G1 X33.9 Y-58.408 E.30617
G1 X33.9 Y-57.76 E.02418
G1 X28.1 Y-63.56 E.30617
G1 X28.1 Y-62.912 E.02418
G1 X33.9 Y-57.112 E.30617
G1 X33.9 Y-56.464 E.02418
G1 X28.1 Y-62.265 E.30617
G1 X28.1 Y-61.617 E.02418
G1 X33.9 Y-55.817 E.30617
G1 X33.9 Y-55.169 E.02418
G1 X28.1 Y-60.969 E.30617
G1 X28.1 Y-60.321 E.02418
G1 X33.9 Y-54.521 E.30617
G1 X33.9 Y-53.873 E.02418
G1 X28.1 Y-59.674 E.30617
G1 X28.1 Y-59.026 E.02418
G1 X33.9 Y-53.226 E.30617
G1 X33.9 Y-52.578 E.02418
G1 X28.1 Y-58.378 E.30617
G1 X28.1 Y-57.73 E.02418
G1 X33.9 Y-51.93 E.30617
G1 X33.9 Y-51.282 E.02418
G1 X28.1 Y-57.082 E.30617
G1 X28.1 Y-56.435 E.02418
G1 X33.9 Y-50.634 E.30617
G1 X33.9 Y-49.987 E.02418
G1 X28.1 Y-55.787 E.30617
G1 X28.1 Y-55.139 E.02418
G1 X33.9 Y-49.339 E.30617
G1 X33.9 Y-48.691 E.02418
G1 X28.1 Y-54.491 E.30617
G1 X28.1 Y-53.844 E.02418
G1 X33.9 Y-48.043 E.30617
G1 X33.9 Y-47.396 E.02418
G1 X28.1 Y-53.196 E.30617
G1 X28.1 Y-52.548 E.02418
G1 X33.9 Y-46.748 E.30617
G1 X33.9 Y-46.1 E.02418
G1 X28.1 Y-51.9 E.30617
G1 X28.1 Y-51.252 E.02418
G1 X33.9 Y-45.452 E.30617
G1 X33.9 Y-44.804 E.02418
G1 X28.1 Y-50.605 E.30617
G1 X28.1 Y-49.957 E.02418
G1 X33.9 Y-44.157 E.30617
G1 X33.9 Y-43.509 E.02418
G1 X28.1 Y-49.309 E.30617
G1 X28.1 Y-48.661 E.02418
G1 X33.9 Y-42.861 E.30617
G1 X33.9 Y-42.213 E.02418
G1 X28.1 Y-48.014 E.30617
G1 X28.1 Y-47.366 E.02418
G1 X33.9 Y-41.566 E.30617
G1 X33.9 Y-40.918 E.02418
G1 X28.1 Y-46.718 E.30617
G1 X28.1 Y-46.07 E.02418
G1 X33.9 Y-40.27 E.30617
M73 P4 R21
G1 X33.9 Y-39.622 E.02418
G1 X28.1 Y-45.423 E.30617
G1 X28.1 Y-44.775 E.02418
G1 X33.9 Y-38.975 E.30617
G1 X33.9 Y-38.327 E.02418
G1 X28.1 Y-44.127 E.30617
G1 X28.1 Y-43.479 E.02418
G1 X33.9 Y-37.679 E.30617
G1 X33.9 Y-37.031 E.02418
G1 X28.1 Y-42.831 E.30617
G1 X28.1 Y-42.184 E.02418
G1 X33.9 Y-36.383 E.30617
G1 X33.9 Y-35.736 E.02418
G1 X28.1 Y-41.536 E.30617
G1 X28.1 Y-40.888 E.02418
G1 X33.9 Y-35.088 E.30617
G1 X33.9 Y-34.44 E.02418
G1 X28.1 Y-40.24 E.30617
G1 X28.1 Y-39.593 E.02418
G1 X33.9 Y-33.792 E.30617
G1 X33.9 Y-33.145 E.02418
G1 X28.1 Y-38.945 E.30617
G1 X28.1 Y-38.297 E.02418
G1 X33.9 Y-32.497 E.30617
G1 X33.9 Y-31.849 E.02418
G1 X28.1 Y-37.649 E.30617
G1 X28.1 Y-37.001 E.02418
G1 X33.9 Y-31.201 E.30617
G1 X33.9 Y-30.553 E.02418
G1 X28.1 Y-36.354 E.30617
G1 X28.1 Y-35.706 E.02418
G1 X33.9 Y-29.906 E.30617
G1 X33.9 Y-29.258 E.02418
G1 X28.1 Y-35.058 E.30617
G1 X28.1 Y-34.41 E.02418
G1 X33.9 Y-28.61 E.30617
G1 X33.9 Y-27.962 E.02418
G1 X28.1 Y-33.763 E.30617
G1 X28.1 Y-33.115 E.02418
G1 X33.9 Y-27.315 E.30617
G1 X33.9 Y-26.667 E.02418
G1 X28.1 Y-32.467 E.30617
G1 X28.1 Y-31.819 E.02418
G1 X33.9 Y-26.019 E.30617
G1 X33.9 Y-25.371 E.02418
G1 X28.1 Y-31.172 E.30617
G1 X28.1 Y-30.524 E.02418
G1 X33.9 Y-24.724 E.30617
G1 X33.9 Y-24.076 E.02418
G1 X28.1 Y-29.876 E.30617
G1 X28.1 Y-29.228 E.02418
G1 X33.9 Y-23.428 E.30617
G1 X33.9 Y-22.78 E.02418
G1 X28.1 Y-28.58 E.30617
G1 X28.1 Y-27.933 E.02418
G1 X33.9 Y-22.132 E.30617
G1 X33.9 Y-21.485 E.02418
G1 X28.1 Y-27.285 E.30617
G1 X28.1 Y-26.637 E.02418
G1 X33.9 Y-20.837 E.30617
G1 X33.9 Y-20.189 E.02418
G1 X28.1 Y-25.989 E.30617
G1 X28.1 Y-25.342 E.02418
G1 X33.9 Y-19.541 E.30617
G1 X33.9 Y-18.894 E.02418
G1 X28.1 Y-24.694 E.30617
G1 X28.1 Y-24.046 E.02418
G1 X33.9 Y-18.246 E.30617
G1 X33.9 Y-17.598 E.02418
G1 X28.1 Y-23.398 E.30617
G1 X28.1 Y-22.75 E.02418
G1 X33.9 Y-16.95 E.30617
G1 X33.9 Y-16.302 E.02418
G1 X28.1 Y-22.103 E.30617
G1 X28.1 Y-21.455 E.02418
G1 X33.9 Y-15.655 E.30617
G1 X33.9 Y-15.007 E.02418
G1 X28.1 Y-20.807 E.30617
G1 X28.1 Y-20.159 E.02418
G1 X33.9 Y-14.359 E.30617
G1 X33.9 Y-13.711 E.02418
G1 X28.1 Y-19.512 E.30617
G1 X28.1 Y-18.864 E.02418
G1 X33.9 Y-13.064 E.30617
G1 X33.9 Y-12.416 E.02418
G1 X28.1 Y-18.216 E.30617
G1 X28.1 Y-17.568 E.02418
G1 X33.9 Y-11.768 E.30617
G1 X33.9 Y-11.12 E.02418
G1 X28.1 Y-16.92 E.30617
G1 X28.1 Y-16.273 E.02418
G1 X33.9 Y-10.472 E.30617
G1 X33.9 Y-9.825 E.02418
G1 X28.1 Y-15.625 E.30617
G1 X28.1 Y-14.977 E.02418
G1 X33.9 Y-9.177 E.30617
G1 X33.9 Y-8.529 E.02418
G1 X28.1 Y-14.329 E.30617
G1 X28.1 Y-13.682 E.02418
M73 P5 R21
G1 X33.9 Y-7.881 E.30617
G1 X33.9 Y-7.234 E.02418
G1 X28.1 Y-13.034 E.30617
G1 X28.1 Y-12.386 E.02418
G1 X33.9 Y-6.586 E.30617
G1 X33.9 Y-5.938 E.02418
G1 X28.1 Y-11.738 E.30617
G1 X28.1 Y-11.091 E.02418
G1 X33.9 Y-5.29 E.30617
G1 X33.9 Y-4.643 E.02418
G1 X28.1 Y-10.443 E.30617
G1 X28.1 Y-9.795 E.02418
G1 X33.9 Y-3.995 E.30617
G1 X33.9 Y-3.347 E.02418
G1 X28.1 Y-9.147 E.30617
G1 X28.1 Y-8.499 E.02418
G1 X33.9 Y-2.699 E.30617
G1 X33.9 Y-2.051 E.02418
G1 X28.1 Y-7.852 E.30617
G1 X28.1 Y-7.204 E.02418
G1 X33.9 Y-1.404 E.30617
G1 X33.9 Y-.756 E.02418
G1 X28.1 Y-6.556 E.30617
G1 X28.1 Y-5.908 E.02418
G1 X33.9 Y-.108 E.30617
G1 X33.9 Y.54 E.02418
G1 X28.1 Y-5.261 E.30617
G1 X28.1 Y-4.613 E.02418
G1 X33.9 Y1.187 E.30617
G1 X33.9 Y1.835 E.02418
G1 X28.1 Y-3.965 E.30617
G1 X28.1 Y-3.317 E.02418
G1 X33.9 Y2.483 E.30617
G1 X33.9 Y3.131 E.02418
G1 X28.1 Y-2.669 E.30617
G1 X28.1 Y-2.022 E.02418
G1 X33.9 Y3.779 E.30617
G1 X33.9 Y4.426 E.02418
G1 X28.1 Y-1.374 E.30617
G1 X28.1 Y-.726 E.02418
G1 X33.9 Y5.074 E.30617
G1 X33.9 Y5.722 E.02418
G1 X28.1 Y-.078 E.30617
G1 X28.1 Y.569 E.02418
M73 P5 R20
G1 X33.9 Y6.37 E.30617
G1 X33.9 Y7.017 E.02418
G1 X28.1 Y1.217 E.30617
G1 X28.1 Y1.865 E.02418
G1 X33.9 Y7.665 E.30617
G1 X33.9 Y8.313 E.02418
G1 X28.1 Y2.513 E.30617
G1 X28.1 Y3.16 E.02418
G1 X33.9 Y8.961 E.30617
G1 X33.9 Y9.608 E.02418
G1 X28.1 Y3.808 E.30617
G1 X28.1 Y4.456 E.02418
G1 X33.9 Y10.256 E.30617
G1 X33.9 Y10.904 E.02418
G1 X28.1 Y5.104 E.30617
G1 X28.1 Y5.752 E.02418
G1 X33.9 Y11.552 E.30617
G1 X33.9 Y12.2 E.02418
G1 X28.1 Y6.399 E.30617
G1 X28.1 Y7.047 E.02418
G1 X33.9 Y12.847 E.30617
G1 X33.9 Y13.495 E.02418
G1 X28.1 Y7.695 E.30617
G1 X28.1 Y8.343 E.02418
G1 X33.9 Y14.143 E.30617
G1 X33.9 Y14.791 E.02418
G1 X28.1 Y8.99 E.30617
G1 X28.1 Y9.638 E.02418
G1 X33.9 Y15.438 E.30617
G1 X33.9 Y16.086 E.02418
G1 X28.1 Y10.286 E.30617
G1 X28.1 Y10.934 E.02418
G1 X33.9 Y16.734 E.30617
G1 X33.9 Y17.382 E.02418
G1 X28.1 Y11.582 E.30617
G1 X28.1 Y12.229 E.02418
G1 X33.9 Y18.03 E.30617
G1 X33.9 Y18.677 E.02418
G1 X28.1 Y12.877 E.30617
G1 X28.1 Y13.525 E.02418
G1 X33.9 Y19.325 E.30617
G1 X33.9 Y19.973 E.02418
G1 X28.1 Y14.173 E.30617
G1 X28.1 Y14.82 E.02418
G1 X33.9 Y20.621 E.30617
G1 X33.9 Y21.268 E.02418
G1 X28.1 Y15.468 E.30617
G1 X28.1 Y16.116 E.02418
G1 X33.9 Y21.916 E.30617
G1 X33.9 Y22.564 E.02418
G1 X28.1 Y16.764 E.30617
G1 X28.1 Y17.412 E.02418
G1 X33.9 Y23.212 E.30617
G1 X33.9 Y23.86 E.02418
G1 X28.1 Y18.059 E.30617
G1 X28.1 Y18.707 E.02418
M73 P6 R20
G1 X33.9 Y24.507 E.30617
G1 X33.9 Y25.155 E.02418
G1 X28.1 Y19.355 E.30617
G1 X28.1 Y20.003 E.02418
G1 X33.9 Y25.803 E.30617
G1 X33.9 Y26.451 E.02418
G1 X28.1 Y20.65 E.30617
G1 X28.1 Y21.298 E.02418
G1 X33.9 Y27.098 E.30617
G1 X33.9 Y27.746 E.02418
G1 X28.1 Y21.946 E.30617
G1 X28.1 Y22.594 E.02418
G1 X33.9 Y28.394 E.30617
G1 X33.9 Y29.042 E.02418
G1 X28.1 Y23.241 E.30617
G1 X28.1 Y23.889 E.02418
G1 X33.9 Y29.689 E.30617
G1 X33.9 Y30.337 E.02418
G1 X28.1 Y24.537 E.30617
G1 X28.1 Y25.185 E.02418
G1 X33.9 Y30.985 E.30617
G1 X33.9 Y31.633 E.02418
G1 X28.1 Y25.833 E.30617
G1 X28.1 Y26.48 E.02418
G1 X33.9 Y32.281 E.30617
G1 X33.9 Y32.928 E.02418
G1 X28.1 Y27.128 E.30617
G1 X28.1 Y27.776 E.02418
G1 X33.9 Y33.576 E.30617
G1 X33.9 Y34.224 E.02418
G1 X28.1 Y28.424 E.30617
G1 X28.1 Y29.071 E.02418
G1 X33.9 Y34.872 E.30617
G1 X33.9 Y35.519 E.02418
G1 X28.1 Y29.719 E.30617
G1 X28.1 Y30.367 E.02418
G1 X33.9 Y36.167 E.30617
G1 X33.9 Y36.815 E.02418
G1 X28.1 Y31.015 E.30617
G1 X28.1 Y31.663 E.02418
G1 X33.9 Y37.463 E.30617
G1 X33.9 Y38.111 E.02418
G1 X28.1 Y32.31 E.30617
G1 X28.1 Y32.958 E.02418
G1 X33.9 Y38.758 E.30617
G1 X33.9 Y39.406 E.02418
G1 X28.1 Y33.606 E.30617
G1 X28.1 Y34.254 E.02418
G1 X33.9 Y40.054 E.30617
G1 X33.9 Y40.702 E.02418
G1 X28.1 Y34.901 E.30617
G1 X28.1 Y35.549 E.02418
G1 X33.9 Y41.349 E.30617
G1 X33.9 Y41.997 E.02418
G1 X28.1 Y36.197 E.30617
G1 X28.1 Y36.845 E.02418
G1 X33.9 Y42.645 E.30617
G1 X33.9 Y43.293 E.02418
G1 X28.1 Y37.492 E.30617
G1 X28.1 Y38.14 E.02418
G1 X33.9 Y43.94 E.30617
G1 X33.9 Y44.588 E.02418
G1 X28.1 Y38.788 E.30617
G1 X28.1 Y39.436 E.02418
G1 X33.9 Y45.236 E.30617
G1 X33.9 Y45.884 E.02418
G1 X28.1 Y40.084 E.30617
G1 X28.1 Y40.731 E.02418
G1 X33.9 Y46.532 E.30617
G1 X33.9 Y47.179 E.02418
G1 X28.1 Y41.379 E.30617
G1 X28.1 Y42.027 E.02418
G1 X33.9 Y47.827 E.30617
G1 X33.9 Y48.475 E.02418
G1 X28.1 Y42.675 E.30617
G1 X28.1 Y43.322 E.02418
G1 X33.9 Y49.123 E.30617
G1 X33.9 Y49.77 E.02418
G1 X28.1 Y43.97 E.30617
G1 X28.1 Y44.618 E.02418
G1 X33.9 Y50.418 E.30617
G1 X33.9 Y51.066 E.02418
G1 X28.1 Y45.266 E.30617
G1 X28.1 Y45.914 E.02418
G1 X33.9 Y51.714 E.30617
G1 X33.9 Y52.362 E.02418
G1 X28.1 Y46.561 E.30617
G1 X28.1 Y47.209 E.02418
G1 X33.9 Y53.009 E.30617
G1 X33.9 Y53.657 E.02418
G1 X28.1 Y47.857 E.30617
G1 X28.1 Y48.505 E.02418
G1 X33.9 Y54.305 E.30617
G1 X33.9 Y54.953 E.02418
G1 X28.1 Y49.152 E.30617
G1 X28.1 Y49.8 E.02418
G1 X33.9 Y55.6 E.30617
G1 X33.9 Y56.248 E.02418
M73 P7 R20
G1 X28.1 Y50.448 E.30617
G1 X28.1 Y51.096 E.02418
G1 X33.9 Y56.896 E.30617
G1 X33.9 Y57.544 E.02418
G1 X28.1 Y51.743 E.30617
G1 X28.1 Y52.391 E.02418
G1 X33.9 Y58.191 E.30617
G1 X33.9 Y58.839 E.02418
G1 X28.1 Y53.039 E.30617
G1 X28.1 Y53.687 E.02418
G1 X33.9 Y59.487 E.30617
G1 X33.9 Y60.135 E.02418
G1 X28.1 Y54.335 E.30617
G1 X28.1 Y54.982 E.02418
G1 X33.9 Y60.783 E.30617
G1 X33.9 Y61.43 E.02418
G1 X28.1 Y55.63 E.30617
G1 X28.1 Y56.278 E.02418
G1 X33.9 Y62.078 E.30617
G1 X33.9 Y62.726 E.02418
G1 X28.1 Y56.926 E.30617
G1 X28.1 Y57.573 E.02418
G1 X33.9 Y63.374 E.30617
G1 X33.9 Y64.021 E.02418
G1 X28.1 Y58.221 E.30617
G1 X28.1 Y58.869 E.02418
G1 X33.9 Y64.669 E.30617
G1 X33.9 Y65.317 E.02418
G1 X28.1 Y59.517 E.30617
G1 X28.1 Y59.6 E.0031
G1 X27.535 Y59.6 E.02108
G1 X33.335 Y65.4 E.30617
G1 X32.688 Y65.4 E.02418
G1 X26.887 Y59.6 E.30617
G1 X26.24 Y59.6 E.02418
G1 X32.04 Y65.4 E.30617
G1 X31.392 Y65.4 E.02418
G1 X25.592 Y59.6 E.30617
G1 X24.944 Y59.6 E.02418
G1 X30.744 Y65.4 E.30617
G1 X30.097 Y65.4 E.02418
G1 X24.296 Y59.6 E.30617
G1 X23.649 Y59.6 E.02418
G1 X29.449 Y65.4 E.30617
G1 X28.801 Y65.4 E.02418
G1 X23.001 Y59.6 E.30617
G1 X22.353 Y59.6 E.02418
G1 X28.153 Y65.4 E.30617
G1 X27.505 Y65.4 E.02418
G1 X21.705 Y59.6 E.30617
G1 X21.057 Y59.6 E.02418
G1 X26.858 Y65.4 E.30617
G1 X26.21 Y65.4 E.02418
G1 X20.41 Y59.6 E.30617
G1 X19.762 Y59.6 E.02418
G1 X25.562 Y65.4 E.30617
G1 X24.914 Y65.4 E.02418
G1 X19.114 Y59.6 E.30617
G1 X18.466 Y59.6 E.02418
G1 X24.267 Y65.4 E.30617
G1 X23.619 Y65.4 E.02418
G1 X17.819 Y59.6 E.30617
G1 X17.171 Y59.6 E.02418
G1 X22.971 Y65.4 E.30617
G1 X22.323 Y65.4 E.02418
G1 X16.523 Y59.6 E.30617
G1 X15.875 Y59.6 E.02418
G1 X21.676 Y65.4 E.30617
G1 X21.028 Y65.4 E.02418
G1 X15.228 Y59.6 E.30617
G1 X14.58 Y59.6 E.02418
G1 X20.38 Y65.4 E.30617
G1 X19.732 Y65.4 E.02418
G1 X13.932 Y59.6 E.30617
G1 X13.284 Y59.6 E.02418
G1 X19.084 Y65.4 E.30617
G1 X18.437 Y65.4 E.02418
G1 X12.636 Y59.6 E.30617
G1 X11.989 Y59.6 E.02418
G1 X17.789 Y65.4 E.30617
G1 X17.141 Y65.4 E.02418
G1 X11.341 Y59.6 E.30617
G1 X10.693 Y59.6 E.02418
G1 X16.493 Y65.4 E.30617
G1 X15.846 Y65.4 E.02418
G1 X10.045 Y59.6 E.30617
G1 X9.398 Y59.6 E.02418
G1 X15.198 Y65.4 E.30617
G1 X14.55 Y65.4 E.02418
G1 X8.75 Y59.6 E.30617
G1 X8.102 Y59.6 E.02418
G1 X13.902 Y65.4 E.30617
G1 X13.254 Y65.4 E.02418
G1 X7.454 Y59.6 E.30617
G1 X6.806 Y59.6 E.02418
G1 X12.607 Y65.4 E.30617
G1 X11.959 Y65.4 E.02418
G1 X6.159 Y59.6 E.30617
G1 X5.511 Y59.6 E.02418
G1 X11.311 Y65.4 E.30617
M73 P8 R20
G1 X10.663 Y65.4 E.02418
G1 X4.863 Y59.6 E.30617
G1 X4.215 Y59.6 E.02418
G1 X10.016 Y65.4 E.30617
G1 X9.368 Y65.4 E.02418
G1 X3.568 Y59.6 E.30617
G1 X2.92 Y59.6 E.02418
G1 X8.72 Y65.4 E.30617
G1 X8.072 Y65.4 E.02418
G1 X2.272 Y59.6 E.30617
G1 X1.624 Y59.6 E.02418
G1 X7.425 Y65.4 E.30617
G1 X6.777 Y65.4 E.02418
G1 X.977 Y59.6 E.30617
G1 X.329 Y59.6 E.02418
G1 X6.129 Y65.4 E.30617
G1 X5.481 Y65.4 E.02418
G1 X-.319 Y59.6 E.30617
G1 X-.967 Y59.6 E.02418
G1 X4.833 Y65.4 E.30617
G1 X4.186 Y65.4 E.02418
G1 X-1.615 Y59.6 E.30617
G1 X-2.262 Y59.6 E.02418
G1 X3.538 Y65.4 E.30617
G1 X2.89 Y65.4 E.02418
G1 X-2.91 Y59.6 E.30617
G1 X-3.558 Y59.6 E.02418
G1 X2.242 Y65.4 E.30617
G1 X1.595 Y65.4 E.02418
G1 X-4.206 Y59.6 E.30617
G1 X-4.853 Y59.6 E.02418
G1 X.947 Y65.4 E.30617
G1 X.299 Y65.4 E.02418
G1 X-5.501 Y59.6 E.30617
G1 X-6.149 Y59.6 E.02418
G1 X-.349 Y65.4 E.30617
G1 X-.997 Y65.4 E.02418
G1 X-6.797 Y59.6 E.30617
G1 X-7.445 Y59.6 E.02418
G1 X-1.644 Y65.4 E.30617
G1 X-2.292 Y65.4 E.02418
G1 X-8.092 Y59.6 E.30617
G1 X-8.74 Y59.6 E.02418
G1 X-2.94 Y65.4 E.30617
G1 X-3.588 Y65.4 E.02418
G1 X-9.388 Y59.6 E.30617
G1 X-10.036 Y59.6 E.02418
G1 X-4.235 Y65.4 E.30617
G1 X-4.883 Y65.4 E.02418
G1 X-10.683 Y59.6 E.30617
G1 X-11.331 Y59.6 E.02418
G1 X-5.531 Y65.4 E.30617
G1 X-6.179 Y65.4 E.02418
G1 X-11.979 Y59.6 E.30617
G1 X-12.627 Y59.6 E.02418
G1 X-6.827 Y65.4 E.30617
G1 X-7.474 Y65.4 E.02418
G1 X-13.275 Y59.6 E.30617
G1 X-13.922 Y59.6 E.02418
G1 X-8.122 Y65.4 E.30617
G1 X-8.77 Y65.4 E.02418
G1 X-14.57 Y59.6 E.30617
G1 X-15.218 Y59.6 E.02418
G1 X-9.418 Y65.4 E.30617
G1 X-10.065 Y65.4 E.02418
G1 X-15.866 Y59.6 E.30617
G1 X-16.513 Y59.6 E.02418
G1 X-10.713 Y65.4 E.30617
G1 X-11.361 Y65.4 E.02418
G1 X-17.161 Y59.6 E.30617
G1 X-17.809 Y59.6 E.02418
G1 X-12.009 Y65.4 E.30617
G1 X-12.656 Y65.4 E.02418
G1 X-18.457 Y59.6 E.30617
G1 X-19.104 Y59.6 E.02418
G1 X-13.304 Y65.4 E.30617
G1 X-13.952 Y65.4 E.02418
G1 X-19.752 Y59.6 E.30617
G1 X-20.4 Y59.6 E.02418
G1 X-14.6 Y65.4 E.30617
G1 X-15.248 Y65.4 E.02418
G1 X-21.048 Y59.6 E.30617
