; HEADER_BLOCK_START
; generated by OrcaSlicer 2.3.0 on 2026-03-19 at 15:18:49
; total layer number: 60
;_GP_TOTAL_LAYER_NUMBER_PLACEHOLDER
; filament_density: 1.24
; filament_diameter: 1.75
; max_z_height: 12.00
; HEADER_BLOCK_END

; THUMBNAIL_BLOCK_START

;
; THUMBNAIL_BLOCK_END

; external perimeters extrusion width = 0.42mm
; perimeters extrusion width = 0.45mm
; infill extrusion width = 0.45mm
; solid infill extrusion width = 0.42mm
; top infill extrusion width = 0.42mm
; first layer extrusion width = 0.50mm

; EXECUTABLE_BLOCK_START
M73 P0 R47
M106 S0
M106 P2 S0
;TYPE:Custom
M190 S55
M104 S220
G90
M83
G1 Z5 F6000
G1 E-0.2 F800
G1 X110 Y-110 F6000
G1 E2 F800
G1 Y-110 X55 Z0.25 F4800
G1 X-55 E8 F2400
G1 Y-109.6 F2400
G1 X55 E5 F2400
G1 Y-110 X55 Z0.45 F4800
G1 X-55 E8 F2400
G1 Y-109.6 F2400
G1 X55 E5 F2400
G92 E0
G90
G21
M83 ; use relative distances for extrusion
; filament start gcode
;right_extruder_material: PLA
SET_PRESSURE_ADVANCE ADVANCE=0.025; Override pressure advance value
M106 S0
M106 P2 S0
;LAYER_CHANGE
;Z:0.2
;HEIGHT:0.2
;BEFORE_LAYER_CHANGE
;0.2
G1 E-.8 F2100
;AFTER_LAYER_CHANGE
;0.2
;_SET_FAN_SPEED_CHANGING_LAYER
SET_VELOCITY_LIMIT ACCEL=500
G1 X39.729 Y17.264 F30000
G1 Z.6
G1 Z.2
G1 E.8 F2100
;TYPE:Inner wall
;WIDTH:0.5
G1 F3000
G1 X39.479 Y18.047 E.03061
G1 X38.2 Y20.614 E.10683
G1 X36.776 Y23.06 E.10541
G1 X35.195 Y25.407 E.10541
G1 X33.465 Y27.647 E.10541
G1 X31.592 Y29.769 E.10541
G1 X29.602 Y31.747 E.10454
G1 X27.452 Y33.624 E.10627
G1 X25.203 Y35.342 E.10542
G1 X22.846 Y36.909 E.10541
G1 X20.393 Y38.319 E.10541
G1 X17.853 Y39.566 E.10541
G1 X15.236 Y40.646 E.10541
G1 X12.555 Y41.552 E.10541
G1 X9.821 Y42.282 E.10541
G1 X7.045 Y42.832 E.10541
G1 X4.239 Y43.2 E.10541
G1 X1.415 Y43.384 E.10541
G1 X-1.415 Y43.384 E.10541
G1 X-4.239 Y43.2 E.10541
G1 X-7.045 Y42.832 E.10541
G1 X-9.821 Y42.282 E.10541
G1 X-12.533 Y41.558 E.10454
G1 X-15.236 Y40.646 E.10627
G1 X-17.853 Y39.566 E.10542
G1 X-20.393 Y38.319 E.10541
G1 X-22.846 Y36.909 E.10541
G1 X-25.203 Y35.342 E.10541
G1 X-27.452 Y33.624 E.10541
G1 X-29.567 Y31.779 E.10454
G1 X-31.592 Y29.769 E.10627
G1 X-33.465 Y27.647 E.10542
G1 X-35.195 Y25.407 E.10541
G1 X-36.776 Y23.06 E.10541
G1 X-38.2 Y20.614 E.10541
G1 X-39.479 Y18.047 E.10683
G1 X-39.752 Y17.191 E.03345
G1 X-39.813 Y16.257 E.03488
G1 X-39.647 Y15.335 E.03488
G1 X-39.264 Y14.48 E.03488
G1 X-38.72 Y13.784 E.03293
G1 X-37.611 Y12.676 E.05839
G1 X-37.698 Y12.499 E.00732
G1 X-38.202 Y12.566 E.01894
G1 X-38.805 Y12.486 E.02265
G1 X-39.367 Y12.254 E.02265
G1 X-39.85 Y11.883 E.02265
G1 X-40.22 Y11.401 E.02265
G1 X-40.452 Y10.839 E.02265
G1 X-40.532 Y10.236 E.02265
G1 X-40.452 Y9.633 E.02265
G1 X-40.22 Y9.072 E.02265
G1 X-39.85 Y8.589 E.02265
G1 X-39.367 Y8.219 E.02265
G1 X-38.805 Y7.986 E.02265
G1 X-38.202 Y7.907 E.02265
G1 X-37.599 Y7.986 E.02265
G1 X-37.038 Y8.219 E.02265
G1 X-36.555 Y8.589 E.02265
G1 X-36.352 Y8.853 E.0124
G1 X-36.059 Y8.775 E.0113
G1 X-36.059 Y-8.775 E.65365
G1 X-36.352 Y-8.853 E.0113
G1 X-36.555 Y-8.589 E.0124
G1 X-37.038 Y-8.219 E.02265
G1 X-37.599 Y-7.986 E.02265
G1 X-38.202 Y-7.907 E.02265
G1 X-38.805 Y-7.986 E.02265
G1 X-39.367 Y-8.219 E.02265
G1 X-39.85 Y-8.589 E.02265
G1 X-40.22 Y-9.072 E.02265
G1 X-40.452 Y-9.633 E.02265
G1 X-40.532 Y-10.236 E.02265
G1 X-40.452 Y-10.839 E.02265
G1 X-40.22 Y-11.401 E.02265
G1 X-39.85 Y-11.883 E.02265
G1 X-39.367 Y-12.254 E.02265
G1 X-38.805 Y-12.486 E.02265
G1 X-38.202 Y-12.566 E.02265
G1 X-37.698 Y-12.499 E.01894
G1 X-37.611 Y-12.676 E.00732
G1 X-38.72 Y-13.784 E.05839
G1 X-39.264 Y-14.48 E.03293
G1 X-39.647 Y-15.335 E.03488
G1 X-39.813 Y-16.257 E.03488
G1 X-39.752 Y-17.191 E.03488
G1 X-39.479 Y-18.047 E.03345
G1 X-38.2 Y-20.614 E.10683
G1 X-36.776 Y-23.06 E.10541
G1 X-35.195 Y-25.407 E.10541
G1 X-33.465 Y-27.647 E.10541
G1 X-31.592 Y-29.769 E.10541
G1 X-29.602 Y-31.747 E.10454
G1 X-27.452 Y-33.624 E.10627
G1 X-25.203 Y-35.342 E.10542
G1 X-22.846 Y-36.909 E.10541
G1 X-20.393 Y-38.319 E.10541
G1 X-17.853 Y-39.566 E.10541
G1 X-15.236 Y-40.646 E.10541
G1 X-12.555 Y-41.552 E.10541
G1 X-9.821 Y-42.282 E.10541
G1 X-7.045 Y-42.832 E.10541
G1 X-4.239 Y-43.2 E.10541
G1 X-1.415 Y-43.384 E.10541
G1 X1.415 Y-43.384 E.10541
G1 X4.239 Y-43.2 E.10541
G1 X7.045 Y-42.832 E.10541
G1 X9.821 Y-42.282 E.10541
G1 X12.533 Y-41.558 E.10454
G1 X15.236 Y-40.646 E.10627
G1 X17.853 Y-39.566 E.10542
G1 X20.393 Y-38.319 E.10541
G1 X22.846 Y-36.909 E.10541
G1 X25.203 Y-35.342 E.10541
G1 X27.452 Y-33.624 E.10541
M73 P0 R46
G1 X29.567 Y-31.779 E.10454
G1 X31.592 Y-29.769 E.10627
G1 X33.465 Y-27.647 E.10542
G1 X35.195 Y-25.407 E.10541
G1 X36.776 Y-23.06 E.10541
G1 X38.2 Y-20.614 E.10541
G1 X39.479 Y-18.047 E.10683
G1 X39.752 Y-17.191 E.03345
G1 X39.813 Y-16.257 E.03488
G1 X39.647 Y-15.335 E.03488
G1 X39.264 Y-14.48 E.03488
G1 X38.72 Y-13.784 E.03293
G1 X37.611 Y-12.676 E.05839
G1 X37.698 Y-12.499 E.00732
G1 X38.202 Y-12.566 E.01894
G1 X38.805 Y-12.486 E.02265
G1 X39.367 Y-12.254 E.02265
G1 X39.85 Y-11.883 E.02265
G1 X40.22 Y-11.401 E.02265
G1 X40.452 Y-10.839 E.02265
G1 X40.532 Y-10.236 E.02265
G1 X40.452 Y-9.633 E.02265
G1 X40.22 Y-9.072 E.02265
G1 X39.85 Y-8.589 E.02265
G1 X39.367 Y-8.219 E.02265
G1 X38.805 Y-7.986 E.02265
G1 X38.202 Y-7.907 E.02265
G1 X37.599 Y-7.986 E.02265
G1 X37.038 Y-8.219 E.02265
G1 X36.555 Y-8.589 E.02265
G1 X36.246 Y-8.993 E.01895
G1 X36.059 Y-8.929 E.00732
G1 X36.059 Y8.929 E.66518
G1 X36.246 Y8.993 E.00732
G1 X36.555 Y8.589 E.01895
G1 X37.038 Y8.219 E.02265
G1 X37.599 Y7.986 E.02265
G1 X38.202 Y7.907 E.02265
G1 X38.805 Y7.986 E.02265
G1 X39.367 Y8.219 E.02265
G1 X39.85 Y8.589 E.02265
G1 X40.22 Y9.072 E.02265
G1 X40.452 Y9.633 E.02265
G1 X40.532 Y10.236 E.02265
G1 X40.452 Y10.839 E.02265
G1 X40.22 Y11.401 E.02265
G1 X39.85 Y11.883 E.02265
G1 X39.367 Y12.254 E.02265
G1 X38.805 Y12.486 E.02265
G1 X38.202 Y12.566 E.02265
G1 X37.698 Y12.499 E.01894
G1 X37.611 Y12.676 E.00732
G1 X38.72 Y13.784 E.05839
G1 X39.264 Y14.48 E.03293
G1 X39.647 Y15.335 E.03488
G1 X39.813 Y16.257 E.03488
G1 X39.752 Y17.191 E.03488
G1 X39.741 Y17.226 E.00135
G1 E-.8 F2100
;WIPE_START
G1 F3000
G1 X39.479 Y18.047
G1 X38.972 Y19.066
;WIPE_END
G1 X38.393 Y11.455 Z.6 F30000
G1 X38.159 Y8.374 Z.6
G1 Z.2
G1 E.8 F2100
;TYPE:Outer wall
G1 F3000
G1 X38.202 Y8.368 E.00164
G1 X38.686 Y8.432 E.01817
G1 X39.137 Y8.618 E.01817
G1 X39.524 Y8.915 E.01817
G1 X39.82 Y9.302 E.01817
G1 X40.007 Y9.753 E.01817
G1 X40.071 Y10.236 E.01817
G1 X40.007 Y10.72 E.01817
G1 X39.82 Y11.171 E.01817
G1 X39.524 Y11.557 E.01817
G1 X39.137 Y11.854 E.01817
G1 X38.686 Y12.041 E.01817
G1 X38.202 Y12.105 E.01817
G1 X37.719 Y12.041 E.01817
G1 X37.268 Y11.854 E.01817
G1 X36.881 Y11.557 E.01817
G1 X36.584 Y11.171 E.01817
G1 X36.398 Y10.72 E.01817
G1 X36.334 Y10.236 E.01817
G1 X36.398 Y9.753 E.01817
G1 X36.584 Y9.302 E.01817
G1 X36.881 Y8.915 E.01817
G1 X37.268 Y8.618 E.01817
G1 X37.719 Y8.432 E.01817
G1 X38.119 Y8.379 E.01503
G1 E-.8 F2100
;WIPE_START
G1 F3000
G1 X38.202 Y8.368
G1 X38.686 Y8.432
G1 X39.137 Y8.618
G1 X39.524 Y8.915
G1 X39.799 Y9.274
;WIPE_END
G1 X39.102 Y1.674 Z.6 F30000
G1 X38.181 Y-8.371 Z.6
G1 Z.2
G1 E.8 F2100
G1 F3000
G1 X37.719 Y-8.432 E.01735
G1 X37.268 Y-8.618 E.01817
G1 X36.881 Y-8.915 E.01817
G1 X36.584 Y-9.302 E.01817
G1 X36.398 Y-9.753 E.01817
G1 X36.334 Y-10.236 E.01817
G1 X36.398 Y-10.72 E.01817
G1 X36.584 Y-11.171 E.01817
G1 X36.881 Y-11.557 E.01817
G1 X37.268 Y-11.854 E.01817
G1 X37.719 Y-12.041 E.01817
G1 X38.202 Y-12.105 E.01817
G1 X38.686 Y-12.041 E.01817
G1 X39.137 Y-11.854 E.01817
G1 X39.524 Y-11.557 E.01817
G1 X39.82 Y-11.171 E.01817
G1 X40.007 Y-10.72 E.01817
G1 X40.071 Y-10.236 E.01817
G1 X40.007 Y-9.753 E.01817
G1 X39.82 Y-9.302 E.01817
G1 X39.524 Y-8.915 E.01817
G1 X39.137 Y-8.618 E.01817
G1 X38.686 Y-8.432 E.01817
G1 X38.22 Y-8.37 E.0175
G1 E-.8 F2100
;WIPE_START
G1 F3000
G1 X37.719 Y-8.432
G1 X37.268 Y-8.618
G1 X36.881 Y-8.915
G1 X36.584 Y-9.302
G1 X36.572 Y-9.331
;WIPE_END
G1 X37.353 Y-1.739 Z.6 F30000
G1 X39.293 Y17.125 Z.6
G1 Z.2
G1 E.8 F2100
G1 F3000
G1 X39.055 Y17.875 E.0293
G1 X37.798 Y20.397 E.10496
G1 X36.388 Y22.817 E.1043
G1 X34.824 Y25.14 E.1043
G1 X33.112 Y27.355 E.1043
G1 X31.259 Y29.455 E.1043
G1 X29.29 Y31.413 E.10343
G1 X27.163 Y33.27 E.10516
G1 X24.937 Y34.969 E.1043
G1 X22.606 Y36.52 E.1043
G1 X20.178 Y37.915 E.1043
G1 X17.664 Y39.15 E.1043
G1 X15.076 Y40.217 E.1043
G1 X12.423 Y41.114 E.1043
G1 X9.718 Y41.836 E.1043
G1 X6.971 Y42.381 E.1043
G1 X4.194 Y42.745 E.1043
G1 X1.4 Y42.927 E.1043
G1 X-1.4 Y42.927 E.1043
G1 X-4.194 Y42.745 E.1043
G1 X-6.971 Y42.381 E.1043
G1 X-9.718 Y41.836 E.1043
G1 X-12.401 Y41.12 E.10343
G1 X-15.076 Y40.217 E.10516
G1 X-17.664 Y39.15 E.1043
G1 X-20.178 Y37.915 E.1043
G1 X-22.606 Y36.52 E.1043
G1 X-24.937 Y34.969 E.1043
G1 X-27.163 Y33.27 E.1043
G1 X-29.256 Y31.444 E.10343
G1 X-31.259 Y29.455 E.10516
G1 X-33.112 Y27.355 E.1043
G1 X-34.824 Y25.14 E.1043
G1 X-36.388 Y22.817 E.1043
G1 X-37.798 Y20.397 E.1043
G1 X-39.055 Y17.875 E.10496
G1 X-39.299 Y17.106 E.03006
G1 X-39.353 Y16.283 E.03073
G1 X-39.207 Y15.471 E.03073
G1 X-38.87 Y14.718 E.03073
G1 X-38.377 Y14.088 E.02981
G1 X-36.379 Y12.09 E.10525
G1 X-36.024 Y11.651 E.02101
G1 X-35.777 Y11.167 E.02023
G1 X-35.637 Y10.643 E.02023
G1 X-35.608 Y10.1 E.02023
G1 X-35.756 Y9.167 E.03521
G1 X-35.602 Y9.126 E.00592
G1 X-35.602 Y-9.126 E.67978
G1 X-35.756 Y-9.167 E.00592
G1 X-35.608 Y-10.1 E.03521
G1 X-35.637 Y-10.643 E.02023
G1 X-35.777 Y-11.167 E.02023
G1 X-36.024 Y-11.651 E.02023
G1 X-36.379 Y-12.09 E.02101
G1 X-38.377 Y-14.088 E.10525
G1 X-38.87 Y-14.718 E.02981
G1 X-39.207 Y-15.471 E.03073
G1 X-39.353 Y-16.283 E.03073
G1 X-39.299 Y-17.106 E.03073
G1 X-39.055 Y-17.875 E.03006
G1 X-37.798 Y-20.397 E.10496
G1 X-36.388 Y-22.817 E.1043
G1 X-34.824 Y-25.14 E.1043
G1 X-33.112 Y-27.355 E.1043
G1 X-31.259 Y-29.455 E.1043
G1 X-29.29 Y-31.413 E.10343
G1 X-27.163 Y-33.27 E.10516
G1 X-24.937 Y-34.969 E.1043
G1 X-22.606 Y-36.52 E.1043
G1 X-20.178 Y-37.915 E.1043
G1 X-17.664 Y-39.15 E.1043
G1 X-15.076 Y-40.217 E.1043
M73 P1 R46
G1 X-12.423 Y-41.114 E.1043
G1 X-9.718 Y-41.836 E.1043
G1 X-6.971 Y-42.381 E.1043
G1 X-4.194 Y-42.745 E.1043
G1 X-1.4 Y-42.927 E.1043
G1 X1.4 Y-42.927 E.1043
G1 X4.194 Y-42.745 E.1043
G1 X6.971 Y-42.381 E.1043
G1 X9.718 Y-41.836 E.1043
G1 X12.401 Y-41.12 E.10343
G1 X15.076 Y-40.217 E.10516
G1 X17.664 Y-39.15 E.1043
G1 X20.178 Y-37.915 E.1043
G1 X22.606 Y-36.52 E.1043
G1 X24.937 Y-34.969 E.1043
G1 X27.163 Y-33.27 E.1043
G1 X29.256 Y-31.444 E.10343
G1 X31.259 Y-29.455 E.10516
G1 X33.112 Y-27.355 E.1043
G1 X34.824 Y-25.14 E.1043
G1 X36.388 Y-22.817 E.1043
G1 X37.798 Y-20.397 E.1043
G1 X39.055 Y-17.875 E.10496
G1 X39.299 Y-17.106 E.03006
G1 X39.353 Y-16.283 E.03073
G1 X39.207 Y-15.471 E.03073
G1 X38.87 Y-14.718 E.03073
G1 X38.377 Y-14.088 E.02981
G1 X36.378 Y-12.089 E.10529
G1 X36.042 Y-11.68 E.01971
G1 X35.802 Y-11.231 E.01897
G1 X35.656 Y-10.748 E.0188
G1 X35.602 Y-10.216 E.01988
G1 X35.602 Y10.217 E.76105
G1 X35.654 Y10.743 E.01971
G1 X35.802 Y11.231 E.01897
G1 X36.042 Y11.68 E.01897
G1 X36.378 Y12.089 E.01971
G1 X38.377 Y14.088 E.10529
G1 X38.87 Y14.718 E.02981
G1 X39.207 Y15.471 E.03073
G1 X39.353 Y16.283 E.03073
G1 X39.301 Y17.086 E.02999
G1 E-.8 F2100
;WIPE_START
G1 F3000
G1 X39.055 Y17.875
G1 X38.531 Y18.926
;WIPE_END
G1 X31.454 Y16.066 Z.6 F30000
G1 X-38.247 Y-12.099 Z.6
G1 Z.2
G1 E.8 F2100
G1 F3000
G1 X-38.202 Y-12.105 E.00167
G1 X-37.719 Y-12.041 E.01817
G1 X-37.268 Y-11.854 E.01817
G1 X-36.881 Y-11.557 E.01817
G1 X-36.584 Y-11.171 E.01817
G1 X-36.398 Y-10.72 E.01817
G1 X-36.334 Y-10.236 E.01817
G1 X-36.398 Y-9.753 E.01817
G1 X-36.584 Y-9.302 E.01817
G1 X-36.881 Y-8.915 E.01817
G1 X-37.268 Y-8.618 E.01817
G1 X-37.719 Y-8.432 E.01817
G1 X-38.202 Y-8.368 E.01817
G1 X-38.686 Y-8.432 E.01817
G1 X-39.137 Y-8.618 E.01817
G1 X-39.524 Y-8.915 E.01817
G1 X-39.82 Y-9.302 E.01817
G1 X-40.007 Y-9.753 E.01817
G1 X-40.071 Y-10.236 E.01817
G1 X-40.007 Y-10.72 E.01817
G1 X-39.82 Y-11.171 E.01817
G1 X-39.524 Y-11.557 E.01817
G1 X-39.137 Y-11.854 E.01817
G1 X-38.686 Y-12.041 E.01817
G1 X-38.286 Y-12.094 E.01501
G1 E-.8 F2100
;WIPE_START
G1 F3000
G1 X-38.202 Y-12.105
G1 X-37.719 Y-12.041
G1 X-37.268 Y-11.854
G1 X-36.881 Y-11.557
G1 X-36.606 Y-11.199
;WIPE_END
G1 X-37.243 Y-3.593 Z.6 F30000
G1 X-38.246 Y8.374 Z.6
G1 Z.2
G1 E.8 F2100
G1 F3000
G1 X-38.202 Y8.368 E.00165
G1 X-37.719 Y8.432 E.01817
G1 X-37.268 Y8.618 E.01817
G1 X-36.881 Y8.915 E.01817
G1 X-36.584 Y9.302 E.01817
G1 X-36.398 Y9.753 E.01817
G1 X-36.334 Y10.236 E.01817
G1 X-36.398 Y10.72 E.01817
G1 X-36.584 Y11.171 E.01817
G1 X-36.881 Y11.557 E.01817
G1 X-37.268 Y11.854 E.01817
G1 X-37.719 Y12.041 E.01817
G1 X-38.202 Y12.105 E.01817
G1 X-38.686 Y12.041 E.01817
G1 X-39.137 Y11.854 E.01817
G1 X-39.524 Y11.557 E.01817
G1 X-39.82 Y11.171 E.01817
G1 X-40.007 Y10.72 E.01817
G1 X-40.071 Y10.236 E.01817
G1 X-40.007 Y9.753 E.01817
G1 X-39.82 Y9.302 E.01817
G1 X-39.524 Y8.915 E.01817
G1 X-39.137 Y8.618 E.01817
G1 X-38.686 Y8.432 E.01817
G1 X-38.286 Y8.379 E.01503
G1 E-.8 F2100
;WIPE_START
G1 F3000
G1 X-38.202 Y8.368
G1 X-37.719 Y8.432
G1 X-37.268 Y8.618
G1 X-36.881 Y8.915
G1 X-36.606 Y9.274
;WIPE_END
G1 X-36.514 Y1.642 Z.6 F30000
G1 X-36.076 Y-34.825 Z.6
G1 Z.2
G1 E.8 F2100
;TYPE:Inner wall
G1 F3000
G1 X-33.909 Y-36.938 E.11272
G1 X-31.642 Y-38.898 E.11164
G1 X-29.261 Y-40.719 E.11164
G1 X-26.794 Y-42.382 E.1108
G1 X-24.175 Y-43.93 E.11332
G1 X-21.527 Y-45.286 E.11079
G1 X-18.772 Y-46.496 E.11211
G1 X-15.964 Y-47.533 E.11148
G1 X-13.095 Y-48.402 E.11164
G1 X-10.158 Y-49.103 E.11248
G1 X-7.228 Y-49.619 E.1108
G1 X-4.228 Y-49.964 E.11248
G1 X-1.235 Y-50.127 E.11165
G1 X-.78 Y-50.125 E.01696
G1 X1.769 Y-50.111 E.09493
G1 X4.761 Y-49.916 E.11169
G1 X7.735 Y-49.542 E.11164
G1 X10.681 Y-48.992 E.11164
G1 X13.59 Y-48.266 E.11164
G1 X16.449 Y-47.368 E.11163
G1 X19.291 Y-46.283 E.11332
G1 X21.989 Y-45.064 E.11026
G1 X24.643 Y-43.669 E.11164
G1 X27.208 Y-42.119 E.11164
G1 X29.676 Y-40.418 E.11164
G1 X32.055 Y-38.558 E.11248
G1 X34.302 Y-36.574 E.11164
G1 X36.416 Y-34.47 E.11111
G1 X38.425 Y-32.215 E.11248
G1 X40.281 Y-29.862 E.11164
G1 X41.993 Y-27.402 E.11164
G1 X43.555 Y-24.844 E.11164
G1 X44.951 Y-22.217 E.11079
G1 X46.238 Y-19.397 E.11544
G1 X47.291 Y-16.668 E.10898
G1 X48.203 Y-13.812 E.11165
G1 X48.942 Y-10.907 E.11164
G1 X49.506 Y-7.963 E.11163
G1 X49.895 Y-4.969 E.11248
G1 X50.103 Y-2 E.11084
G1 X50.132 Y1.004 E.1119
G1 X49.983 Y3.998 E.11164
G1 X49.655 Y6.977 E.11164
G1 X49.145 Y9.954 E.11247
G1 X48.462 Y12.872 E.11164
G1 X47.613 Y15.723 E.11078
G1 X46.537 Y18.666 E.11674
G1 X45.385 Y21.318 E.10769
G1 X44.03 Y23.992 E.11165
G1 X42.518 Y26.58 E.11164
G1 X40.854 Y29.073 E.11163
G1 X39.029 Y31.479 E.11248
G1 X37.094 Y33.739 E.1108
G1 X35.006 Y35.901 E.11195
G1 X32.799 Y37.928 E.11164
G1 X30.474 Y39.82 E.11163
G1 X28.021 Y41.582 E.11248
G1 X25.487 Y43.182 E.11164
G1 X22.861 Y44.628 E.11164
G1 X20.154 Y45.914 E.11165
G1 X17.511 Y46.984 E.1062
G1 X14.525 Y47.993 E.1174
G1 X11.632 Y48.775 E.11161
G1 X8.697 Y49.383 E.11164
G1 X5.731 Y49.814 E.11164
G1 X2.744 Y50.067 E.11164
G1 X-.282 Y50.142 E.11275
G1 X-3.256 Y50.037 E.11083
G1 X-6.24 Y49.753 E.11164
G1 X-9.223 Y49.287 E.11248
G1 X-12.13 Y48.653 E.1108
G1 X-15.037 Y47.835 E.11248
G1 X-17.868 Y46.851 E.11165
G1 X-20.503 Y45.757 E.10626
G1 X-23.337 Y44.381 E.11733
G1 X-25.946 Y42.908 E.11161
G1 X-28.464 Y41.281 E.11164
G1 X-30.879 Y39.506 E.11164
G1 X-33.185 Y37.591 E.11164
G1 X-35.37 Y35.542 E.11158
G1 X-37.437 Y33.358 E.11201
G1 X-39.349 Y31.078 E.1108
G1 X-41.162 Y28.635 E.11332
G1 X-42.787 Y26.144 E.1108
G1 X-44.273 Y23.541 E.11164
G1 X-45.601 Y20.852 E.1117
G1 X-46.72 Y18.203 E.1071
G1 X-47.772 Y15.235 E.11728
G1 X-48.597 Y12.354 E.11161
G1 X-49.248 Y9.428 E.11164
G1 X-49.723 Y6.469 E.11164
G1 X-50.019 Y3.509 E.11079
G1 X-50.14 Y.425 E.11495
G1 X-50.079 Y-2.513 E.10947
G1 X-49.842 Y-5.478 E.1108
G1 X-49.418 Y-8.491 E.11333
G1 X-48.828 Y-11.407 E.11079
G1 X-48.059 Y-14.304 E.11164
G1 X-47.118 Y-17.15 E.11165
G1 X-46.055 Y-19.825 E.1072
G1 X-44.722 Y-22.676 E.11722
G1 X-43.299 Y-25.288 E.11078
G1 X-41.711 Y-27.829 E.11164
G1 X-39.96 Y-30.29 E.11248
