; HEADER_BLOCK_START
; generated by OrcaSlicer 2.3.0 on 2026-04-09 at 21:51:02
; total layer number: 15
;_GP_TOTAL_LAYER_NUMBER_PLACEHOLDER
; filament_density: 1.24
; filament_diameter: 1.75
; max_z_height: 3.00
; HEADER_BLOCK_END

; THUMBNAIL_BLOCK_START

;
; THUMBNAIL_BLOCK_END

; external perimeters extrusion width = 0.42mm
; perimeters extrusion width = 0.45mm
; infill extrusion width = 0.45mm
; solid infill extrusion width = 0.42mm
; top infill extrusion width = 0.42mm
; support material extrusion width = 0.42mm
; first layer extrusion width = 0.50mm

; EXECUTABLE_BLOCK_START
M73 P0 R93
M106 S0
M106 P2 S0
;TYPE:Custom
M190 S55
M104 S220
G90
M83
G1 Z5 F6000
G1 E-0.2 F800
G1 X110 Y-110 F6000
G1 E2 F800
G1 Y-110 X55 Z0.25 F4800
G1 X-55 E8 F2400
G1 Y-109.6 F2400
G1 X55 E5 F2400
G1 Y-110 X55 Z0.45 F4800
M73 P0 R92
G1 X-55 E8 F2400
G1 Y-109.6 F2400
G1 X55 E5 F2400
G92 E0
G90
G21
M83 ; use relative distances for extrusion
; filament start gcode
;right_extruder_material: PLA
SET_PRESSURE_ADVANCE ADVANCE=0.025; Override pressure advance value
M106 S0
M106 P2 S0
;LAYER_CHANGE
;Z:0.2
;HEIGHT:0.2
;BEFORE_LAYER_CHANGE
;0.2
G1 E-.8 F2100
;AFTER_LAYER_CHANGE
;0.2
;_SET_FAN_SPEED_CHANGING_LAYER
SET_VELOCITY_LIMIT ACCEL=500
G1 X-.68 Y-23.638 F30000
G1 Z.6
G1 Z.2
G1 E.8 F2100
;TYPE:Inner wall
;WIDTH:0.5
G1 F3000
G1 X-.603 Y-23.669 E.0031
G1 X-.039 Y-23.744 E.02119
G1 X.597 Y-23.672 E.02382
G1 X1.165 Y-23.437 E.0229
G1 X1.647 Y-23.067 E.02265
G1 X2.017 Y-22.584 E.02265
G1 X2.25 Y-22.022 E.02265
G1 X2.329 Y-21.419 E.02265
G1 X2.25 Y-20.816 E.02265
G1 X2.017 Y-20.255 E.02265
G1 X1.647 Y-19.772 E.02265
G1 X1.165 Y-19.402 E.02265
G1 X.603 Y-19.169 E.02265
G1 X0 Y-19.09 E.02265
G1 X-.603 Y-19.169 E.02265
G1 X-1.165 Y-19.402 E.02265
G1 X-1.647 Y-19.772 E.02265
G1 X-2.017 Y-20.255 E.02265
G1 X-2.235 Y-20.78 E.02119
G1 X-2.33 Y-21.413 E.02382
G1 X-2.25 Y-22.022 E.0229
G1 X-2.017 Y-22.584 E.02265
G1 X-1.647 Y-23.067 E.02265
G1 X-1.165 Y-23.437 E.02265
G1 X-.717 Y-23.622 E.01806
G1 X-.505 Y-23.215 F30000
;TYPE:Outer wall
G1 F3000
G1 X-.484 Y-23.224 E.00086
G1 X-.035 Y-23.283 E.01687
G1 X.481 Y-23.225 E.01934
G1 X.934 Y-23.037 E.01826
G1 X1.321 Y-22.741 E.01817
G1 X1.618 Y-22.354 E.01817
G1 X1.805 Y-21.903 E.01817
G1 X1.868 Y-21.419 E.01817
G1 X1.805 Y-20.936 E.01817
G1 X1.618 Y-20.485 E.01817
G1 X1.321 Y-20.098 E.01817
G1 X.934 Y-19.801 E.01817
G1 X.484 Y-19.615 E.01817
G1 X0 Y-19.551 E.01817
G1 X-.484 Y-19.615 E.01817
G1 X-.934 Y-19.801 E.01817
G1 X-1.321 Y-20.098 E.01817
G1 X-1.618 Y-20.485 E.01817
G1 X-1.791 Y-20.904 E.01687
G1 X-1.869 Y-21.417 E.01934
G1 X-1.805 Y-21.903 E.01826
G1 X-1.618 Y-22.354 E.01817
G1 X-1.321 Y-22.741 E.01817
G1 X-.934 Y-23.037 E.01817
G1 X-.542 Y-23.2 E.01582
G1 E-.8 F2100
;WIPE_START
G1 F3000
G1 X-.484 Y-23.224
G1 X-.035 Y-23.283
G1 X.481 Y-23.225
G1 X.934 Y-23.037
G1 X1.311 Y-22.749
;WIPE_END
G1 X-6.097 Y-20.912 Z.6 F30000
G1 X-15.512 Y-18.578 Z.6
G1 Z.2
G1 E.8 F2100
;TYPE:Inner wall
G1 F3000
G1 X-15.435 Y-18.609 E.0031
G1 X-14.871 Y-18.684 E.02119
G1 X-14.236 Y-18.612 E.02382
G1 X-13.668 Y-18.377 E.0229
G1 X-13.185 Y-18.007 E.02265
G1 X-12.815 Y-17.524 E.02265
G1 X-12.582 Y-16.962 E.02265
G1 X-12.503 Y-16.359 E.02265
G1 X-12.582 Y-15.756 E.02265
G1 X-12.815 Y-15.195 E.02265
G1 X-13.185 Y-14.712 E.02265
G1 X-13.668 Y-14.342 E.02265
G1 X-14.193 Y-14.124 E.02119
G1 X-14.826 Y-14.029 E.02382
G1 X-15.435 Y-14.109 E.0229
G1 X-15.997 Y-14.342 E.02265
G1 X-16.48 Y-14.712 E.02265
G1 X-16.85 Y-15.195 E.02265
G1 X-17.067 Y-15.72 E.02119
G1 X-17.163 Y-16.353 E.02382
G1 X-17.082 Y-16.962 E.0229
G1 X-16.85 Y-17.524 E.02265
G1 X-16.48 Y-18.007 E.02265
G1 X-15.997 Y-18.377 E.02265
G1 X-15.549 Y-18.562 E.01806
G1 X-15.337 Y-18.155 F30000
;TYPE:Outer wall
G1 F3000
G1 X-15.316 Y-18.164 E.00086
G1 X-14.867 Y-18.223 E.01687
G1 X-14.351 Y-18.165 E.01934
G1 X-13.898 Y-17.977 E.01826
G1 X-13.511 Y-17.681 E.01817
G1 X-13.214 Y-17.294 E.01817
G1 X-13.028 Y-16.843 E.01817
G1 X-12.964 Y-16.359 E.01817
G1 X-13.028 Y-15.876 E.01817
G1 X-13.214 Y-15.425 E.01817
G1 X-13.511 Y-15.038 E.01817
G1 X-13.898 Y-14.741 E.01817
G1 X-14.317 Y-14.568 E.01687
G1 X-14.83 Y-14.491 E.01934
G1 X-15.316 Y-14.555 E.01826
G1 X-15.767 Y-14.741 E.01817
G1 X-16.154 Y-15.038 E.01817
G1 X-16.45 Y-15.425 E.01817
G1 X-16.624 Y-15.844 E.01687
G1 X-16.701 Y-16.357 E.01934
G1 X-16.637 Y-16.843 E.01826
G1 X-16.45 Y-17.294 E.01817
G1 X-16.154 Y-17.681 E.01817
G1 X-15.767 Y-17.977 E.01817
G1 X-15.374 Y-18.14 E.01582
G1 E-.8 F2100
;WIPE_START
G1 F3000
G1 X-15.316 Y-18.164
G1 X-14.867 Y-18.223
G1 X-14.351 Y-18.165
G1 X-13.898 Y-17.977
G1 X-13.522 Y-17.689
;WIPE_END
G1 X-14.18 Y-10.085 Z.6 F30000
G1 X-15.512 Y5.302 Z.6
G1 Z.2
G1 E.8 F2100
;TYPE:Inner wall
G1 F3000
G1 X-15.435 Y5.271 E.0031
G1 X-14.871 Y5.196 E.02119
G1 X-14.236 Y5.268 E.02382
G1 X-13.668 Y5.503 E.0229
G1 X-13.185 Y5.873 E.02265
G1 X-12.815 Y6.356 E.02265
G1 X-12.582 Y6.918 E.02265
G1 X-12.503 Y7.521 E.02265
G1 X-12.582 Y8.124 E.02265
G1 X-12.815 Y8.685 E.02265
G1 X-13.185 Y9.168 E.02265
G1 X-13.668 Y9.538 E.02265
G1 X-14.229 Y9.771 E.02265
G1 X-14.832 Y9.85 E.02265
G1 X-15.435 Y9.771 E.02265
G1 X-15.997 Y9.538 E.02265
G1 X-16.48 Y9.168 E.02265
G1 X-16.85 Y8.685 E.02265
G1 X-17.067 Y8.16 E.02119
G1 X-17.163 Y7.527 E.02382
G1 X-17.082 Y6.918 E.0229
G1 X-16.85 Y6.356 E.02265
G1 X-16.48 Y5.873 E.02265
G1 X-15.997 Y5.503 E.02265
G1 X-15.549 Y5.318 E.01806
G1 X-15.337 Y5.725 F30000
;TYPE:Outer wall
G1 F3000
G1 X-15.316 Y5.716 E.00086
G1 X-14.867 Y5.657 E.01687
G1 X-14.351 Y5.715 E.01934
G1 X-13.898 Y5.903 E.01826
G1 X-13.511 Y6.199 E.01817
G1 X-13.214 Y6.586 E.01817
G1 X-13.028 Y7.037 E.01817
G1 X-12.964 Y7.521 E.01817
G1 X-13.028 Y8.004 E.01817
G1 X-13.214 Y8.455 E.01817
G1 X-13.511 Y8.842 E.01817
G1 X-13.898 Y9.139 E.01817
G1 X-14.349 Y9.325 E.01817
G1 X-14.832 Y9.389 E.01817
G1 X-15.316 Y9.325 E.01817
G1 X-15.767 Y9.139 E.01817
G1 X-16.154 Y8.842 E.01817
G1 X-16.45 Y8.455 E.01817
G1 X-16.624 Y8.036 E.01687
G1 X-16.701 Y7.523 E.01934
G1 X-16.637 Y7.037 E.01826
G1 X-16.45 Y6.586 E.01817
G1 X-16.154 Y6.199 E.01817
G1 X-15.767 Y5.903 E.01817
G1 X-15.374 Y5.74 E.01582
G1 E-.8 F2100
;WIPE_START
G1 F3000
G1 X-15.316 Y5.716
G1 X-14.867 Y5.657
G1 X-14.351 Y5.715
G1 X-13.898 Y5.903
G1 X-13.522 Y6.191
;WIPE_END
G1 X-20.573 Y9.112 Z.6 F30000
G1 X-49.121 Y20.933 Z.6
G1 Z.2
G1 E.8 F2100
;TYPE:Inner wall
G1 F3000
G1 X-49.17 Y20.871 E.00295
G1 X-49.387 Y20.345 E.02119
G1 X-49.483 Y19.712 E.02382
G1 X-49.402 Y19.103 E.0229
G1 X-49.17 Y18.541 E.02265
G1 X-48.799 Y18.059 E.02265
G1 X-48.317 Y17.688 E.02265
G1 X-47.755 Y17.456 E.02265
G1 X-47.191 Y17.381 E.02119
G1 X-46.555 Y17.453 E.02382
G1 X-45.987 Y17.688 E.0229
G1 X-45.505 Y18.059 E.02265
G1 X-45.135 Y18.541 E.02265
G1 X-44.917 Y19.067 E.02119
G1 X-44.822 Y19.699 E.02382
G1 X-44.902 Y20.309 E.0229
G1 X-45.135 Y20.871 E.02265
G1 X-45.505 Y21.353 E.02265
G1 X-45.987 Y21.723 E.02265
G1 X-46.513 Y21.941 E.02119
G1 X-47.146 Y22.036 E.02382
G1 X-47.755 Y21.956 E.0229
G1 X-48.317 Y21.723 E.02265
G1 X-48.799 Y21.353 E.02265
G1 X-49.097 Y20.965 E.01821
G1 X-48.759 Y20.655 F30000
;TYPE:Outer wall
G1 F3000
G1 X-48.77 Y20.64 E.00071
G1 X-48.944 Y20.222 E.01687
G1 X-49.021 Y19.708 E.01934
G1 X-48.957 Y19.222 E.01826
G1 X-48.77 Y18.772 E.01817
G1 X-48.473 Y18.385 E.01817
G1 X-48.086 Y18.088 E.01817
G1 X-47.636 Y17.901 E.01817
G1 X-47.187 Y17.842 E.01687
G1 X-46.671 Y17.9 E.01934
G1 X-46.218 Y18.088 E.01826
G1 X-45.831 Y18.385 E.01817
G1 X-45.534 Y18.772 E.01817
G1 X-45.361 Y19.19 E.01687
G1 X-45.283 Y19.703 E.01934
G1 X-45.347 Y20.189 E.01826
G1 X-45.534 Y20.64 E.01817
G1 X-45.831 Y21.027 E.01817
G1 X-46.218 Y21.324 E.01817
G1 X-46.636 Y21.497 E.01687
G1 X-47.15 Y21.575 E.01934
G1 X-47.636 Y21.511 E.01826
G1 X-48.086 Y21.324 E.01817
G1 X-48.473 Y21.027 E.01817
G1 X-48.734 Y20.687 E.01597
G1 E-.8 F2100
;WIPE_START
G1 F3000
G1 X-48.77 Y20.64
G1 X-48.944 Y20.222
G1 X-49.021 Y19.708
G1 X-48.957 Y19.222
G1 X-48.774 Y18.78
;WIPE_END
G1 X-48.581 Y26.41 Z.6 F30000
G1 X-47.702 Y61.25 Z.6
G1 Z.2
G1 E.8 F2100
;TYPE:Inner wall
G1 F3000
G1 X-47.626 Y61.218 E.0031
G1 X-47.061 Y61.144 E.02119
G1 X-46.426 Y61.215 E.02382
G1 X-45.858 Y61.451 E.0229
G1 X-45.375 Y61.821 E.02265
G1 X-45.005 Y62.303 E.02265
G1 X-44.773 Y62.865 E.02265
G1 X-44.693 Y63.468 E.02265
G1 X-44.773 Y64.071 E.02265
G1 X-45.005 Y64.633 E.02265
G1 X-45.375 Y65.115 E.02265
G1 X-45.858 Y65.485 E.02265
G1 X-46.42 Y65.718 E.02265
G1 X-47.023 Y65.797 E.02265
G1 X-47.626 Y65.718 E.02265
G1 X-48.187 Y65.485 E.02265
G1 X-48.67 Y65.115 E.02265
G1 X-49.04 Y64.633 E.02265
G1 X-49.258 Y64.107 E.02119
G1 X-49.353 Y63.475 E.02382
G1 X-49.273 Y62.865 E.0229
G1 X-49.055 Y62.339 E.02119
G1 X-48.675 Y61.825 E.02382
G1 X-48.187 Y61.451 E.0229
G1 X-47.739 Y61.265 E.01806
G1 X-47.528 Y61.672 F30000
;TYPE:Outer wall
G1 F3000
G1 X-47.506 Y61.663 E.00086
G1 X-47.057 Y61.604 E.01687
G1 X-46.541 Y61.662 E.01934
G1 X-46.088 Y61.85 E.01826
G1 X-45.701 Y62.147 E.01817
G1 X-45.404 Y62.534 E.01817
G1 X-45.218 Y62.984 E.01817
G1 X-45.154 Y63.468 E.01817
G1 X-45.218 Y63.952 E.01817
G1 X-45.404 Y64.402 E.01817
G1 X-45.701 Y64.789 E.01817
G1 X-46.088 Y65.086 E.01817
G1 X-46.539 Y65.273 E.01817
G1 X-47.023 Y65.336 E.01817
G1 X-47.506 Y65.273 E.01817
G1 X-47.957 Y65.086 E.01817
G1 X-48.344 Y64.789 E.01817
G1 X-48.641 Y64.402 E.01817
G1 X-48.814 Y63.984 E.01687
G1 X-48.891 Y63.47 E.01934
G1 X-48.827 Y62.984 E.01826
G1 X-48.654 Y62.566 E.01687
G1 X-48.346 Y62.148 E.01934
G1 X-47.957 Y61.85 E.01826
G1 X-47.564 Y61.687 E.01582
G1 E-.8 F2100
;WIPE_START
G1 F3000
G1 X-47.506 Y61.663
G1 X-47.057 Y61.604
G1 X-46.541 Y61.662
G1 X-46.088 Y61.85
G1 X-45.712 Y62.139
;WIPE_END
G1 X-51.572 Y57.248 Z.6 F30000
G1 X-66.16 Y45.072 Z.6
G1 Z.2
G1 E.8 F2100
;TYPE:Inner wall
G1 F3000
G1 X-66.223 Y45.121 E.00295
G1 X-66.784 Y45.353 E.02265
G1 X-67.387 Y45.433 E.02265
G1 X-67.99 Y45.353 E.02265
G1 X-68.516 Y45.136 E.02119
G1 X-69.03 Y44.756 E.02382
G1 X-69.405 Y44.268 E.0229
G1 X-69.637 Y43.706 E.02265
G1 X-69.717 Y43.103 E.02265
G1 X-69.637 Y42.5 E.02265
G1 X-69.405 Y41.939 E.02265
G1 X-69.034 Y41.456 E.02265
G1 X-68.552 Y41.086 E.02265
G1 X-67.99 Y40.853 E.02265
G1 X-67.426 Y40.779 E.02119
G1 X-66.791 Y40.851 E.02382
G1 X-66.223 Y41.086 E.0229
G1 X-65.74 Y41.456 E.02265
G1 X-65.37 Y41.939 E.02265
G1 X-65.137 Y42.5 E.02265
G1 X-65.058 Y43.103 E.02265
G1 X-65.137 Y43.706 E.02265
G1 X-65.37 Y44.268 E.02265
G1 X-65.74 Y44.75 E.02265
G1 X-66.128 Y45.048 E.01821
G1 X-66.471 Y44.729 F30000
;TYPE:Outer wall
G1 F3000
G1 X-66.904 Y44.908 E.01746
G1 X-67.387 Y44.972 E.01817
G1 X-67.871 Y44.908 E.01817
G1 X-68.289 Y44.735 E.01687
G1 X-68.707 Y44.426 E.01934
G1 X-69.005 Y44.037 E.01826
G1 X-69.192 Y43.587 E.01817
G1 X-69.256 Y43.103 E.01817
G1 X-69.192 Y42.62 E.01817
G1 X-69.005 Y42.169 E.01817
G1 X-68.708 Y41.782 E.01817
G1 X-68.322 Y41.485 E.01817
G1 X-67.871 Y41.298 E.01817
G1 X-67.422 Y41.239 E.01687
G1 X-66.906 Y41.298 E.01934
G1 X-66.453 Y41.485 E.01826
G1 X-66.066 Y41.782 E.01817
G1 X-65.769 Y42.169 E.01817
G1 X-65.582 Y42.62 E.01817
G1 X-65.519 Y43.103 E.01817
G1 X-65.582 Y43.587 E.01817
G1 X-65.769 Y44.037 E.01817
G1 X-66.066 Y44.424 E.01817
G1 X-66.436 Y44.709 E.01738
G1 E-.8 F2100
;WIPE_START
G1 F3000
G1 X-66.904 Y44.908
G1 X-67.387 Y44.972
G1 X-67.871 Y44.908
G1 X-68.289 Y44.735
G1 X-68.34 Y44.697
;WIPE_END
G1 X-72.432 Y38.254 Z.6 F30000
G1 X-82.252 Y22.791 Z.6
G1 Z.2
G1 E.8 F2100
;TYPE:Inner wall
G1 F3000
G1 X-82.175 Y22.759 E.0031
G1 X-81.611 Y22.685 E.02119
G1 X-80.976 Y22.756 E.02382
G1 X-80.408 Y22.992 E.0229
G1 X-79.925 Y23.362 E.02265
G1 X-79.555 Y23.844 E.02265
G1 X-79.322 Y24.406 E.02265
G1 X-79.243 Y25.009 E.02265
G1 X-79.322 Y25.612 E.02265
G1 X-79.555 Y26.174 E.02265
G1 X-79.925 Y26.656 E.02265
G1 X-80.408 Y27.026 E.02265
G1 X-80.97 Y27.259 E.02265
G1 X-81.573 Y27.339 E.02265
G1 X-82.175 Y27.259 E.02265
G1 X-82.737 Y27.026 E.02265
G1 X-83.22 Y26.656 E.02265
G1 X-83.59 Y26.174 E.02265
G1 X-83.823 Y25.612 E.02265
G1 X-83.902 Y25.009 E.02265
G1 X-83.823 Y24.406 E.02265
G1 X-83.59 Y23.844 E.02265
G1 X-83.22 Y23.362 E.02265
G1 X-82.737 Y22.992 E.02265
G1 X-82.289 Y22.806 E.01806
G1 X-82.077 Y23.213 F30000
;TYPE:Outer wall
G1 F3000
G1 X-82.056 Y23.204 E.00086
G1 X-81.607 Y23.145 E.01687
G1 X-81.091 Y23.203 E.01934
G1 X-80.638 Y23.391 E.01826
G1 X-80.251 Y23.688 E.01817
G1 X-79.954 Y24.075 E.01817
G1 X-79.768 Y24.526 E.01817
G1 X-79.704 Y25.009 E.01817
G1 X-79.768 Y25.493 E.01817
G1 X-79.954 Y25.943 E.01817
G1 X-80.251 Y26.33 E.01817
G1 X-80.638 Y26.627 E.01817
G1 X-81.089 Y26.814 E.01817
G1 X-81.573 Y26.878 E.01817
G1 X-82.056 Y26.814 E.01817
G1 X-82.507 Y26.627 E.01817
G1 X-82.894 Y26.33 E.01817
G1 X-83.191 Y25.943 E.01817
G1 X-83.377 Y25.493 E.01817
G1 X-83.441 Y25.009 E.01817
G1 X-83.377 Y24.526 E.01817
G1 X-83.191 Y24.075 E.01817
G1 X-82.894 Y23.688 E.01817
G1 X-82.507 Y23.391 E.01817
G1 X-82.114 Y23.228 E.01582
G1 E-.8 F2100
;WIPE_START
G1 F3000
G1 X-82.056 Y23.204
G1 X-81.607 Y23.145
G1 X-81.091 Y23.203
G1 X-80.638 Y23.391
G1 X-80.262 Y23.68
;WIPE_END
G1 X-87.718 Y25.31 Z.6 F30000
G1 X-90.719 Y25.966 Z.6
G1 Z.2
G1 E.8 F2100
;TYPE:Inner wall
G1 F3000
G1 X-90.645 Y26.531 E.02122
G1 X-90.729 Y27.169 E.02396
G1 X-90.975 Y27.763 E.02396
G1 X-91.367 Y28.273 E.02396
G1 X-91.877 Y28.665 E.02396
G1 X-92.471 Y28.911 E.02396
G1 X-93.109 Y28.995 E.02396
G1 X-93.747 Y28.911 E.02396
G1 X-94.342 Y28.665 E.02396
G1 X-94.852 Y28.273 E.02396
G1 X-95.244 Y27.763 E.02396
G1 X-95.49 Y27.169 E.02396
G1 X-95.574 Y26.531 E.02396
G1 X-95.49 Y25.893 E.02396
G1 X-95.244 Y25.298 E.02396
G1 X-94.852 Y24.788 E.02396
G1 X-94.342 Y24.396 E.02396
G1 X-93.747 Y24.15 E.02396
G1 X-93.167 Y24.074 E.02178
G1 X-92.48 Y24.147 E.02575
G1 X-91.877 Y24.396 E.0243
G1 X-91.367 Y24.788 E.02396
G1 X-90.975 Y25.298 E.02396
G1 X-90.729 Y25.893 E.02396
G1 X-90.724 Y25.926 E.00126
G1 X-91.172 Y26.026 F30000
;TYPE:Outer wall
G1 F3000
G1 X-91.106 Y26.531 E.01897
G1 X-91.174 Y27.049 E.01948
G1 X-91.374 Y27.532 E.01948
G1 X-91.693 Y27.947 E.01948
G1 X-92.108 Y28.266 E.01948
G1 X-92.591 Y28.466 E.01948
G1 X-93.109 Y28.534 E.01948
G1 X-93.628 Y28.466 E.01948
G1 X-94.111 Y28.266 E.01948
G1 X-94.526 Y27.947 E.01948
G1 X-94.844 Y27.532 E.01948
G1 X-95.044 Y27.049 E.01948
G1 X-95.113 Y26.531 E.01948
G1 X-95.044 Y26.012 E.01948
G1 X-94.844 Y25.529 E.01948
G1 X-94.526 Y25.114 E.01948
G1 X-94.111 Y24.796 E.01948
G1 X-93.628 Y24.596 E.01948
G1 X-93.162 Y24.534 E.01751
G1 X-92.594 Y24.594 E.02127
G1 X-92.108 Y24.796 E.0196
G1 X-91.693 Y25.114 E.01948
G1 X-91.374 Y25.529 E.01948
G1 X-91.184 Y25.988 E.0185
G1 E-.8 F2100
;WIPE_START
G1 F3000
G1 X-91.106 Y26.531
G1 X-91.174 Y27.049
G1 X-91.374 Y27.532
G1 X-91.621 Y27.854
;WIPE_END
G1 X-89.262 Y20.595 Z.6 F30000
G1 X-80.715 Y-5.706 Z.6
G1 Z.2
G1 E.8 F2100
;TYPE:Inner wall
G1 F3000
G1 X-80.261 Y-6.054 E.02128
G1 X-79.667 Y-6.3 E.02396
G1 X-79.087 Y-6.376 E.02178
G1 X-78.4 Y-6.303 E.02575
G1 X-77.797 Y-6.054 E.0243
G1 X-77.287 Y-5.662 E.02396
G1 X-76.895 Y-5.152 E.02396
G1 X-76.649 Y-4.557 E.02396
G1 X-76.565 Y-3.919 E.02396
G1 X-76.649 Y-3.282 E.02396
G1 X-76.872 Y-2.741 E.02178
G1 X-77.279 Y-2.182 E.02575
G1 X-77.797 Y-1.785 E.0243
G1 X-78.391 Y-1.539 E.02396
G1 X-79.029 Y-1.455 E.02396
G1 X-79.667 Y-1.539 E.02396
G1 X-80.261 Y-1.785 E.02396
G1 X-80.772 Y-2.177 E.02396
G1 X-81.163 Y-2.687 E.02396
G1 X-81.41 Y-3.281 E.02396
G1 X-81.494 Y-3.919 E.02396
G1 X-81.41 Y-4.557 E.02396
G1 X-81.186 Y-5.097 E.02178
G1 X-80.779 Y-5.656 E.02575
G1 X-80.746 Y-5.681 E.00153
G1 X-80.436 Y-5.343 F30000
;TYPE:Outer wall
G1 F3000
G1 X-80.031 Y-5.654 E.01904
G1 X-79.548 Y-5.855 E.01948
G1 X-79.082 Y-5.916 E.01751
G1 X-78.514 Y-5.856 E.02127
G1 X-78.027 Y-5.654 E.0196
G1 X-77.613 Y-5.336 E.01948
G1 X-77.294 Y-4.921 E.01948
G1 X-77.094 Y-4.438 E.01948
G1 X-77.026 Y-3.919 E.01948
G1 X-77.094 Y-3.401 E.01948
G1 X-77.274 Y-2.966 E.01751
G1 X-77.61 Y-2.505 E.02127
G1 X-78.027 Y-2.184 E.0196
G1 X-78.511 Y-1.984 E.01948
G1 X-79.029 Y-1.916 E.01948
G1 X-79.548 Y-1.984 E.01948
G1 X-80.031 Y-2.184 E.01948
G1 X-80.446 Y-2.503 E.01948
G1 X-80.764 Y-2.918 E.01948
G1 X-80.964 Y-3.401 E.01948
