; HEADER_BLOCK_START
; generated by OrcaSlicer 2.3.0 on 2026-06-07 at 21:09:16
; total layer number: 253
;_GP_TOTAL_LAYER_NUMBER_PLACEHOLDER
; filament_density: 1.24
; filament_diameter: 1.75
; max_z_height: 50.60
; HEADER_BLOCK_END

; THUMBNAIL_BLOCK_START

;
; THUMBNAIL_BLOCK_END

; external perimeters extrusion width = 0.42mm
; perimeters extrusion width = 0.45mm
; infill extrusion width = 0.45mm
; solid infill extrusion width = 0.42mm
; top infill extrusion width = 0.42mm
; first layer extrusion width = 0.50mm

; EXECUTABLE_BLOCK_START
M73 P0 R36
M106 S0
M106 P2 S0
;TYPE:Custom
M190 S55
M104 S220
G90
M83
G1 Z5 F6000
G1 E-0.2 F800
G1 X110 Y-110 F6000
G1 E2 F800
G1 Y-110 X55 Z0.25 F4800
G1 X-55 E8 F2400
G1 Y-109.6 F2400
G1 X55 E5 F2400
G1 Y-110 X55 Z0.45 F4800
G1 X-55 E8 F2400
G1 Y-109.6 F2400
G1 X55 E5 F2400
G92 E0
G90
G21
M83 ; use relative distances for extrusion
; filament start gcode
;right_extruder_material: PLA
SET_PRESSURE_ADVANCE ADVANCE=0.025; Override pressure advance value
M106 S0
M106 P2 S0
;LAYER_CHANGE
;Z:0.2
;HEIGHT:0.2
;BEFORE_LAYER_CHANGE
;0.2
G1 E-.8 F2100
;AFTER_LAYER_CHANGE
;0.2
;_SET_FAN_SPEED_CHANGING_LAYER
SET_VELOCITY_LIMIT ACCEL=500
G1 X20.385 Y8.644 F30000
G1 Z.6
G1 Z.2
G1 E.8 F2100
;TYPE:Inner wall
;WIDTH:0.5
G1 F3000
G1 X19.763 Y9.986 E.05512
G1 X19.051 Y11.284 E.05511
G1 X18.255 Y12.531 E.05512
G1 X17.377 Y13.723 E.05511
G1 X16.422 Y14.853 E.05512
G1 X15.393 Y15.917 E.05512
G1 X14.296 Y16.909 E.05512
G1 X13.134 Y17.826 E.05512
G1 X11.914 Y18.664 E.05512
G1 X10.641 Y19.418 E.05512
G1 X9.321 Y20.085 E.05512
G1 X7.958 Y20.663 E.05512
G1 X6.56 Y21.148 E.05512
G1 X5.133 Y21.539 E.05511
G1 X3.675 Y21.835 E.05541
G1 X2.216 Y22.031 E.05483
G1 X.74 Y22.13 E.05512
G1 X-.74 Y22.13 E.05511
G1 X-2.216 Y22.031 E.05512
G1 X-3.683 Y21.834 E.05512
G1 X-5.133 Y21.539 E.05512
G1 X-6.56 Y21.148 E.05512
G1 X-7.958 Y20.663 E.05512
G1 X-9.321 Y20.085 E.05511
G1 X-10.641 Y19.418 E.05512
G1 X-11.914 Y18.664 E.05512
G1 X-13.134 Y17.826 E.05511
G1 X-14.301 Y16.904 E.05541
G1 X-15.393 Y15.917 E.05483
G1 X-16.422 Y14.853 E.05511
G1 X-17.382 Y13.717 E.0554
G1 X-18.255 Y12.531 E.05483
G1 X-19.051 Y11.284 E.05512
G1 X-19.763 Y9.986 E.05512
G1 X-20.385 Y8.644 E.05512
G1 X-20.917 Y7.263 E.05512
G1 X-21.356 Y5.85 E.05512
G1 X-21.699 Y4.41 E.05512
G1 X-21.945 Y2.951 E.05512
G1 X-22.093 Y1.479 E.05512
G1 X-22.142 Y0 E.05512
G1 X-22.093 Y-1.479 E.05512
G1 X-21.945 Y-2.951 E.05511
G1 X-21.699 Y-4.41 E.05512
G1 X-21.356 Y-5.85 E.05512
G1 X-20.917 Y-7.263 E.05512
G1 X-20.385 Y-8.644 E.05512
G1 X-19.763 Y-9.986 E.05512
G1 X-19.051 Y-11.284 E.05511
G1 X-18.255 Y-12.531 E.05512
G1 X-17.377 Y-13.723 E.05511
G1 X-16.422 Y-14.853 E.05512
G1 X-15.393 Y-15.917 E.05512
G1 X-14.296 Y-16.909 E.05512
G1 X-13.134 Y-17.826 E.05512
G1 X-11.914 Y-18.664 E.05512
G1 X-10.641 Y-19.418 E.05512
G1 X-9.321 Y-20.085 E.05512
G1 X-7.958 Y-20.663 E.05512
G1 X-6.56 Y-21.148 E.05511
G1 X-5.126 Y-21.541 E.05541
G1 X-3.683 Y-21.834 E.05483
G1 X-2.216 Y-22.031 E.05512
G1 X-.74 Y-22.13 E.05511
G1 X-.383 Y-22.13 E.01331
G1 X.748 Y-22.13 E.04209
G1 X2.216 Y-22.031 E.05483
G1 X3.683 Y-21.834 E.05512
G1 X5.133 Y-21.539 E.05512
G1 X6.56 Y-21.148 E.05512
G1 X7.958 Y-20.663 E.05512
G1 X9.321 Y-20.085 E.05511
G1 X10.641 Y-19.418 E.05512
G1 X11.914 Y-18.664 E.05512
G1 X13.134 Y-17.826 E.05511
G1 X14.301 Y-16.904 E.05541
G1 X15.393 Y-15.917 E.05483
G1 X16.422 Y-14.853 E.05511
G1 X17.382 Y-13.717 E.05541
G1 X18.255 Y-12.531 E.05483
G1 X19.051 Y-11.284 E.05512
G1 X19.763 Y-9.986 E.05512
G1 X20.385 Y-8.644 E.05512
G1 X20.917 Y-7.263 E.05512
G1 X21.356 Y-5.85 E.05512
G1 X21.699 Y-4.41 E.05512
G1 X21.945 Y-2.951 E.05512
G1 X22.093 Y-1.479 E.05512
G1 X22.142 Y0 E.05512
G1 X22.093 Y1.479 E.05512
G1 X21.945 Y2.951 E.05511
G1 X21.699 Y4.41 E.05512
G1 X21.356 Y5.85 E.05512
G1 X20.917 Y7.263 E.05512
G1 X20.4 Y8.607 E.05363
G1 X20.805 Y8.826 F30000
;TYPE:Outer wall
G1 F3000
G1 X20.171 Y10.193 E.05613
G1 X19.445 Y11.517 E.05625
G1 X18.632 Y12.79 E.05626
G1 X17.736 Y14.006 E.05625
G1 X16.761 Y15.16 E.05625
G1 X15.711 Y16.245 E.05625
G1 X14.591 Y17.258 E.05625
G1 X13.406 Y18.194 E.05625
G1 X12.161 Y19.049 E.05625
G1 X10.861 Y19.819 E.05626
G1 X9.513 Y20.5 E.05625
G1 X8.123 Y21.09 E.05625
G1 X6.696 Y21.585 E.05625
G1 X5.239 Y21.984 E.05625
G1 X3.751 Y22.286 E.05654
G1 X2.262 Y22.486 E.05597
G1 X.755 Y22.587 E.05626
G1 X-.755 Y22.587 E.05625
G1 X-2.262 Y22.486 E.05625
G1 X-3.759 Y22.285 E.05625
G1 X-5.239 Y21.984 E.05625
G1 X-6.696 Y21.585 E.05625
G1 X-8.123 Y21.09 E.05625
G1 X-9.513 Y20.5 E.05625
G1 X-10.861 Y19.819 E.05625
G1 X-12.161 Y19.049 E.05626
G1 X-13.406 Y18.194 E.05625
G1 X-14.597 Y17.253 E.05654
G1 X-15.711 Y16.245 E.05597
G1 X-16.761 Y15.16 E.05625
G1 X-17.741 Y14 E.05654
G1 X-18.632 Y12.79 E.05597
G1 X-19.445 Y11.517 E.05625
G1 X-20.171 Y10.193 E.05625
G1 X-20.806 Y8.823 E.05625
G1 X-21.349 Y7.413 E.05625
G1 X-21.797 Y5.971 E.05625
G1 X-22.147 Y4.502 E.05626
G1 X-22.398 Y3.012 E.05625
G1 X-22.549 Y1.509 E.05625
G1 X-22.6 Y0 E.05625
G1 X-22.549 Y-1.509 E.05625
G1 X-22.398 Y-3.012 E.05625
G1 X-22.147 Y-4.502 E.05625
G1 X-21.797 Y-5.971 E.05625
G1 X-21.349 Y-7.413 E.05625
G1 X-20.806 Y-8.823 E.05625
G1 X-20.171 Y-10.193 E.05626
G1 X-19.445 Y-11.517 E.05625
G1 X-18.632 Y-12.79 E.05626
G1 X-17.736 Y-14.006 E.05625
G1 X-16.761 Y-15.16 E.05625
G1 X-15.711 Y-16.245 E.05625
G1 X-14.591 Y-17.258 E.05625
G1 X-13.406 Y-18.194 E.05625
G1 X-12.161 Y-19.049 E.05625
G1 X-10.861 Y-19.819 E.05626
G1 X-9.513 Y-20.5 E.05625
G1 X-8.123 Y-21.09 E.05625
G1 X-6.696 Y-21.585 E.05625
G1 X-5.231 Y-21.986 E.05655
G1 X-3.759 Y-22.285 E.05597
G1 X-2.262 Y-22.486 E.05625
G1 X-.755 Y-22.587 E.05625
G1 X-.382 Y-22.587 E.01388
G1 X.763 Y-22.587 E.04266
G1 X2.262 Y-22.486 E.05597
G1 X3.759 Y-22.285 E.05625
G1 X5.239 Y-21.984 E.05625
G1 X6.696 Y-21.585 E.05625
G1 X8.123 Y-21.09 E.05625
G1 X9.513 Y-20.5 E.05625
G1 X10.861 Y-19.819 E.05625
G1 X12.161 Y-19.049 E.05626
G1 X13.406 Y-18.194 E.05625
G1 X14.597 Y-17.253 E.05654
G1 X15.711 Y-16.245 E.05597
G1 X16.761 Y-15.16 E.05625
G1 X17.741 Y-14 E.05654
G1 X18.632 Y-12.79 E.05597
G1 X19.445 Y-11.517 E.05625
G1 X20.171 Y-10.193 E.05625
G1 X20.806 Y-8.823 E.05625
G1 X21.349 Y-7.413 E.05625
G1 X21.797 Y-5.971 E.05625
G1 X22.147 Y-4.502 E.05626
G1 X22.398 Y-3.012 E.05625
G1 X22.549 Y-1.509 E.05625
G1 X22.6 Y0 E.05625
G1 X22.549 Y1.509 E.05625
G1 X22.398 Y3.012 E.05625
G1 X22.147 Y4.502 E.05625
G1 X21.797 Y5.971 E.05625
G1 X21.349 Y7.413 E.05625
G1 X20.82 Y8.789 E.05489
G1 E-.8 F2100
;WIPE_START
G1 F3000
G1 X20.171 Y10.193
G1 X19.953 Y10.59
;WIPE_END
G1 X19.175 Y2.997 Z.6 F30000
G1 X17.505 Y-13.319 Z.6
G1 Z.2
G1 E.8 F2100
;TYPE:Bottom surface
;WIDTH:0.501774
G1 F4800
G1 X15.142 Y-15.681 E.12491
G1 X14.08 Y-16.642 E.05356
G1 X12.931 Y-17.55 E.05476
G1 X11.954 Y-18.221 E.04431
G1 X18.211 Y-11.964 E.33086
G1 X18.756 Y-11.109 E.03791
M73 P1 R36
G1 X19.168 Y-10.357 E.03206
G1 X10.34 Y-19.186 E.46686
G1 X9.049 Y-19.828 E.05391
G1 X19.813 Y-9.064 E.56918
G1 X20.07 Y-8.51 E.02283
G1 X20.29 Y-7.938 E.02294
G1 X7.922 Y-20.306 E.65401
G1 X6.918 Y-20.661 E.03984
G1 X20.667 Y-6.912 E.72707
G1 X20.959 Y-5.971 E.03683
G1 X5.978 Y-20.952 E.79221
G1 X5.084 Y-21.197 E.03465
G1 X21.182 Y-5.099 E.85126
G1 X21.377 Y-4.255 E.03239
G1 X4.267 Y-21.366 E.90479
G1 X3.466 Y-21.517 E.03047
G1 X21.509 Y-3.474 E.95409
G1 X21.625 Y-2.71 E.02891
G1 X2.716 Y-21.618 E.99985
G1 X1.982 Y-21.703 E.02763
G1 X21.697 Y-1.988 E1.04251
G1 X21.757 Y-1.28 E.02658
G1 X1.287 Y-21.75 E1.08242
G1 X.601 Y-21.787 E.02568
G1 X21.779 Y-.609 E1.11988
G1 X21.797 Y.059 E.02496
G1 X-.048 Y-21.787 E1.15517
G1 X-.697 Y-21.787 E.02427
G1 X21.776 Y.687 E1.18839
G1 X21.755 Y1.315 E.02349
M73 P1 R35
G1 X-1.308 Y-21.748 E1.21954
G1 X-1.916 Y-21.708 E.02279
G1 X21.705 Y1.913 E1.24902
G1 X21.645 Y2.502 E.02216
G1 X-2.504 Y-21.647 E1.27697
G1 X-3.076 Y-21.57 E.02158
G1 X21.575 Y3.081 E1.30351
G1 X21.482 Y3.636 E.02105
G1 X-3.646 Y-21.492 E1.32873
G1 X-4.186 Y-21.382 E.02058
G1 X21.388 Y4.192 E1.3523
G1 X21.272 Y4.724 E.02038
G1 X-4.725 Y-21.272 E1.37466
G1 X-5.252 Y-21.151 E.02023
G1 X21.147 Y5.248 E1.39594
G1 X21.021 Y5.772 E.02012
G1 X-5.762 Y-21.011 E1.41624
G1 X-6.271 Y-20.872 E.01975
G1 X20.867 Y6.267 E1.43506
G1 X20.714 Y6.762 E.01939
G1 X-6.763 Y-20.715 E1.45295
G1 X-7.245 Y-20.548 E.01906
G1 X20.554 Y7.252 E1.46999
G1 X20.374 Y7.72 E.01877
G1 X-7.727 Y-20.38 E1.48592
G1 X-8.188 Y-20.193 E.01863
G1 X20.194 Y8.189 E1.50078
G1 X20.005 Y8.649 E.01861
G1 X-8.644 Y-20 E1.51492
G1 X-9.099 Y-19.807 E.01851
G1 X19.8 Y9.092 E1.52814
G1 X19.594 Y9.536 E.01827
G1 X-9.535 Y-19.593 E1.54027
G1 X-9.966 Y-19.375 E.01806
G1 X19.38 Y9.971 E1.55177
G1 X19.15 Y10.39 E.01787
G1 X-10.397 Y-19.157 E1.56242
G1 X-10.809 Y-18.92 E.01777
G1 X18.921 Y10.809 E1.57205
G1 X18.684 Y11.222 E.01778
G1 X-11.216 Y-18.679 E1.58111
G1 X-11.624 Y-18.437 E.01771
G1 X18.432 Y11.618 E1.58929
G1 X18.179 Y12.014 E.01757
G1 X-12.015 Y-18.179 E1.59658
G1 X-12.399 Y-17.915 E.01745
G1 X17.922 Y12.406 E1.60333
M73 P2 R35
G1 X17.646 Y12.78 E.01735
G1 X-12.784 Y-17.651 E1.60912
G1 X-13.155 Y-17.373 E.01733
G1 X17.371 Y13.153 E1.61419
G1 X17.095 Y13.526 E.01735
G1 X-13.518 Y-17.087 E1.61875
G1 X-13.88 Y-16.8 E.01727
G1 X16.798 Y13.878 E1.62221
G1 X16.5 Y14.229 E.01722
G1 X-14.233 Y-16.504 E1.62512
G1 X-14.573 Y-16.196 E.01718
G1 X16.203 Y14.581 E1.62742
G1 X15.887 Y14.913 E.01716
G1 X-14.914 Y-15.888 E1.6287
G1 X-15.155 Y-15.67 E.01213
G1 X-15.249 Y-15.573 E.00504
G1 X15.568 Y15.243 E1.62951
G1 X15.249 Y15.573 E.01716
G1 X-15.568 Y-15.243 E1.62951
G1 X-15.887 Y-14.913 E.01716
G1 X14.914 Y15.888 E1.6287
G1 X14.573 Y16.196 E.01718
G1 X-16.203 Y-14.581 E1.62742
G1 X-16.5 Y-14.229 E.01722
G1 X14.233 Y16.504 E1.62512
G1 X13.88 Y16.8 E.01722
G1 X-16.798 Y-13.878 E1.6222
G1 X-17.095 Y-13.526 E.01722
G1 X13.518 Y17.087 E1.61875
G1 X13.155 Y17.373 E.01727
G1 X-17.371 Y-13.153 E1.61419
G1 X-17.646 Y-12.78 E.01735
G1 X12.784 Y17.651 E1.60912
G1 X12.399 Y17.915 E.01745
G1 X-17.922 Y-12.406 E1.60333
G1 X-18.179 Y-12.014 E.01752
G1 X12.014 Y18.179 E1.59658
G1 X11.624 Y18.437 E.01751
G1 X-18.432 Y-11.618 E1.58929
G1 X-18.684 Y-11.222 E.01757
G1 X11.216 Y18.679 E1.58111
G1 X10.809 Y18.92 E.01771
G1 X-18.921 Y-10.809 E1.57205
G1 X-19.15 Y-10.39 E.01787
G1 X10.397 Y19.157 E1.56242
G1 X9.966 Y19.375 E.01806
G1 X-19.38 Y-9.971 E1.55177
G1 X-19.594 Y-9.536 E.01813
G1 X9.535 Y19.593 E1.54027
G1 X9.099 Y19.807 E.01813
G1 X-19.8 Y-9.092 E1.52814
G1 X-20.005 Y-8.649 E.01827
G1 X8.644 Y20 E1.51492
G1 X8.188 Y20.193 E.01851
G1 X-20.194 Y-8.189 E1.50078
G1 X-20.374 Y-7.72 E.01877
G1 X7.727 Y20.38 E1.48591
G1 X7.245 Y20.548 E.01906
G1 X-20.554 Y-7.252 E1.46999
G1 X-20.714 Y-6.762 E.01925
G1 X6.763 Y20.715 E1.45295
G1 X6.271 Y20.872 E.01931
G1 X-20.867 Y-6.267 E1.43506
M73 P3 R35
G1 X-21.021 Y-5.772 E.01939
G1 X5.762 Y21.012 E1.41625
G1 X5.253 Y21.151 E.01975
G1 X-21.147 Y-5.248 E1.39596
G1 X-21.272 Y-4.724 E.02014
G1 X4.725 Y21.272 E1.37465
G1 X4.185 Y21.382 E.02058
G1 X-21.388 Y-4.192 E1.35228
G1 X-21.482 Y-3.636 E.02105
G1 X3.646 Y21.491 E1.32871
G1 X3.076 Y21.57 E.02153
G1 X-21.575 Y-3.081 E1.30351
G1 X-21.645 Y-2.502 E.0218
G1 X2.504 Y21.647 E1.27697
G1 X1.916 Y21.708 E.0221
G1 X-21.705 Y-1.913 E1.24902
G1 X-21.755 Y-1.315 E.02245
G1 X1.308 Y21.748 E1.21954
G1 X.697 Y21.787 E.02286
G1 X-21.776 Y-.687 E1.18839
G1 X-21.797 Y-.059 E.02349
G1 X.049 Y21.787 E1.15518
G1 X-.6 Y21.787 E.02426
G1 X-21.779 Y.609 E1.1199
G1 X-21.757 Y1.28 E.02512
G1 X-1.287 Y21.75 E1.08242
G1 X-1.982 Y21.703 E.02606
G1 X-21.697 Y1.988 E1.0425
G1 X-21.625 Y2.71 E.02711
G1 X-2.716 Y21.618 E.99984
G1 X-3.466 Y21.517 E.02829
G1 X-21.509 Y3.474 E.95408
G1 X-21.377 Y4.255 E.0296
G1 X-4.267 Y21.366 E.90478
G1 X-5.084 Y21.197 E.03119
G1 X-21.182 Y5.099 E.85126
G1 X-20.959 Y5.971 E.03365
G1 X-5.978 Y20.952 E.79221
G1 X-6.459 Y20.821 E.01865
G1 X-6.918 Y20.661 E.01817
G1 X-20.667 Y6.912 E.72707
G1 X-20.593 Y7.151 E.00936
G1 X-20.29 Y7.938 E.03154
G1 X-7.922 Y20.306 E.65401
G1 X-9.049 Y19.828 E.04576
G1 X-19.813 Y9.064 E.56918
G1 X-19.456 Y9.832 E.03164
G1 X-19.168 Y10.357 E.02241
G1 X-10.34 Y19.186 E.46685
G1 X-11.73 Y18.375 E.06019
G1 X-11.954 Y18.221 E.01015
G1 X-18.211 Y11.964 E.33086
G1 X-17.972 Y12.337 E.01656
G1 X-17.113 Y13.504 E.05419
G1 X-16.167 Y14.623 E.05476
G1 X-15.189 Y15.634 E.05262
G1 X-13.314 Y17.509 E.09914
M106 S255
M106 P2 S255
;LAYER_CHANGE
;Z:0.4
;HEIGHT:0.2
;BEFORE_LAYER_CHANGE
;0.4
G1 E-.8 F2100
;WIPE_START
G1 F4800
G1 X-14.728 Y16.095
;WIPE_END
;AFTER_LAYER_CHANGE
;0.4
;_SET_FAN_SPEED_CHANGING_LAYER
SET_VELOCITY_LIMIT ACCEL=10000
M140 S50 ; set bed temperature
G17
G3 Z.8 I.248 J1.191 P1  F30000
G1 X20.62 Y8.744 Z.8
G1 Z.4
G1 E.8 F2100
SET_VELOCITY_LIMIT ACCEL=5000
;TYPE:Inner wall
;WIDTH:0.45
G1 F18000
G1 X19.99 Y10.101 E.04964
G1 X19.259 Y11.434 E.05043
G1 X18.465 Y12.676 E.04889
G1 X17.578 Y13.881 E.04965
G1 X16.611 Y15.024 E.04965
G1 X15.571 Y16.1 E.04965
G1 X14.46 Y17.104 E.04965
G1 X13.286 Y18.031 E.04964
G1 X12.032 Y18.891 E.05043
G1 X10.764 Y19.642 E.04889
G1 X9.428 Y20.317 E.04965
G1 X8.05 Y20.901 E.04965
G1 X6.636 Y21.392 E.04965
G1 X5.192 Y21.787 E.04965
G1 X3.726 Y22.086 E.04964
G1 X2.219 Y22.287 E.05043
G1 X.748 Y22.385 E.04889
G1 X-.748 Y22.385 E.04964
G1 X-2.265 Y22.282 E.05043
G1 X-3.725 Y22.086 E.04889
G1 X-5.192 Y21.788 E.04964
G1 X-6.658 Y21.384 E.05043
G1 X-8.05 Y20.901 E.04889
G1 X-9.428 Y20.317 E.04965
G1 X-10.764 Y19.642 E.04965
G1 X-12.052 Y18.879 E.04965
G1 X-13.286 Y18.032 E.04964
G1 X-14.478 Y17.088 E.05043
G1 X-15.571 Y16.1 E.04889
G1 X-16.611 Y15.024 E.04964
G1 X-17.591 Y13.862 E.05043
G1 X-18.465 Y12.676 E.04889
G1 X-19.271 Y11.414 E.04964
G1 X-20 Y10.081 E.05043
G1 X-20.62 Y8.744 E.04889
G1 X-21.158 Y7.347 E.04965
G1 X-21.602 Y5.917 E.04965
G1 X-21.949 Y4.461 E.04965
G1 X-22.198 Y2.985 E.04965
G1 X-22.348 Y1.496 E.04965
G1 X-22.398 Y0 E.04965
G1 X-22.348 Y-1.496 E.04965
G1 X-22.198 Y-2.985 E.04965
G1 X-21.949 Y-4.461 E.04965
G1 X-21.602 Y-5.917 E.04965
G1 X-21.158 Y-7.347 E.04965
G1 X-20.62 Y-8.744 E.04965
G1 X-19.99 Y-10.101 E.04964
G1 X-19.259 Y-11.434 E.05043
G1 X-18.465 Y-12.676 E.04889
G1 X-17.578 Y-13.881 E.04965
G1 X-16.611 Y-15.024 E.04965
G1 X-15.571 Y-16.1 E.04965
G1 X-14.46 Y-17.104 E.04965
G1 X-13.286 Y-18.032 E.04965
G1 X-12.052 Y-18.879 E.04965
G1 X-10.764 Y-19.641 E.04964
G1 X-9.407 Y-20.326 E.05043
G1 X-8.05 Y-20.901 E.04889
G1 X-6.636 Y-21.392 E.04964
G1 X-5.17 Y-21.792 E.05043
G1 X-3.725 Y-22.086 E.04889
G1 X-2.242 Y-22.285 E.04965
G1 X-.749 Y-22.385 E.04964
G1 X.771 Y-22.384 E.05043
G1 X2.242 Y-22.285 E.04889
G1 X3.725 Y-22.086 E.04965
G1 X5.192 Y-21.788 E.04964
G1 X6.658 Y-21.384 E.05043
G1 X8.05 Y-20.901 E.04889
G1 X9.428 Y-20.317 E.04965
G1 X10.764 Y-19.642 E.04965
G1 X12.052 Y-18.879 E.04965
G1 X13.286 Y-18.032 E.04964
G1 X14.478 Y-17.088 E.05043
G1 X15.571 Y-16.1 E.04889
G1 X16.611 Y-15.024 E.04964
G1 X17.591 Y-13.862 E.05043
G1 X18.465 Y-12.676 E.04889
G1 X19.271 Y-11.414 E.04964
G1 X20 Y-10.081 E.05043
G1 X20.62 Y-8.744 E.04889
G1 X21.158 Y-7.347 E.04965
G1 X21.602 Y-5.917 E.04965
G1 X21.949 Y-4.461 E.04965
G1 X22.198 Y-2.985 E.04965
G1 X22.348 Y-1.496 E.04965
G1 X22.398 Y0 E.04965
G1 X22.348 Y1.496 E.04965
G1 X22.198 Y2.985 E.04965
G1 X21.949 Y4.461 E.04965
G1 X21.602 Y5.917 E.04965
G1 X21.158 Y7.347 E.04965
G1 X20.635 Y8.706 E.04833
SET_VELOCITY_LIMIT ACCEL=10000
G1 X20.978 Y8.905 F30000
SET_VELOCITY_LIMIT ACCEL=5000
;TYPE:Outer wall
;WIDTH:0.42
G1 F12000
G1 X20.34 Y10.278 E.04652
G1 X19.596 Y11.634 E.04752
G1 X18.789 Y12.898 E.04608
G1 X17.885 Y14.124 E.0468
G1 X16.902 Y15.287 E.0468
G1 X15.843 Y16.382 E.0468
G1 X14.714 Y17.404 E.0468
G1 X13.519 Y18.347 E.0468
G1 X12.243 Y19.221 E.04752
G1 X10.952 Y19.986 E.04608
G1 X9.593 Y20.672 E.0468
G1 X8.191 Y21.267 E.0468
G1 X6.752 Y21.767 E.0468
G1 X5.283 Y22.169 E.0468
G1 X3.791 Y22.472 E.0468
G1 X2.258 Y22.677 E.04752
G1 X.762 Y22.777 E.04608
G1 X-.761 Y22.777 E.04679
G1 X-2.304 Y22.672 E.04752
G1 X-3.791 Y22.472 E.04608
G1 X-5.283 Y22.169 E.0468
G1 X-6.774 Y21.759 E.04752
G1 X-8.191 Y21.267 E.04608
G1 X-9.593 Y20.672 E.0468
G1 X-10.952 Y19.986 E.0468
G1 X-12.263 Y19.209 E.0468
