; HEADER_BLOCK_START
; generated by OrcaSlicer 2.3.0 on 2026-04-08 at 17:09:07
; total layer number: 100
;_GP_TOTAL_LAYER_NUMBER_PLACEHOLDER
; filament_density: 1.24
; filament_diameter: 1.75
; max_z_height: 20.00
; HEADER_BLOCK_END

; THUMBNAIL_BLOCK_START

;
; THUMBNAIL_BLOCK_END

; external perimeters extrusion width = 0.42mm
; perimeters extrusion width = 0.45mm
; infill extrusion width = 0.45mm
; solid infill extrusion width = 0.42mm
; top infill extrusion width = 0.42mm
; first layer extrusion width = 0.50mm

; EXECUTABLE_BLOCK_START
M73 P0 R18
M106 S0
M106 P2 S0
;TYPE:Custom
M190 S55
M104 S220
G90
M83
G1 Z5 F6000
G1 E-0.2 F800
G1 X110 Y-110 F6000
G1 E2 F800
G1 Y-110 X55 Z0.25 F4800
G1 X-55 E8 F2400
M73 P0 R17
G1 Y-109.6 F2400
G1 X55 E5 F2400
G1 Y-110 X55 Z0.45 F4800
G1 X-55 E8 F2400
G1 Y-109.6 F2400
M73 P1 R17
G1 X55 E5 F2400
G92 E0
G90
G21
M83 ; use relative distances for extrusion
; filament start gcode
;right_extruder_material: PLA
SET_PRESSURE_ADVANCE ADVANCE=0.025; Override pressure advance value
M106 S0
M106 P2 S0
;LAYER_CHANGE
;Z:0.2
;HEIGHT:0.2
;BEFORE_LAYER_CHANGE
;0.2
G1 E-.8 F2100
;AFTER_LAYER_CHANGE
;0.2
;_SET_FAN_SPEED_CHANGING_LAYER
SET_VELOCITY_LIMIT ACCEL=500
G1 X4.711 Y-3.653 F30000
G1 Z.6
G1 Z.2
G1 E.8 F2100
;TYPE:Inner wall
;WIDTH:0.5
G1 F3000
G1 X4.597 Y-3.08 E.02176
G1 X4.397 Y-2.491 E.02319
G1 X4.121 Y-1.933 E.02319
G1 X3.776 Y-1.415 E.02319
G1 X3.365 Y-.947 E.02319
G1 X2.897 Y-.537 E.02319
G1 X2.379 Y-.191 E.02319
G1 X1.821 Y.085 E.02319
G1 X1.232 Y.285 E.02319
G1 X.621 Y.406 E.02319
G1 X-.003 Y.447 E.02329
G1 X-.659 Y.399 E.02449
G1 X-1.232 Y.285 E.02176
G1 X-1.821 Y.085 E.02319
G1 X-2.379 Y-.191 E.02319
G1 X-2.897 Y-.537 E.02319
G1 X-3.365 Y-.947 E.02319
G1 X-3.776 Y-1.415 E.02319
G1 X-4.121 Y-1.933 E.02319
G1 X-4.397 Y-2.491 E.02319
G1 X-4.597 Y-3.08 E.02319
G1 X-4.718 Y-3.691 E.02319
G1 X-4.759 Y-4.315 E.02329
G1 X-4.711 Y-4.971 E.02449
G1 X-4.597 Y-5.544 E.02176
G1 X-4.397 Y-6.133 E.02319
G1 X-4.121 Y-6.692 E.02319
G1 X-3.776 Y-7.209 E.02319
G1 X-3.365 Y-7.677 E.02319
G1 X-2.897 Y-8.088 E.02319
G1 X-2.379 Y-8.433 E.02319
G1 X-1.821 Y-8.709 E.02319
G1 X-1.232 Y-8.909 E.02318
G1 X-.621 Y-9.03 E.02319
G1 X-.038 Y-9.069 E.02176
G1 X.618 Y-9.031 E.02449
G1 X1.232 Y-8.909 E.02329
G1 X1.821 Y-8.709 E.02319
G1 X2.379 Y-8.433 E.02319
G1 X2.897 Y-8.088 E.02319
G1 X3.365 Y-7.677 E.02319
G1 X3.776 Y-7.209 E.02319
G1 X4.121 Y-6.692 E.02319
G1 X4.397 Y-6.133 E.02319
G1 X4.597 Y-5.544 E.02318
G1 X4.718 Y-4.933 E.02319
G1 X4.759 Y-4.312 E.02319
G1 X4.718 Y-3.693 E.02312
G1 X4.262 Y-3.743 F30000
;TYPE:Outer wall
G1 F3000
G1 X4.154 Y-3.199 E.02064
G1 X3.973 Y-2.666 E.02095
G1 X3.725 Y-2.162 E.02095
G1 X3.412 Y-1.694 E.02095
G1 X3.041 Y-1.271 E.02095
G1 X2.618 Y-.9 E.02095
G1 X2.15 Y-.587 E.02095
G1 X1.646 Y-.339 E.02095
G1 X1.113 Y-.158 E.02095
G1 X.561 Y-.048 E.02095
G1 X-.001 Y-.011 E.02099
G1 X-.597 Y-.055 E.02226
G1 X-1.113 Y-.158 E.0196
G1 X-1.646 Y-.339 E.02095
G1 X-2.15 Y-.587 E.02095
G1 X-2.618 Y-.9 E.02095
G1 X-3.041 Y-1.271 E.02095
G1 X-3.412 Y-1.694 E.02095
G1 X-3.725 Y-2.162 E.02095
G1 X-3.973 Y-2.666 E.02095
G1 X-4.154 Y-3.199 E.02095
G1 X-4.264 Y-3.751 E.02095
G1 X-4.301 Y-4.313 E.02099
G1 X-4.257 Y-4.909 E.02226
G1 X-4.154 Y-5.425 E.0196
G1 X-3.973 Y-5.958 E.02095
G1 X-3.725 Y-6.463 E.02095
G1 X-3.412 Y-6.93 E.02095
G1 X-3.041 Y-7.353 E.02095
G1 X-2.618 Y-7.724 E.02095
G1 X-2.15 Y-8.037 E.02095
G1 X-1.646 Y-8.286 E.02095
G1 X-1.113 Y-8.466 E.02095
G1 X-.561 Y-8.576 E.02095
G1 X-.036 Y-8.611 E.0196
G1 X.56 Y-8.576 E.02226
G1 X1.113 Y-8.466 E.02099
G1 X1.646 Y-8.286 E.02095
G1 X2.15 Y-8.037 E.02095
G1 X2.618 Y-7.724 E.02095
G1 X3.041 Y-7.353 E.02095
G1 X3.412 Y-6.93 E.02095
G1 X3.725 Y-6.463 E.02095
G1 X3.973 Y-5.958 E.02095
G1 X4.154 Y-5.425 E.02095
G1 X4.264 Y-4.874 E.02095
G1 X4.301 Y-4.312 E.02095
G1 X4.266 Y-3.782 E.01977
G1 E-.8 F2100
;WIPE_START
G1 F3000
G1 X4.154 Y-3.199
G1 X3.973 Y-2.666
G1 X3.725 Y-2.162
G1 X3.569 Y-1.928
;WIPE_END
G1 X.722 Y-9.01 Z.6 F30000
G1 X.172 Y-10.38 Z.6
G1 Z.2
G1 E.8 F2100
;TYPE:Inner wall
G1 F3000
G1 X.036 Y-10.368 E.00507
G1 X-.44 Y-10.407 E.01778
G1 X-.928 Y-10.548 E.01892
G1 X-1.413 Y-10.816 E.02064
G1 X-1.735 Y-11.09 E.01572
G1 X-1.962 Y-11.353 E.01298
G1 X-2.273 Y-11.869 E.02241
G1 X-2.408 Y-12.248 E.01499
G1 X-2.47 Y-12.529 E.01071
G1 X-2.5 Y-12.882 E.01322
G1 X-2.457 Y-13.359 E.01784
G1 X-2.308 Y-13.872 E.0199
G1 X-2.141 Y-14.201 E.01373
G1 X-1.942 Y-14.489 E.01304
G1 X-1.767 Y-14.682 E.00971
G1 X-1.431 Y-14.974 E.01657
G1 X-1.115 Y-15.167 E.01379
G1 X-.784 Y-15.311 E.01346
G1 X-.434 Y-15.409 E.01354
G1 X-.117 Y-15.451 E.0119
G1 X.307 Y-15.439 E.01582
G1 X.652 Y-15.374 E.01306
G1 X.909 Y-15.292 E.01005
G1 X1.317 Y-15.104 E.01673
G1 X1.636 Y-14.868 E.01478
G1 X1.922 Y-14.578 E.01515
G1 X2.111 Y-14.331 E.0116
G1 X2.293 Y-14.011 E.01372
G1 X2.447 Y-13.587 E.01679
G1 X2.505 Y-13.341 E.00942
G1 X2.542 Y-12.978 E.0136
G1 X2.5 Y-12.455 E.01955
G1 X2.367 Y-11.981 E.01832
G1 X2.212 Y-11.66 E.01328
G1 X2.06 Y-11.429 E.01032
G1 X1.8 Y-11.123 E.01496
G1 X1.527 Y-10.89 E.01335
G1 X1.016 Y-10.587 E.02216
G1 X.638 Y-10.454 E.0149
G1 X.373 Y-10.397 E.0101
G1 X.211 Y-10.383 E.00605
G1 X.132 Y-10.835 F30000
;TYPE:Outer wall
G1 F3000
G1 X.035 Y-10.827 E.00363
G1 X-.357 Y-10.859 E.01463
G1 X-.751 Y-10.973 E.01531
G1 X-1.152 Y-11.194 E.01704
G1 X-1.412 Y-11.415 E.0127
G1 X-1.591 Y-11.623 E.01021
G1 X-1.858 Y-12.065 E.01924
G1 X-1.967 Y-12.374 E.01222
G1 X-2.017 Y-12.598 E.00853
G1 X-2.041 Y-12.881 E.01059
G1 X-2.006 Y-13.274 E.01471
G1 X-1.881 Y-13.704 E.01666
G1 X-1.748 Y-13.967 E.01097
G1 X-1.583 Y-14.204 E.01075
G1 X-1.446 Y-14.355 E.00761
G1 X-1.16 Y-14.604 E.01414
G1 X-.904 Y-14.761 E.01117
G1 X-.631 Y-14.88 E.0111
G1 X-.342 Y-14.96 E.01117
G1 X-.094 Y-14.993 E.00934
G1 X.258 Y-14.983 E.01311
G1 X.54 Y-14.93 E.01069
G1 X.744 Y-14.865 E.00795
G1 X1.083 Y-14.709 E.01391
G1 X1.336 Y-14.522 E.0117
G1 X1.576 Y-14.278 E.01276
G1 X1.729 Y-14.078 E.00938
G1 X1.877 Y-13.819 E.01112
G1 X2.008 Y-13.456 E.01435
G1 X2.053 Y-13.265 E.00733
G1 X2.083 Y-12.973 E.01093
G1 X2.048 Y-12.536 E.01634
G1 X1.938 Y-12.144 E.01516
G1 X1.814 Y-11.887 E.01064
G1 X1.693 Y-11.704 E.00816
G1 X1.475 Y-11.447 E.01255
G1 X1.26 Y-11.264 E.01052
G1 X.821 Y-11.003 E.01903
G1 X.514 Y-10.895 E.01212
G1 X.305 Y-10.85 E.00795
G1 X.172 Y-10.839 E.005
G1 E-.8 F2100
;WIPE_START
G1 F3000
G1 X.035 Y-10.827
G1 X-.357 Y-10.859
G1 X-.751 Y-10.973
G1 X-1.152 Y-11.194
G1 X-1.412 Y-11.415
G1 X-1.582 Y-11.612
;WIPE_END
G1 X-1.867 Y-3.985 Z.6 F30000
G1 X-2.21 Y5.235 Z.6
G1 Z.2
G1 E.8 F2100
;TYPE:Inner wall
G1 F3000
G1 X-2.273 Y5.131 E.00453
G1 X-2.408 Y4.752 E.01499
G1 X-2.47 Y4.471 E.01071
G1 X-2.5 Y4.118 E.01322
G1 X-2.457 Y3.641 E.01784
G1 X-2.308 Y3.128 E.0199
G1 X-2.141 Y2.799 E.01373
G1 X-1.942 Y2.511 E.01304
G1 X-1.767 Y2.318 E.00971
G1 X-1.431 Y2.026 E.01657
G1 X-1.115 Y1.833 E.01379
G1 X-.784 Y1.689 E.01346
G1 X-.434 Y1.591 E.01354
G1 X-.117 Y1.549 E.0119
G1 X.307 Y1.561 E.01582
G1 X.652 Y1.626 E.01306
G1 X.909 Y1.708 E.01005
G1 X1.317 Y1.896 E.01673
G1 X1.636 Y2.132 E.01478
G1 X1.922 Y2.422 E.01515
G1 X2.111 Y2.669 E.0116
G1 X2.293 Y2.989 E.01372
G1 X2.447 Y3.413 E.01679
G1 X2.505 Y3.659 E.00942
G1 X2.542 Y4.022 E.0136
G1 X2.5 Y4.545 E.01955
G1 X2.367 Y5.019 E.01832
G1 X2.212 Y5.34 E.01328
G1 X2.06 Y5.571 E.01032
G1 X1.8 Y5.877 E.01496
G1 X1.527 Y6.11 E.01335
G1 X1.016 Y6.413 E.02215
G1 X.638 Y6.546 E.0149
G1 X.373 Y6.603 E.0101
G1 X.036 Y6.632 E.0126
G1 X-.44 Y6.593 E.01778
G1 X-.928 Y6.452 E.01892
G1 X-1.413 Y6.184 E.02064
G1 X-1.735 Y5.91 E.01573
G1 X-1.962 Y5.647 E.01298
G1 X-2.19 Y5.27 E.01639
G1 X-1.819 Y4.999 F30000
;TYPE:Outer wall
G1 F3000
G1 X-1.858 Y4.935 E.0028
G1 X-1.967 Y4.626 E.01222
G1 X-2.017 Y4.402 E.00853
G1 X-2.041 Y4.119 E.01059
G1 X-2.006 Y3.726 E.01471
G1 X-1.881 Y3.296 E.01666
G1 X-1.748 Y3.033 E.01097
G1 X-1.583 Y2.796 E.01075
G1 X-1.446 Y2.645 E.00761
G1 X-1.16 Y2.396 E.01414
G1 X-.904 Y2.239 E.01117
G1 X-.631 Y2.12 E.0111
G1 X-.342 Y2.04 E.01117
G1 X-.094 Y2.007 E.00934
G1 X.258 Y2.017 E.01311
G1 X.54 Y2.07 E.01069
G1 X.744 Y2.135 E.00795
G1 X1.083 Y2.291 E.01391
G1 X1.336 Y2.478 E.0117
G1 X1.576 Y2.722 E.01276
G1 X1.729 Y2.922 E.00938
G1 X1.877 Y3.181 E.01112
G1 X2.008 Y3.544 E.01435
G1 X2.053 Y3.735 E.00733
G1 X2.083 Y4.027 E.01093
G1 X2.048 Y4.464 E.01634
G1 X1.938 Y4.856 E.01516
G1 X1.814 Y5.113 E.01064
G1 X1.693 Y5.296 E.00816
G1 X1.475 Y5.553 E.01255
G1 X1.26 Y5.736 E.01052
G1 X.821 Y5.997 E.01903
G1 X.514 Y6.105 E.01212
G1 X.305 Y6.15 E.00795
G1 X.035 Y6.173 E.01012
G1 X-.357 Y6.141 E.01463
G1 X-.751 Y6.027 E.01531
G1 X-1.152 Y5.806 E.01704
G1 X-1.412 Y5.585 E.0127
G1 X-1.591 Y5.377 E.01021
G1 X-1.798 Y5.034 E.01495
G1 E-.8 F2100
;WIPE_START
G1 F3000
G1 X-1.858 Y4.935
G1 X-1.967 Y4.626
G1 X-2.017 Y4.402
G1 X-2.041 Y4.119
G1 X-2.006 Y3.726
G1 X-1.881 Y3.296
G1 X-1.79 Y3.116
;WIPE_END
G1 X5.424 Y5.609 Z.6 F30000
G1 X17.643 Y9.831 Z.6
G1 Z.2
G1 E.8 F2100
;TYPE:Inner wall
G1 F3000
G1 X-17.643 Y9.831 E1.31426
G1 X-17.643 Y-23.455 E1.23977
G1 X17.643 Y-23.455 E1.31426
G1 X17.643 Y9.791 E1.23828
M73 P2 R17
G1 X18.1 Y10.288 F30000
;TYPE:Outer wall
G1 F3000
G1 X-18.1 Y10.288 E1.34831
G1 X-18.1 Y-23.912 E1.27382
G1 X18.1 Y-23.912 E1.34831
G1 X18.1 Y10.248 E1.27233
G1 E-.8 F2100
;WIPE_START
G1 F3000
G1 X16.1 Y10.25
;WIPE_END
G1 X16.209 Y2.618 Z.6 F30000
G1 X16.578 Y-23.318 Z.6
G1 Z.2
G1 E.8 F2100
;TYPE:Bottom surface
;WIDTH:0.501627
G1 F4800
G1 X17.3 Y-22.596 E.03815
G1 X17.3 Y-21.947 E.02425
G1 X16.135 Y-23.112 E.06157
G1 X15.487 Y-23.112 E.02425
G1 X17.3 Y-21.299 E.09586
G1 X17.3 Y-20.65 E.02425
G1 X14.838 Y-23.112 E.13015
G1 X14.189 Y-23.112 E.02425
G1 X17.3 Y-20.001 E.16445
G1 X17.3 Y-19.353 E.02425
G1 X13.541 Y-23.112 E.19874
G1 X12.892 Y-23.112 E.02425
G1 X17.3 Y-18.704 E.23303
G1 X17.3 Y-18.055 E.02425
G1 X12.243 Y-23.112 E.26732
G1 X11.594 Y-23.112 E.02425
G1 X17.3 Y-17.407 E.30161
G1 X17.3 Y-16.758 E.02425
G1 X10.946 Y-23.112 E.33591
G1 X10.297 Y-23.112 E.02425
G1 X17.3 Y-16.109 E.3702
G1 X17.3 Y-15.46 E.02425
G1 X9.648 Y-23.112 E.40449
G1 X9 Y-23.112 E.02425
G1 X17.3 Y-14.812 E.43878
G1 X17.3 Y-14.163 E.02425
G1 X8.351 Y-23.112 E.47307
G1 X7.702 Y-23.112 E.02425
G1 X17.3 Y-13.514 E.50737
G1 X17.3 Y-12.866 E.02425
G1 X7.053 Y-23.112 E.54166
G1 X6.405 Y-23.112 E.02425
G1 X17.3 Y-12.217 E.57595
G1 X17.3 Y-11.568 E.02425
G1 X5.756 Y-23.112 E.61024
G1 X5.107 Y-23.112 E.02425
G1 X17.3 Y-10.919 E.64453
G1 X17.3 Y-10.271 E.02425
G1 X4.459 Y-23.112 E.67882
G1 X3.81 Y-23.112 E.02425
M73 P3 R17
G1 X17.3 Y-9.622 E.71312
G1 X17.3 Y-8.973 E.02425
G1 X3.161 Y-23.112 E.74741
G1 X2.512 Y-23.112 E.02425
G1 X17.3 Y-8.325 E.7817
G1 X17.3 Y-7.676 E.02425
G1 X1.864 Y-23.112 E.81599
G1 X1.215 Y-23.112 E.02425
G1 X17.3 Y-7.027 E.85028
G1 X17.3 Y-6.378 E.02425
G1 X.566 Y-23.112 E.88458
G1 X-.082 Y-23.112 E.02425
G1 X17.3 Y-5.73 E.91887
G1 X17.3 Y-5.081 E.02425
G1 X-.731 Y-23.112 E.95316
G1 X-1.38 Y-23.112 E.02425
G1 X17.3 Y-4.432 E.98745
G1 X17.3 Y-3.784 E.02425
G1 X-2.029 Y-23.112 E1.02174
G1 X-2.677 Y-23.112 E.02425
G1 X17.3 Y-3.135 E1.05603
G1 X17.3 Y-2.486 E.02425
G1 X-3.326 Y-23.112 E1.09033
G1 X-3.975 Y-23.112 E.02425
G1 X17.3 Y-1.837 E1.12462
G1 X17.3 Y-1.189 E.02425
G1 X-4.623 Y-23.112 E1.15891
G1 X-5.272 Y-23.112 E.02425
G1 X17.3 Y-.54 E1.1932
G1 X17.3 Y.109 E.02425
G1 X-5.921 Y-23.112 E1.22749
G1 X-6.569 Y-23.112 E.02425
G1 X.882 Y-15.661 E.39391
G1 X1.033 Y-15.613 E.00592
G1 X1.493 Y-15.401 E.01891
G1 X1.862 Y-15.128 E.01716
G1 X2.181 Y-14.804 E.01701
G1 X2.397 Y-14.521 E.01331
G1 X2.606 Y-14.155 E.01573
G1 X2.73 Y-13.813 E.0136
G1 X17.3 Y.757 E.77023
G1 X17.3 Y1.406 E.02425
G1 X2.884 Y-13.01 E.76207
G1 X2.84 Y-12.405 E.02267
G1 X17.3 Y2.055 E.76438
G1 X17.3 Y2.703 E.02425
G1 X2.7 Y-11.897 E.7718
G1 X2.49 Y-11.458 E.01818
G1 X17.3 Y3.352 E.78291
G1 X17.3 Y4.001 E.02425
G1 X2.216 Y-11.083 E.79738
G1 X2.043 Y-10.88 E.00997
M73 P4 R17
G1 X1.896 Y-10.754 E.00723
G1 X17.3 Y4.65 E.81428
G1 X17.3 Y5.298 E.02425
G1 X1.516 Y-10.485 E.83435
G1 X1.1 Y-10.253 E.01782
G1 X17.3 Y5.947 E.85637
G1 X17.3 Y6.596 E.02425
G1 X4.855 Y-5.849 E.65786
G1 X4.929 Y-5.633 E.00855
G1 X5.054 Y-5.002 E.02406
G1 X17.3 Y7.244 E.64734
G1 X17.3 Y7.893 E.02425
G1 X5.102 Y-4.305 E.64481
G1 X5.062 Y-3.696 E.02281
G1 X17.3 Y8.542 E.64692
G1 X17.3 Y9.191 E.02425
G1 X4.96 Y-3.15 E.65232
G1 X4.929 Y-2.992 E.00602
G1 X4.812 Y-2.649 E.01354
G1 X16.949 Y9.488 E.64156
G1 X16.3 Y9.488 E.02425
G1 X4.628 Y-2.184 E.61702
G1 X4.412 Y-1.751 E.01809
G1 X15.651 Y9.488 E.59412
G1 X15.003 Y9.488 E.02425
G1 X4.152 Y-1.362 E.57356
G1 X4.048 Y-1.206 E.00703
G1 X3.867 Y-.999 E.01028
G1 X14.354 Y9.488 E.55437
G1 X13.705 Y9.488 E.02425
G1 X3.557 Y-.66 E.53643
G1 X3.212 Y-.357 E.01718
G1 X13.057 Y9.488 E.52041
G1 X12.408 Y9.488 E.02425
G1 X2.836 Y-.084 E.50597
G1 X2.551 Y.107 E.01281
G1 X2.435 Y.164 E.00484
G1 X11.759 Y9.488 E.49288
G1 X11.11 Y9.488 E.02425
G1 X2.001 Y.378 E.48156
G1 X1.522 Y.548 E.01899
G1 X10.462 Y9.488 E.47257
G1 X9.813 Y9.488 E.02425
G1 X1.004 Y.679 E.46564
G1 X.666 Y.747 E.0129
G1 X.438 Y.762 E.00854
G1 X1.09 Y1.413 E.03446
G1 X1.493 Y1.599 E.01658
G1 X1.862 Y1.872 E.01716
G1 X2.181 Y2.196 E.01701
G1 X2.397 Y2.479 E.01331
G1 X2.606 Y2.845 E.01573
G1 X2.654 Y2.977 E.00527
G1 X9.164 Y9.488 E.34416
G1 X8.516 Y9.488 E.02425
G1 X2.868 Y3.841 E.29852
G1 X2.887 Y4.018 E.00667
G1 X2.85 Y4.471 E.01698
G1 X7.867 Y9.488 E.2652
G1 X7.218 Y9.488 E.02425
G1 X2.729 Y4.999 E.23731
G1 X2.689 Y5.141 E.00551
G1 X2.537 Y5.455 E.01307
G1 X6.569 Y9.488 E.21317
G1 X5.921 Y9.488 E.02425
G1 X2.277 Y5.844 E.1926
G1 X2.043 Y6.12 E.01351
G1 X1.968 Y6.184 E.00369
G1 X5.272 Y9.488 E.17465
G1 X4.623 Y9.488 E.02425
G1 X1.6 Y6.465 E.15981
G1 X1.193 Y6.706 E.0177
G1 X3.975 Y9.488 E.14704
G1 X3.326 Y9.488 E.02425
G1 X.718 Y6.88 E.13787
G1 X.424 Y6.942 E.01123
G1 X.155 Y6.966 E.01009
G1 X2.677 Y9.488 E.13332
G1 X2.028 Y9.488 E.02425
G1 X-.84 Y6.62 E.15161
G1 E-.8 F2100
;WIPE_START
G1 F4800
G1 X.575 Y8.034
;WIPE_END
G1 X-.419 Y.554 Z.6 F30000
G1 Z.2
M73 P5 R17
G1 E.8 F2100
G1 F4800
G1 X.244 Y1.217 E.03504
G1 X-.135 Y1.205 E.01417
G1 X-.383 Y1.238 E.00935
G1 X-1.188 Y.433 E.04257
G1 E-.8 F2100
;WIPE_START
G1 F4800
G1 X-.383 Y1.238
G1 X-.135 Y1.205
G1 X.244 Y1.217
G1 X.08 Y1.053
;WIPE_END
G1 X1.436 Y-6.458 Z.6 F30000
G1 X1.866 Y-8.838 Z.6
G1 Z.2
G1 E.8 F2100
G1 F4800
G1 X.608 Y-10.097 E.06652
G1 X.424 Y-10.058 E.00702
G1 X.031 Y-10.024 E.01472
G1 X.951 Y-9.105 E.04862
G1 E-.8 F2100
;WIPE_START
G1 F4800
G1 X.031 Y-10.024
G1 X.424 Y-10.058
G1 X.608 Y-10.097
G1 X.691 Y-10.014
;WIPE_END
G1 X.319 Y-15.575 Z.6 F30000
G1 Z.2
G1 E.8 F2100
G1 F4800
G1 X-7.218 Y-23.112 E.39841
G1 X-7.867 Y-23.112 E.02425
G1 X-.501 Y-15.746 E.3894
G1 X-.996 Y-15.593 E.01939
G1 X-8.516 Y-23.112 E.39748
G1 X-9.164 Y-23.112 E.02425
G1 X-1.429 Y-15.377 E.40888
G1 X-1.635 Y-15.252 E.009
G1 X-1.805 Y-15.104 E.00842
G1 X-9.813 Y-23.112 E.42334
G1 X-10.462 Y-23.112 E.02425
G1 X-2.135 Y-14.786 E.44015
G1 X-2.412 Y-14.413 E.01733
G1 X-11.11 Y-23.112 E.45984
G1 X-11.759 Y-23.112 E.02425
G1 X-2.632 Y-13.985 E.48247
G1 X-2.778 Y-13.483 E.01957
G1 X-12.408 Y-23.112 E.50904
G1 X-13.057 Y-23.112 E.02425
G1 X-2.62 Y-12.676 E.5517
G1 E-.8 F2100
;WIPE_START
G1 F4800
G1 X-4.034 Y-14.09
;WIPE_END
G1 X.216 Y-9.191 Z.6 F30000
G1 Z.2
G1 E.8 F2100
G1 F4800
G1 X-.726 Y-10.133 E.04978
G1 X-1.06 Y-10.23 E.01299
G1 X-1.609 Y-10.533 E.02342
G1 X-1.977 Y-10.845 E.01805
G1 X-2.241 Y-11.151 E.01511
G1 X-2.585 Y-11.721 E.02488
G1 X-2.733 Y-12.14 E.0166
G1 X-13.705 Y-23.112 E.58001
G1 X-14.354 Y-23.112 E.02425
G1 X-.616 Y-9.374 E.72621
G1 X-1.163 Y-9.272 E.02079
G1 X-15.003 Y-23.112 E.73161
G1 X-15.651 Y-23.112 E.02425
G1 X-1.664 Y-9.124 E.73942
G1 X-1.953 Y-9.026 E.01141
G1 X-2.128 Y-8.94 E.0073
G1 X-16.3 Y-23.112 E.74918
G1 X-16.949 Y-23.112 E.02425
G1 X-2.561 Y-8.724 E.76056
G1 X-2.95 Y-8.465 E.01748
G1 X-17.3 Y-22.815 E.75857
G1 X-17.3 Y-22.166 E.02425
M73 P5 R16
G1 X-3.313 Y-8.179 E.73939
G1 X-3.652 Y-7.87 E.01716
G1 X-17.3 Y-21.517 E.72145
G1 X-17.3 Y-20.869 E.02425
G1 X-3.955 Y-7.524 E.70542
G1 X-4.048 Y-7.418 E.00525
G1 X-4.228 Y-7.148 E.01214
G1 X-17.3 Y-20.22 E.69099
