; HEADER_BLOCK_START
; generated by OrcaSlicer 2.3.0 on 2026-05-07 at 18:17:02
; total layer number: 20
;_GP_TOTAL_LAYER_NUMBER_PLACEHOLDER
; filament_density: 1.24
; filament_diameter: 1.75
; max_z_height: 4.00
; HEADER_BLOCK_END

; THUMBNAIL_BLOCK_START

;
; THUMBNAIL_BLOCK_END

; external perimeters extrusion width = 0.42mm
; perimeters extrusion width = 0.45mm
; infill extrusion width = 0.45mm
; solid infill extrusion width = 0.42mm
; top infill extrusion width = 0.42mm
; first layer extrusion width = 0.50mm

; EXECUTABLE_BLOCK_START
M73 P0 R12
M106 S0
M106 P2 S0
;TYPE:Custom
M190 S55
M104 S220
G90
M83
G1 Z5 F6000
G1 E-0.2 F800
G1 X110 Y-110 F6000
G1 E2 F800
G1 Y-110 X55 Z0.25 F4800
G1 X-55 E8 F2400
G1 Y-109.6 F2400
G1 X55 E5 F2400
G1 Y-110 X55 Z0.45 F4800
M73 P1 R12
G1 X-55 E8 F2400
G1 Y-109.6 F2400
G1 X55 E5 F2400
G92 E0
G90
G21
M83 ; use relative distances for extrusion
; filament start gcode
;right_extruder_material: PLA
SET_PRESSURE_ADVANCE ADVANCE=0.025; Override pressure advance value
M106 S0
M106 P2 S0
;LAYER_CHANGE
;Z:0.2
;HEIGHT:0.2
;BEFORE_LAYER_CHANGE
;0.2
G1 E-.8 F2100
;AFTER_LAYER_CHANGE
;0.2
;_SET_FAN_SPEED_CHANGING_LAYER
SET_VELOCITY_LIMIT ACCEL=500
G1 X-.371 Y2.477 F30000
G1 Z.6
G1 Z.2
G1 E.8 F2100
;TYPE:Inner wall
;WIDTH:0.5
G1 F3000
G1 X-.444 Y2.473 E.00275
G1 X-1.004 Y2.303 E.02179
G1 X-1.508 Y2.01 E.02173
G1 X-1.931 Y1.608 E.02173
G1 X-2.249 Y1.12 E.02167
G1 X-2.443 Y.587 E.02113
G1 X-2.513 Y.008 E.02173
G1 X-2.443 Y-.587 E.02233
G1 X-2.241 Y-1.136 E.02179
G1 X-1.919 Y-1.621 E.02167
G1 X-1.507 Y-2.01 E.02113
G1 X-1.003 Y-2.304 E.02173
G1 X-.428 Y-2.476 E.02233
G1 X.154 Y-2.508 E.02173
G1 X.713 Y-2.409 E.02113
G1 X1.248 Y-2.181 E.02167
G1 X1.718 Y-1.833 E.02179
G1 X2.104 Y-1.374 E.02233
G1 X2.364 Y-.85 E.02179
G1 X2.497 Y-.282 E.02173
G1 X2.494 Y.301 E.02173
M73 P2 R12
G1 X2.358 Y.867 E.02167
G1 X2.103 Y1.374 E.02113
G1 X1.73 Y1.822 E.02173
G1 X1.249 Y2.18 E.02233
G1 X.713 Y2.409 E.02173
G1 X.152 Y2.508 E.02119
G1 X-.331 Y2.48 E.01802
G1 X-.344 Y2.021 F30000
;TYPE:Outer wall
G1 F3000
G1 X-.363 Y2.02 E.00073
G1 X-.82 Y1.881 E.01778
G1 X-1.232 Y1.641 E.01775
G1 X-1.577 Y1.313 E.01775
G1 X-1.837 Y.915 E.01772
G1 X-1.995 Y.48 E.01722
G1 X-2.052 Y.007 E.01775
G1 X-1.995 Y-.48 E.01828
G1 X-1.83 Y-.928 E.01778
G1 X-1.568 Y-1.325 E.01772
G1 X-1.231 Y-1.642 E.01722
G1 X-.82 Y-1.882 E.01775
G1 X-.349 Y-2.023 E.01828
G1 X.126 Y-2.048 E.01775
G1 X.582 Y-1.968 E.01722
G1 X1.019 Y-1.781 E.01772
G1 X1.403 Y-1.498 E.01778
G1 X1.719 Y-1.122 E.01828
G1 X1.931 Y-.694 E.01778
G1 X2.039 Y-.23 E.01775
G1 X2.038 Y.246 E.01775
G1 X1.926 Y.709 E.01772
G1 X1.719 Y1.122 E.01722
G1 X1.414 Y1.488 E.01775
G1 X1.02 Y1.781 E.01828
G1 X.582 Y1.968 E.01775
G1 X.126 Y2.049 E.01725
G1 X-.304 Y2.023 E.01603
G1 E-.8 F2100
;WIPE_START
G1 F3000
G1 X-.363 Y2.02
G1 X-.82 Y1.881
G1 X-1.232 Y1.641
G1 X-1.577 Y1.313
G1 X-1.837 Y.915
G1 X-1.849 Y.882
;WIPE_END
G1 X-4.411 Y-6.307 Z.6 F30000
G1 X-4.587 Y-6.802 Z.6
G1 Z.2
G1 E.8 F2100
;TYPE:Inner wall
G1 F3000
G1 X-4.209 Y-6.802 E.01406
G1 X-3.664 Y-6.667 E.02091
G1 X-3.167 Y-6.406 E.02091
G1 X-2.747 Y-6.034 E.02091
G1 X-2.428 Y-5.572 E.02091
G1 X-2.229 Y-5.047 E.02091
G1 X-2.162 Y-4.49 E.02091
G1 X-2.229 Y-3.933 E.02091
G1 X-2.428 Y-3.408 E.02091
G1 X-2.747 Y-2.946 E.02091
G1 X-3.167 Y-2.574 E.02091
G1 X-3.664 Y-2.313 E.02091
G1 X-4.209 Y-2.179 E.02091
G1 X-4.771 Y-2.179 E.02091
G1 X-5.316 Y-2.313 E.02091
G1 X-5.813 Y-2.574 E.02091
G1 X-6.233 Y-2.946 E.02091
G1 X-6.552 Y-3.408 E.02091
G1 X-6.751 Y-3.933 E.02091
G1 X-6.819 Y-4.49 E.02091
G1 X-6.751 Y-5.047 E.02091
G1 X-6.552 Y-5.572 E.02091
G1 X-6.233 Y-6.034 E.02091
G1 X-5.813 Y-6.406 E.02091
G1 X-5.316 Y-6.667 E.02091
G1 X-4.771 Y-6.802 E.02091
G1 X-4.627 Y-6.802 E.00535
G1 X-4.587 Y-6.344 F30000
;TYPE:Outer wall
G1 F3000
G1 X-4.265 Y-6.344 E.012
G1 X-3.828 Y-6.237 E.01677
G1 X-3.429 Y-6.027 E.01677
G1 X-3.092 Y-5.729 E.01677
G1 X-2.836 Y-5.358 E.01677
G1 X-2.676 Y-4.937 E.01677
G1 X-2.622 Y-4.49 E.01677
G1 X-2.676 Y-4.043 E.01677
G1 X-2.836 Y-3.622 E.01677
G1 X-3.092 Y-3.251 E.01677
G1 X-3.429 Y-2.953 E.01677
G1 X-3.828 Y-2.744 E.01677
G1 X-4.265 Y-2.636 E.01677
G1 X-4.715 Y-2.636 E.01677
G1 X-5.153 Y-2.744 E.01677
G1 X-5.551 Y-2.953 E.01677
G1 X-5.888 Y-3.251 E.01677
G1 X-6.144 Y-3.622 E.01677
G1 X-6.304 Y-4.043 E.01677
G1 X-6.358 Y-4.49 E.01677
G1 X-6.304 Y-4.937 E.01677
G1 X-6.144 Y-5.358 E.01677
G1 X-5.888 Y-5.729 E.01677
G1 X-5.551 Y-6.027 E.01677
G1 X-5.153 Y-6.237 E.01677
G1 X-4.715 Y-6.344 E.01677
G1 X-4.627 Y-6.344 E.00329
G1 E-.8 F2100
;WIPE_START
G1 F3000
G1 X-4.265 Y-6.344
G1 X-3.828 Y-6.237
G1 X-3.429 Y-6.027
G1 X-3.092 Y-5.729
G1 X-2.929 Y-5.493
;WIPE_END
G1 X4.618 Y-6.632 Z.6 F30000
G1 X5.14 Y-6.711 Z.6
G1 Z.2
G1 E.8 F2100
;TYPE:Inner wall
G1 F3000
G1 X5.316 Y-6.667 E.00675
G1 X5.813 Y-6.406 E.02091
G1 X6.233 Y-6.034 E.02091
G1 X6.552 Y-5.572 E.02091
G1 X6.751 Y-5.047 E.02091
G1 X6.819 Y-4.49 E.02091
G1 X6.751 Y-3.933 E.02091
G1 X6.552 Y-3.408 E.02091
G1 X6.233 Y-2.946 E.02091
G1 X5.813 Y-2.574 E.02091
G1 X5.316 Y-2.313 E.02091
G1 X4.771 Y-2.179 E.02091
G1 X4.209 Y-2.179 E.02091
G1 X3.664 Y-2.313 E.02091
G1 X3.167 Y-2.574 E.02091
G1 X2.747 Y-2.946 E.02091
G1 X2.428 Y-3.408 E.02091
G1 X2.229 Y-3.933 E.02091
G1 X2.162 Y-4.49 E.02091
G1 X2.229 Y-5.047 E.02091
G1 X2.428 Y-5.572 E.02091
G1 X2.727 Y-6.004 E.01956
G1 X3.162 Y-6.403 E.02199
G1 X3.664 Y-6.667 E.02114
G1 X4.209 Y-6.802 E.02091
G1 X4.771 Y-6.802 E.02091
G1 X5.101 Y-6.72 E.01266
G1 X5.03 Y-6.267 F30000
;TYPE:Outer wall
G1 F3000
G1 X5.153 Y-6.237 E.00469
G1 X5.551 Y-6.027 E.01677
G1 X5.888 Y-5.729 E.01677
G1 X6.144 Y-5.358 E.01677
G1 X6.304 Y-4.937 E.01677
G1 X6.358 Y-4.49 E.01677
G1 X6.304 Y-4.043 E.01677
G1 X6.144 Y-3.622 E.01677
G1 X5.888 Y-3.251 E.01677
G1 X5.551 Y-2.953 E.01677
G1 X5.153 Y-2.744 E.01677
G1 X4.715 Y-2.636 E.01677
G1 X4.265 Y-2.636 E.01677
G1 X3.828 Y-2.744 E.01677
G1 X3.429 Y-2.953 E.01677
G1 X3.092 Y-3.251 E.01677
G1 X2.836 Y-3.622 E.01677
G1 X2.676 Y-4.043 E.01677
G1 X2.622 Y-4.49 E.01677
G1 X2.676 Y-4.937 E.01677
G1 X2.836 Y-5.358 E.01677
G1 X3.074 Y-5.702 E.01557
G1 X3.427 Y-6.026 E.01786
G1 X3.828 Y-6.237 E.01685
G1 X4.265 Y-6.344 E.01677
G1 X4.715 Y-6.344 E.01677
G1 X4.992 Y-6.276 E.0106
G1 E-.8 F2100
;WIPE_START
G1 F3000
G1 X5.153 Y-6.237
G1 X5.551 Y-6.027
G1 X5.888 Y-5.729
G1 X6.144 Y-5.358
G1 X6.304 Y-4.937
G1 X6.308 Y-4.904
;WIPE_END
G1 X5.188 Y2.645 Z.6 F30000
G1 X4.572 Y6.802 Z.6
G1 Z.2
G1 E.8 F2100
;TYPE:Inner wall
G1 F3000
G1 X4.209 Y6.802 E.0135
G1 X3.664 Y6.667 E.02091
G1 X3.167 Y6.406 E.02091
G1 X2.747 Y6.034 E.02091
G1 X2.428 Y5.572 E.02091
G1 X2.229 Y5.047 E.02091
G1 X2.162 Y4.49 E.02091
G1 X2.229 Y3.933 E.02091
G1 X2.428 Y3.408 E.02091
G1 X2.727 Y2.976 E.01956
G1 X3.162 Y2.577 E.02199
G1 X3.664 Y2.313 E.02114
G1 X4.209 Y2.179 E.02091
G1 X4.771 Y2.179 E.02091
G1 X5.316 Y2.313 E.02091
G1 X5.813 Y2.574 E.02091
G1 X6.233 Y2.946 E.02091
G1 X6.552 Y3.408 E.02091
G1 X6.751 Y3.933 E.02091
G1 X6.819 Y4.49 E.02091
G1 X6.751 Y5.047 E.02091
G1 X6.552 Y5.572 E.02091
G1 X6.233 Y6.034 E.02091
G1 X5.813 Y6.406 E.02091
G1 X5.316 Y6.667 E.02091
G1 X4.771 Y6.802 E.02091
G1 X4.612 Y6.802 E.00592
G1 X4.572 Y6.344 F30000
;TYPE:Outer wall
G1 F3000
G1 X4.265 Y6.344 E.01143
G1 X3.828 Y6.237 E.01677
G1 X3.429 Y6.027 E.01677
G1 X3.092 Y5.729 E.01677
G1 X2.836 Y5.358 E.01677
G1 X2.676 Y4.937 E.01677
G1 X2.622 Y4.49 E.01677
G1 X2.676 Y4.043 E.01677
G1 X2.836 Y3.622 E.01677
G1 X3.074 Y3.278 E.01557
G1 X3.427 Y2.954 E.01786
G1 X3.828 Y2.744 E.01685
G1 X4.265 Y2.636 E.01677
G1 X4.715 Y2.636 E.01677
G1 X5.153 Y2.744 E.01677
G1 X5.551 Y2.953 E.01677
G1 X5.888 Y3.251 E.01677
G1 X6.144 Y3.622 E.01677
G1 X6.304 Y4.043 E.01677
G1 X6.358 Y4.49 E.01677
G1 X6.304 Y4.937 E.01677
G1 X6.144 Y5.358 E.01677
G1 X5.888 Y5.729 E.01677
G1 X5.551 Y6.027 E.01677
G1 X5.153 Y6.237 E.01677
G1 X4.715 Y6.344 E.01677
G1 X4.612 Y6.344 E.00385
G1 E-.8 F2100
;WIPE_START
G1 F3000
G1 X4.265 Y6.344
G1 X3.828 Y6.237
G1 X3.429 Y6.027
G1 X3.092 Y5.729
G1 X2.92 Y5.48
;WIPE_END
G1 X-3.984 Y6.746 Z.6 F30000
G1 Z.2
G1 E.8 F2100
;TYPE:Inner wall
G1 F3000
G1 X-4.209 Y6.802 E.00864
G1 X-4.771 Y6.802 E.02091
G1 X-5.316 Y6.667 E.02091
G1 X-5.813 Y6.406 E.02091
G1 X-6.233 Y6.034 E.02091
G1 X-6.552 Y5.572 E.02091
G1 X-6.751 Y5.047 E.02091
G1 X-6.819 Y4.49 E.02091
G1 X-6.751 Y3.933 E.02091
G1 X-6.552 Y3.408 E.02091
G1 X-6.233 Y2.946 E.02091
G1 X-5.813 Y2.574 E.02091
G1 X-5.316 Y2.313 E.02091
G1 X-4.771 Y2.179 E.02091
G1 X-4.209 Y2.179 E.02091
G1 X-3.664 Y2.313 E.02091
G1 X-3.167 Y2.574 E.02091
G1 X-2.747 Y2.946 E.02091
G1 X-2.428 Y3.408 E.02091
G1 X-2.229 Y3.933 E.02091
G1 X-2.162 Y4.49 E.02091
G1 X-2.229 Y5.047 E.02091
G1 X-2.428 Y5.572 E.02091
G1 X-2.747 Y6.034 E.02091
G1 X-3.167 Y6.406 E.02091
G1 X-3.664 Y6.667 E.02091
G1 X-3.945 Y6.736 E.01078
G1 X-4.094 Y6.302 F30000
;TYPE:Outer wall
G1 F3000
G1 X-4.265 Y6.344 E.00657
G1 X-4.715 Y6.344 E.01677
G1 X-5.153 Y6.237 E.01677
G1 X-5.551 Y6.027 E.01677
G1 X-5.888 Y5.729 E.01677
G1 X-6.144 Y5.358 E.01677
G1 X-6.304 Y4.937 E.01677
G1 X-6.358 Y4.49 E.01677
G1 X-6.304 Y4.043 E.01677
G1 X-6.144 Y3.622 E.01677
G1 X-5.888 Y3.251 E.01677
G1 X-5.551 Y2.953 E.01677
G1 X-5.153 Y2.744 E.01677
G1 X-4.715 Y2.636 E.01677
G1 X-4.265 Y2.636 E.01677
G1 X-3.828 Y2.744 E.01677
G1 X-3.429 Y2.953 E.01677
G1 X-3.092 Y3.251 E.01677
G1 X-2.836 Y3.622 E.01677
G1 X-2.676 Y4.043 E.01677
G1 X-2.622 Y4.49 E.01677
G1 X-2.676 Y4.937 E.01677
G1 X-2.836 Y5.358 E.01677
G1 X-3.092 Y5.729 E.01677
G1 X-3.429 Y6.027 E.01677
G1 X-3.828 Y6.237 E.01677
G1 X-4.055 Y6.293 E.00871
G1 E-.8 F2100
;WIPE_START
G1 F3000
G1 X-4.265 Y6.344
G1 X-4.715 Y6.344
G1 X-5.153 Y6.237
G1 X-5.551 Y6.027
G1 X-5.875 Y5.741
;WIPE_END
G1 X-.272 Y10.923 Z.6 F30000
G1 X3.239 Y14.171 Z.6
G1 Z.2
G1 E.8 F2100
;TYPE:Inner wall
G1 F3000
G1 X.937 Y14.148 E.08577
G1 X-1.873 Y14.15 E.10464
G1 X-3.235 Y14.173 E.05074
G1 X-4.452 Y13.561 E.05074
G1 X-6.562 Y12.544 E.08724
G1 X-9.061 Y11.364 E.10295
G1 X-11.062 Y8.821 E.12049
G1 X-13.095 Y6.305 E.12049
G1 X-13.689 Y3.606 E.10295
G1 X-14.212 Y1.323 E.08724
G1 X-14.537 Y0 E.05074
G1 X-14.212 Y-1.323 E.05074
G1 X-13.689 Y-3.606 E.08724
G1 X-13.094 Y-6.312 E.10321
G1 X-12.23 Y-7.358 E.05051
G1 X-10.769 Y-9.188 E.08723
G1 X-9.061 Y-11.364 E.10304
M73 P3 R12
G1 X-6.983 Y-12.341 E.08554
G1 X-4.452 Y-13.561 E.10464
G1 X-3.239 Y-14.171 E.05056
G1 X-.937 Y-14.148 E.08577
G1 X1.873 Y-14.15 E.10464
G1 X3.235 Y-14.173 E.05074
G1 X4.452 Y-13.561 E.05074
G1 X7.827 Y-11.936 E.1395
G1 X9.058 Y-11.369 E.05049
G1 X11.062 Y-8.821 E.12072
G1 X13.095 Y-6.305 E.12049
G1 X13.689 Y-3.606 E.10295
G1 X14.212 Y-1.323 E.08724
G1 X14.537 Y0 E.05074
G1 X14.212 Y1.323 E.05074
G1 X13.689 Y3.606 E.08724
G1 X13.094 Y6.312 E.10321
G1 X12.23 Y7.358 E.05051
G1 X10.769 Y9.188 E.08723
G1 X9.062 Y11.364 E.10299
G1 X6.562 Y12.544 E.10299
G1 X4.452 Y13.561 E.08724
G1 X3.275 Y14.153 E.04907
G1 E-.8 F2100
;WIPE_START
G1 F3000
G1 X1.275 Y14.149
;WIPE_END
G1 X1.994 Y6.551 Z.6 F30000
G1 X4.247 Y-17.245 Z.6
G1 Z.2
G1 E.8 F2100
G1 F3000
G1 X3.869 Y-16.462 E.0324
G1 X3.656 Y-16.51 E.00815
G1 X3.657 Y-19.856 E.12462
G1 X4.532 Y-19.856 E.03259
G1 X5.32 Y-19.476 E.03259
G1 X4.264 Y-17.281 E.09073
G1 E-.8 F2100
;WIPE_START
G1 F3000
G1 X3.869 Y-16.462
G1 X3.656 Y-16.51
G1 X3.656 Y-17.382
;WIPE_END
G1 X5.563 Y-22.862 Z.6 F30000
G1 Z.2
G1 E.8 F2100
G1 F3000
G1 X5.12 Y-21.942 E.03804
G1 X4.907 Y-21.991 E.00815
G1 X4.907 Y-23.63 E.06105
G1 X5.372 Y-23.537 E.01766
G1 X5.831 Y-23.419 E.01766
G1 X5.581 Y-22.898 E.02152
G1 E-.8 F2100
;WIPE_START
G1 F3000
G1 X5.12 Y-21.942
G1 X4.907 Y-21.991
G1 X4.907 Y-22.711
;WIPE_END
G1 X12.008 Y-19.912 Z.6 F30000
G1 X15.415 Y-18.569 Z.6
G1 Z.2
G1 E.8 F2100
G1 F3000
G1 X14.134 Y-17.548 E.06105
G1 X13.963 Y-17.684 E.00815
G1 X14.674 Y-19.161 E.06105
G1 X15.053 Y-18.875 E.01766
G1 X15.384 Y-18.595 E.01617
G1 E-.8 F2100
;WIPE_START
G1 F3000
G1 X14.134 Y-17.548
G1 X13.963 Y-17.684
G1 X14.027 Y-17.819
;WIPE_END
G1 X13.244 Y-15.239 Z.6 F30000
G1 Z.2
G1 E.8 F2100
G1 F3000
G1 X10.629 Y-13.152 E.12462
G1 X10.458 Y-13.289 E.00815
G1 X11.91 Y-16.303 E.12462
G1 X12.698 Y-15.923 E.03259
G1 X13.219 Y-15.27 E.0311
G1 E-.8 F2100
;WIPE_START
G1 F3000
G1 X11.671 Y-14.005
;WIPE_END
G1 X17.412 Y-8.975 Z.6 F30000
G1 X18.545 Y-7.984 Z.6
G1 Z.2
G1 E.8 F2100
G1 F3000
G1 X15.283 Y-7.238 E.12462
G1 X15.188 Y-7.435 E.00815
G1 X17.804 Y-9.521 E.12462
G1 X18.35 Y-8.837 E.03259
G1 X18.536 Y-8.023 E.0311
G1 E-.8 F2100
;WIPE_START
G1 F3000
G1 X16.591 Y-7.554
;WIPE_END
G1 X21.945 Y-10.042 Z.6 F30000
G1 Z.2
G1 E.8 F2100
G1 F3000
G1 X20.347 Y-9.677 E.06105
G1 X20.253 Y-9.874 E.00815
G1 X21.534 Y-10.896 E.06105
G1 X21.752 Y-10.475 E.01766
G1 X21.929 Y-10.079 E.01618
G1 E-.8 F2100
;WIPE_START
G1 F3000
G1 X20.347 Y-9.677
G1 X20.253 Y-9.874
G1 X20.369 Y-9.968
;WIPE_END
G1 X22.955 Y-2.787 Z.6 F30000
G1 X24.129 Y.474 Z.6
G1 Z.2
G1 E.8 F2100
G1 F3000
G1 X22.531 Y.109 E.06105
G1 X22.531 Y-.109 E.00815
G1 X24.129 Y-.474 E.06105
G1 X24.143 Y0 E.01766
G1 X24.13 Y.434 E.01617
G1 E-.8 F2100
;WIPE_START
G1 F3000
G1 X22.531 Y.109
G1 X22.531 Y-.109
G1 X22.677 Y-.143
;WIPE_END
G1 X20.172 Y.853 Z.6 F30000
G1 Z.2
G1 E.8 F2100
M73 P4 R12
G1 F3000
G1 X16.91 Y.109 E.12462
G1 X16.91 Y-.109 E.00815
G1 X20.172 Y-.853 E.12462
G1 X20.367 Y0 E.03259
G1 X20.181 Y.814 E.0311
G1 E-.8 F2100
;WIPE_START
G1 F3000
G1 X18.226 Y.393
;WIPE_END
G1 X18.545 Y7.984 Z.6 F30000
G1 Z.2
G1 E.8 F2100
G1 F3000
G1 X18.35 Y8.837 E.03259
G1 X17.804 Y9.521 E.03259
G1 X15.188 Y7.435 E.12462
G1 X15.283 Y7.238 E.00815
G1 X18.506 Y7.975 E.12313
G1 E-.8 F2100
;WIPE_START
G1 F3000
G1 X18.35 Y8.837
G1 X17.804 Y9.521
G1 X17.61 Y9.366
;WIPE_END
G1 X21.945 Y10.042 Z.6 F30000
G1 Z.2
G1 E.8 F2100
G1 F3000
G1 X21.752 Y10.475 E.01767
G1 X21.534 Y10.896 E.01766
G1 X20.253 Y9.874 E.06105
G1 X20.347 Y9.677 E.00815
G1 X21.906 Y10.033 E.05956
G1 E-.8 F2100
;WIPE_START
G1 F3000
G1 X21.752 Y10.475
G1 X21.534 Y10.896
G1 X20.707 Y10.237
;WIPE_END
G1 X16.281 Y16.455 Z.6 F30000
G1 X15.007 Y18.244 Z.6
G1 Z.2
G1 E.8 F2100
G1 F3000
G1 X15.415 Y18.569 E.01943
G1 X15.053 Y18.875 E.01767
G1 X14.674 Y19.161 E.01766
G1 X13.963 Y17.684 E.06105
G1 X14.134 Y17.548 E.00815
G1 X14.976 Y18.219 E.04013
G1 E-.8 F2100
;WIPE_START
G1 F3000
G1 X15.415 Y18.569
G1 X15.053 Y18.875
G1 X14.674 Y19.161
G1 X14.461 Y18.719
;WIPE_END
G1 X13.244 Y15.239 Z.6 F30000
G1 Z.2
G1 E.8 F2100
G1 F3000
G1 X12.698 Y15.923 E.03259
G1 X11.91 Y16.303 E.03259
G1 X10.458 Y13.289 E.12462
G1 X10.629 Y13.152 E.00815
G1 X13.213 Y15.214 E.12313
G1 E-.8 F2100
;WIPE_START
G1 F3000
G1 X12.698 Y15.923
G1 X11.91 Y16.303
G1 X11.802 Y16.079
;WIPE_END
G1 X4.292 Y17.34 Z.6 F30000
G1 Z.2
G1 E.8 F2100
G1 F3000
G1 X5.32 Y19.476 E.08832
G1 X4.532 Y19.856 E.03259
G1 X3.657 Y19.856 E.03259
G1 X3.656 Y16.51 E.12462
G1 X3.869 Y16.462 E.00815
G1 X4.275 Y17.304 E.03481
G1 E-.8 F2100
;WIPE_START
G1 F3000
G1 X5.142 Y19.106
;WIPE_END
G1 X5.12 Y21.942 Z.6 F30000
G1 Z.2
G1 E.8 F2100
G1 F3000
G1 X5.831 Y23.419 E.06105
G1 X5.372 Y23.537 E.01766
G1 X4.907 Y23.63 E.01766
G1 X4.907 Y21.991 E.06105
G1 X5.081 Y21.951 E.00666
G1 E-.8 F2100
;WIPE_START
G1 F3000
G1 X5.831 Y23.419
G1 X5.491 Y23.507
;WIPE_END
G1 X-1.651 Y20.815 Z.6 F30000
G1 X-4.194 Y19.856 Z.6
G1 Z.2
G1 E.8 F2100
G1 F3000
G1 X-4.532 Y19.856 E.01259
G1 X-5.32 Y19.476 E.03259
G1 X-3.869 Y16.462 E.12462
G1 X-3.656 Y16.51 E.00815
G1 X-3.657 Y19.856 E.12462
G1 X-4.154 Y19.856 E.01852
G1 E-.8 F2100
;WIPE_START
G1 F3000
G1 X-4.532 Y19.856
G1 X-5.32 Y19.476
G1 X-4.997 Y18.803
;WIPE_END
G1 X-4.907 Y21.991 Z.6 F30000
G1 Z.2
G1 E.8 F2100
G1 F3000
G1 X-4.907 Y23.63 E.06105
G1 X-5.372 Y23.537 E.01766
G1 X-5.831 Y23.419 E.01766
G1 X-5.12 Y21.942 E.06105
G1 X-4.946 Y21.982 E.00666
G1 E-.8 F2100
;WIPE_START
G1 F3000
G1 X-4.907 Y23.63
G1 X-5.252 Y23.561
;WIPE_END
G1 X-11.579 Y19.292 Z.6 F30000
G1 X-13.963 Y17.684 Z.6
G1 Z.2
G1 E.8 F2100
G1 F3000
G1 X-14.674 Y19.161 E.06105
G1 X-15.053 Y18.875 E.01766
G1 X-15.415 Y18.569 E.01766
G1 X-14.134 Y17.548 E.06105
G1 X-13.994 Y17.659 E.00666
G1 E-.8 F2100
;WIPE_START
G1 F3000
G1 X-14.674 Y19.161
G1 X-14.955 Y18.949
;WIPE_END
G1 X-10.458 Y13.289 Z.6 F30000
G1 Z.2
M73 P5 R12
G1 E.8 F2100
