; HEADER_BLOCK_START
; generated by OrcaSlicer 2.3.0 on 2026-05-07 at 18:15:55
; total layer number: 35
;_GP_TOTAL_LAYER_NUMBER_PLACEHOLDER
; filament_density: 1.24
; filament_diameter: 1.75
; max_z_height: 7.00
; HEADER_BLOCK_END

; THUMBNAIL_BLOCK_START

;
; THUMBNAIL_BLOCK_END

; external perimeters extrusion width = 0.42mm
; perimeters extrusion width = 0.45mm
; infill extrusion width = 0.45mm
; solid infill extrusion width = 0.42mm
; top infill extrusion width = 0.42mm
; first layer extrusion width = 0.50mm

; external perimeters extrusion width = 0.42mm
; perimeters extrusion width = 0.45mm
; infill extrusion width = 0.45mm
; solid infill extrusion width = 0.42mm
; top infill extrusion width = 0.42mm
; first layer extrusion width = 0.50mm

; EXECUTABLE_BLOCK_START
M73 P0 R7
M106 S0
M106 P2 S0
;TYPE:Custom
M190 S55
M104 S220
G90
M83
G1 Z5 F6000
G1 E-0.2 F800
G1 X110 Y-110 F6000
G1 E2 F800
G1 Y-110 X55 Z0.25 F4800
G1 X-55 E8 F2400
G1 Y-109.6 F2400
M73 P1 R7
G1 X55 E5 F2400
G1 Y-110 X55 Z0.45 F4800
G1 X-55 E8 F2400
G1 Y-109.6 F2400
M73 P2 R7
G1 X55 E5 F2400
G92 E0
G90
G21
M83 ; use relative distances for extrusion
; filament start gcode
;right_extruder_material: PLA
SET_PRESSURE_ADVANCE ADVANCE=0.025; Override pressure advance value
M106 S0
M106 P2 S0
;LAYER_CHANGE
;Z:0.2
;HEIGHT:0.2
;BEFORE_LAYER_CHANGE
;0.2
G1 E-.8 F2100
;AFTER_LAYER_CHANGE
;0.2
;_SET_FAN_SPEED_CHANGING_LAYER
SET_VELOCITY_LIMIT ACCEL=500
G1 X24.393 Y8.143 F30000
G1 Z.6
M73 P3 R7
G1 Z.2
G1 E.8 F2100
;TYPE:Inner wall
;WIDTH:0.5
G1 F3000
G1 X5.607 Y8.143 E.6997
G1 X5.607 Y-8.143 E.60659
G1 X24.393 Y-8.143 E.6997
G1 X24.393 Y8.103 E.6051
G1 X24.85 Y8.6 F30000
;TYPE:Outer wall
G1 F3000
G1 X5.15 Y8.6 E.73375
G1 X5.15 Y-8.6 E.64063
G1 X24.85 Y-8.6 E.73375
G1 X24.85 Y8.56 E.63914
G1 E-.8 F2100
;WIPE_START
G1 F3000
G1 X22.85 Y8.564
;WIPE_END
G1 X23.067 Y.935 Z.6 F30000
G1 X23.322 Y-8.006 Z.6
G1 Z.2
M73 P4 R7
G1 E.8 F2100
;TYPE:Bottom surface
;WIDTH:0.504735
G1 F4800
G1 X24.05 Y-7.277 E.03876
G1 X24.05 Y-6.624 E.02458
G1 X22.874 Y-7.8 E.06257
G1 X22.221 Y-7.8 E.02458
G1 X24.05 Y-5.971 E.09733
G1 X24.05 Y-5.318 E.02458
G1 X21.568 Y-7.8 E.13209
G1 X20.915 Y-7.8 E.02458
G1 X24.05 Y-4.665 E.16685
G1 X24.05 Y-4.012 E.02458
G1 X20.262 Y-7.8 E.20161
G1 X19.609 Y-7.8 E.02458
G1 X24.05 Y-3.359 E.23636
G1 X24.05 Y-2.706 E.02458
G1 X18.956 Y-7.8 E.27112
G1 X18.303 Y-7.8 E.02458
G1 X24.05 Y-2.053 E.30588
G1 X24.05 Y-1.4 E.02458
G1 X17.65 Y-7.8 E.34064
G1 X16.996 Y-7.8 E.02458
G1 X24.05 Y-.746 E.3754
G1 X24.05 Y-.093 E.02458
G1 X16.343 Y-7.8 E.41015
G1 X15.69 Y-7.8 E.02458
G1 X24.05 Y.56 E.44491
G1 X24.05 Y1.213 E.02458
G1 X15.037 Y-7.8 E.47967
G1 X14.384 Y-7.8 E.02458
G1 X24.05 Y1.866 E.51443
G1 X24.05 Y2.519 E.02458
G1 X13.731 Y-7.8 E.54919
G1 X13.078 Y-7.8 E.02458
G1 X24.05 Y3.172 E.58394
G1 X24.05 Y3.825 E.02458
G1 X12.425 Y-7.8 E.6187
G1 X11.772 Y-7.8 E.02458
M73 P5 R7
G1 X24.05 Y4.478 E.65346
G1 X24.05 Y5.132 E.02458
G1 X11.118 Y-7.8 E.68822
G1 X10.465 Y-7.8 E.02458
G1 X24.05 Y5.785 E.72298
G1 X24.05 Y6.438 E.02458
G1 X9.812 Y-7.8 E.75774
G1 X9.159 Y-7.8 E.02458
G1 X24.05 Y7.091 E.79249
G1 X24.05 Y7.744 E.02458
G1 X8.506 Y-7.8 E.82725
G1 X7.853 Y-7.8 E.02458
G1 X23.453 Y7.8 E.83024
G1 X22.8 Y7.8 E.02458
G1 X7.2 Y-7.8 E.83024
G1 X6.547 Y-7.8 E.02458
G1 X22.147 Y7.8 E.83024
G1 X21.494 Y7.8 E.02458
G1 X5.95 Y-7.744 E.82725
G1 X5.95 Y-7.091 E.02458
G1 X20.841 Y7.8 E.79249
G1 X20.188 Y7.8 E.02458
M73 P6 R7
G1 X5.95 Y-6.438 E.75773
G1 X5.95 Y-5.785 E.02458
G1 X19.535 Y7.8 E.72297
G1 X18.881 Y7.8 E.02458
G1 X5.95 Y-5.131 E.68821
G1 X5.95 Y-4.478 E.02458
G1 X18.228 Y7.8 E.65346
G1 X17.575 Y7.8 E.02458
G1 X5.95 Y-3.825 E.6187
G1 X5.95 Y-3.172 E.02458
G1 X16.922 Y7.8 E.58394
G1 X16.269 Y7.8 E.02458
G1 X5.95 Y-2.519 E.54918
G1 X5.95 Y-1.866 E.02458
G1 X15.616 Y7.8 E.51442
G1 X14.963 Y7.8 E.02458
G1 X5.95 Y-1.213 E.47967
G1 X5.95 Y-.56 E.02458
G1 X14.31 Y7.8 E.44491
G1 X13.657 Y7.8 E.02458
G1 X5.95 Y.093 E.41015
G1 X5.95 Y.747 E.02458
G1 X13.003 Y7.8 E.37539
G1 X12.35 Y7.8 E.02458
G1 X5.95 Y1.4 E.34063
G1 X5.95 Y2.053 E.02458
M73 P7 R7
G1 X11.697 Y7.8 E.30587
G1 X11.044 Y7.8 E.02458
G1 X5.95 Y2.706 E.27112
G1 X5.95 Y3.359 E.02458
G1 X10.391 Y7.8 E.23636
G1 X9.738 Y7.8 E.02458
G1 X5.95 Y4.012 E.2016
G1 X5.95 Y4.665 E.02458
G1 X9.085 Y7.8 E.16684
G1 X8.432 Y7.8 E.02458
G1 X5.95 Y5.318 E.13208
G1 X5.95 Y5.971 E.02458
G1 X7.779 Y7.8 E.09733
G1 X7.126 Y7.8 E.02458
G1 X5.95 Y6.624 E.06257
G1 X5.95 Y7.278 E.02458
G1 X6.678 Y8.006 E.03876
G1 E-.8 F2100
;WIPE_START
G1 F4800
G1 X5.95 Y7.278
G1 X5.95 Y6.624
G1 X6.174 Y6.849
;WIPE_END
G1 X-1.455 Y7.082 Z.6 F30000
G1 X-8.926 Y7.311 Z.6
G1 Z.2
G1 E.8 F2100
;TYPE:Outer wall
;WIDTH:0.5
G1 F3000
G1 X-8.95 Y7.267 E.00187
G1 X-9.048 Y6.998 E.01067
G1 X-9.104 Y6.711 E.01091
G1 X-9.115 Y6.425 E.01064
G1 X-9.083 Y6.148 E.01038
G1 X-9.008 Y5.873 E.01062
G1 X-8.891 Y5.612 E.01066
G1 X-8.732 Y5.366 E.0109
G1 X-8.541 Y5.153 E.01066
G1 X-8.321 Y4.972 E.01063
G1 X-8.081 Y4.829 E.01039
G1 X-7.81 Y4.72 E.01089
G1 X-7.531 Y4.655 E.01064
G1 X-7.253 Y4.634 E.01039
G1 X-6.962 Y4.656 E.01087
G1 X-6.69 Y4.72 E.01041
G1 X-6.425 Y4.827 E.01065
G1 X-6.178 Y4.976 E.01074
G1 X-5.953 Y5.17 E.01106
G1 X-5.771 Y5.396 E.01083
G1 X-5.635 Y5.646 E.01058
G1 X-5.55 Y5.918 E.01063
G1 X-5.51 Y6.194 E.01038
G1 X-5.501 Y6.687 E.01834
G1 X-5.528 Y6.947 E.00976
G1 X-5.583 Y7.211 E.01003
G1 X-5.696 Y7.481 E.01092
G1 X-5.87 Y7.729 E.01128
G1 X-6.084 Y7.931 E.01095
G1 X-6.327 Y8.084 E.01071
G1 X-6.6 Y8.185 E.01084
G1 X-6.88 Y8.233 E.01058
G1 X-7.379 Y8.252 E.01859
G1 X-7.887 Y8.189 E.01907
G1 X-8.165 Y8.089 E.01101
G1 X-8.419 Y7.933 E.0111
G1 X-8.637 Y7.74 E.01083
G1 X-8.815 Y7.512 E.01078
G1 X-8.907 Y7.346 E.00707
G1 E-.8 F2100
;WIPE_START
G1 F3000
G1 X-8.95 Y7.267
G1 X-9.048 Y6.998
G1 X-9.104 Y6.711
G1 X-9.115 Y6.425
G1 X-9.083 Y6.148
G1 X-9.008 Y5.873
G1 X-8.891 Y5.612
G1 X-8.785 Y5.448
;WIPE_END
G1 X-10.527 Y3.777 Z.6 F30000
G1 Z.2
G1 E.8 F2100
;TYPE:Inner wall
G1 F3000
G1 X-10.539 Y3.796 E.00085
G1 X-10.843 Y4.217 E.01933
G1 X-11.177 Y4.614 E.01933
G1 X-11.54 Y4.985 E.01933
G1 X-11.931 Y5.327 E.01933
G1 X-12.346 Y5.638 E.01933
G1 X-12.784 Y5.917 E.01933
G1 X-13.241 Y6.162 E.01933
G1 X-13.701 Y6.366 E.01873
G1 X-14.204 Y6.545 E.01989
G1 X-14.706 Y6.682 E.01937
G1 X-15.216 Y6.779 E.01933
G1 X-15.731 Y6.838 E.01933
G1 X-16.25 Y6.858 E.01933
G1 X-16.769 Y6.838 E.01933
G1 X-17.268 Y6.781 E.01873
G1 X-17.793 Y6.682 E.01989
G1 X-18.295 Y6.546 E.01937
G1 X-18.784 Y6.372 E.01933
G1 X-19.244 Y6.169 E.01873
G1 X-19.715 Y5.918 E.01989
G1 X-20.154 Y5.638 E.01937
G1 X-20.569 Y5.327 E.01933
G1 X-20.947 Y4.995 E.01873
G1 X-21.322 Y4.615 E.01989
G1 X-21.657 Y4.217 E.01937
G1 X-21.961 Y3.796 E.01933
G1 X-22.232 Y3.354 E.01933
G1 X-22.468 Y2.892 E.01933
G1 X-22.669 Y2.413 E.01933
G1 X-22.828 Y1.936 E.01873
G1 X-22.959 Y1.418 E.01989
G1 X-23.048 Y.906 E.01937
G1 X-23.097 Y.389 E.01933
G1 X-23.106 Y-.13 E.01933
G1 X-23.077 Y-.648 E.01933
G1 X-23.011 Y-1.146 E.01873
G1 X-22.901 Y-1.669 E.01989
G1 X-22.756 Y-2.168 E.01937
G1 X-22.573 Y-2.654 E.01933
G1 X-22.361 Y-3.11 E.01873
G1 X-22.101 Y-3.577 E.01989
G1 X-21.813 Y-4.01 E.01937
G1 X-21.494 Y-4.419 E.01933
G1 X-21.156 Y-4.791 E.01873
G1 X-20.768 Y-5.159 E.01989
G1 X-20.364 Y-5.486 E.01937
G1 X-19.938 Y-5.782 E.01933
G1 X-19.49 Y-6.044 E.01933
G1 X-19.023 Y-6.272 E.01933
G1 X-18.541 Y-6.464 E.01933
G1 X-18.046 Y-6.618 E.01933
G1 X-17.556 Y-6.732 E.01873
G1 X-17.028 Y-6.813 E.01989
G1 X-16.509 Y-6.853 E.01937
G1 X-15.991 Y-6.853 E.01933
G1 X-15.473 Y-6.814 E.01933
G1 X-14.96 Y-6.735 E.01933
G1 X-14.454 Y-6.618 E.01933
G1 X-13.959 Y-6.464 E.01933
G1 X-13.477 Y-6.272 E.01933
G1 X-13.01 Y-6.044 E.01933
G1 X-12.562 Y-5.782 E.01933
G1 X-12.136 Y-5.486 E.01933
G1 X-11.732 Y-5.159 E.01933
G1 X-11.355 Y-4.803 E.01933
G1 X-11.006 Y-4.419 E.01933
G1 X-10.687 Y-4.01 E.01933
G1 X-10.399 Y-3.578 E.01933
G1 X-10.146 Y-3.125 E.01933
G1 X-9.927 Y-2.654 E.01933
G1 X-9.744 Y-2.168 E.01933
G1 X-9.599 Y-1.67 E.01933
G1 X-9.492 Y-1.162 E.01933
G1 X-9.423 Y-.648 E.01933
G1 X-9.394 Y-.13 E.01933
G1 X-9.403 Y.389 E.01933
G1 X-9.451 Y.89 E.01873
G1 X-9.54 Y1.416 E.01989
G1 X-9.667 Y1.921 E.01937
G1 X-9.831 Y2.413 E.01933
G1 X-10.032 Y2.892 E.01933
G1 X-10.268 Y3.354 E.01933
G1 X-10.506 Y3.743 E.01699
G1 X-10.917 Y3.538 F30000
;TYPE:Outer wall
G1 F3000
G1 X-10.92 Y3.543 E.00021
G1 X-11.203 Y3.936 E.01804
G1 X-11.515 Y4.307 E.01804
G1 X-11.855 Y4.652 E.01804
G1 X-12.219 Y4.971 E.01804
G1 X-12.607 Y5.262 E.01804
G1 X-13.015 Y5.523 E.01804
G1 X-13.442 Y5.751 E.01804
G1 X-13.871 Y5.941 E.01746
G1 X-14.341 Y6.109 E.0186
G1 X-14.809 Y6.236 E.01806
G1 X-15.285 Y6.327 E.01804
G1 X-15.766 Y6.382 E.01804
G1 X-16.25 Y6.4 E.01804
G1 X-16.734 Y6.382 E.01804
G1 X-17.2 Y6.329 E.01746
G1 X-17.691 Y6.236 E.0186
G1 X-18.159 Y6.109 E.01806
G1 X-18.615 Y5.947 E.01804
G1 X-19.044 Y5.758 E.01746
G1 X-19.485 Y5.523 E.0186
G1 X-19.893 Y5.262 E.01806
G1 X-20.281 Y4.971 E.01804
G1 X-20.634 Y4.663 E.01746
G1 X-20.984 Y4.307 E.0186
G1 X-21.297 Y3.936 E.01806
G1 X-21.58 Y3.543 E.01804
G1 X-21.833 Y3.13 E.01804
G1 X-22.053 Y2.699 E.01804
G1 X-22.241 Y2.252 E.01804
G1 X-22.389 Y1.807 E.01746
G1 X-22.512 Y1.323 E.0186
G1 X-22.594 Y.845 E.01806
G1 X-22.64 Y.363 E.01804
G1 X-22.649 Y-.121 E.01804
G1 X-22.622 Y-.605 E.01804
G1 X-22.56 Y-1.069 E.01746
G1 X-22.458 Y-1.558 E.0186
G1 X-22.322 Y-2.024 E.01806
G1 X-22.151 Y-2.477 E.01804
G1 X-21.954 Y-2.902 E.01746
G1 X-21.711 Y-3.339 E.0186
G1 X-21.442 Y-3.742 E.01806
G1 X-21.144 Y-4.124 E.01804
G1 X-20.829 Y-4.471 E.01746
G1 X-20.467 Y-4.815 E.0186
G1 X-20.09 Y-5.12 E.01806
G1 X-19.692 Y-5.396 E.01804
G1 X-19.274 Y-5.641 E.01804
G1 X-18.838 Y-5.854 E.01804
G1 X-18.388 Y-6.032 E.01804
G1 X-17.926 Y-6.177 E.01804
G1 X-17.469 Y-6.282 E.01746
G1 X-16.976 Y-6.359 E.0186
G1 X-16.492 Y-6.396 E.01806
G1 X-16.008 Y-6.396 E.01804
G1 X-15.525 Y-6.359 E.01804
G1 X-15.046 Y-6.286 E.01804
G1 X-14.574 Y-6.177 E.01804
G1 X-14.112 Y-6.032 E.01804
G1 X-13.662 Y-5.854 E.01804
G1 X-13.226 Y-5.641 E.01804
M73 P8 R7
G1 X-12.808 Y-5.396 E.01804
G1 X-12.41 Y-5.12 E.01804
G1 X-12.034 Y-4.815 E.01804
G1 X-11.682 Y-4.483 E.01804
G1 X-11.356 Y-4.124 E.01804
G1 X-11.058 Y-3.742 E.01804
G1 X-10.79 Y-3.339 E.01804
G1 X-10.553 Y-2.916 E.01804
G1 X-10.349 Y-2.477 E.01804
G1 X-10.178 Y-2.024 E.01804
G1 X-10.042 Y-1.559 E.01804
G1 X-9.942 Y-1.085 E.01804
G1 X-9.878 Y-.605 E.01804
G1 X-9.851 Y-.121 E.01804
G1 X-9.86 Y.363 E.01804
G1 X-9.904 Y.83 E.01746
G1 X-9.988 Y1.322 E.0186
G1 X-10.106 Y1.793 E.01806
G1 X-10.259 Y2.252 E.01804
G1 X-10.447 Y2.699 E.01804
G1 X-10.667 Y3.13 E.01804
G1 X-10.896 Y3.504 E.01634
G1 E-.8 F2100
;WIPE_START
G1 F3000
G1 X-10.92 Y3.543
G1 X-11.203 Y3.936
G1 X-11.515 Y4.307
G1 X-11.855 Y4.652
G1 X-12.219 Y4.971
G1 X-12.232 Y4.981
;WIPE_END
G1 X-10.39 Y-2.425 Z.6 F30000
G1 X-9.508 Y-5.971 Z.6
G1 Z.2
G1 E.8 F2100
;TYPE:Inner wall
G1 F3000
G1 X-9.49 Y-5.88 E.00346
G1 X-9.369 Y-5.545 E.01326
G1 X-9.203 Y-5.24 E.01296
G1 X-8.989 Y-4.957 E.01322
G1 X-8.732 Y-4.709 E.01329
G1 X-8.434 Y-4.5 E.01355
G1 X-8.114 Y-4.342 E.01329
G1 X-7.776 Y-4.236 E.01322
G1 X-7.432 Y-4.183 E.01296
G1 X-7.077 Y-4.182 E.01322
G1 X-6.724 Y-4.236 E.0133
G1 X-6.375 Y-4.346 E.01363
G1 X-6.055 Y-4.508 E.01335
G1 X-5.596 Y-4.837 E.02105
G1 X-5.594 Y4.876 E.36178
G1 X-5.908 Y4.604 E.01547
G1 X-6.22 Y4.417 E.01354
G1 X-6.551 Y4.283 E.01331
G1 X-6.892 Y4.203 E.01303
G1 X-7.253 Y4.176 E.01349
G1 X-7.601 Y4.202 E.01299
G1 X-7.948 Y4.283 E.01326
G1 X-8.284 Y4.418 E.01352
G1 X-8.584 Y4.596 E.01299
G1 X-8.858 Y4.822 E.01322
G1 X-9.096 Y5.088 E.01329
G1 X-9.294 Y5.393 E.01355
G1 X-9.439 Y5.719 E.01329
G1 X-9.533 Y6.061 E.01322
G1 X-9.573 Y6.407 E.01296
G1 X-9.56 Y6.763 E.01326
G1 X-9.49 Y7.12 E.01357
G1 X-9.368 Y7.457 E.01334
G1 X-9.197 Y7.765 E.01312
G1 X-8.893 Y8.155 E.01844
G1 X-24.393 Y8.143 E.57733
G1 X-24.393 Y-8.143 E.60659
G1 X-8.934 Y-8.152 E.57578
G1 X-9.291 Y-7.61 E.02416
G1 X-9.439 Y-7.283 E.01338
G1 X-9.533 Y-6.939 E.01328
G1 X-9.573 Y-6.593 E.01296
G1 X-9.56 Y-6.237 E.01326
G1 X-9.516 Y-6.011 E.00861
G1 X-9.059 Y-6.058 F30000
;TYPE:Outer wall
G1 F3000
G1 X-9.104 Y-6.29 E.00877
G1 X-9.115 Y-6.575 E.01064
G1 X-9.082 Y-6.852 E.01038
G1 X-9.007 Y-7.128 E.01064
G1 X-8.889 Y-7.389 E.01069
G1 X-8.726 Y-7.636 E.01102
G1 X-8.526 Y-7.846 E.01081
G1 X-8.292 Y-8.019 E.01083
G1 X-8.035 Y-8.141 E.01062
G1 X-7.757 Y-8.213 E.01068
G1 X-7.493 Y-8.245 E.00993
G1 X-7.001 Y-8.245 E.01832
G1 X-6.742 Y-8.213 E.0097
G1 X-6.471 Y-8.143 E.01044
G1 X-6.206 Y-8.015 E.01095
G1 X-5.968 Y-7.829 E.01126
G1 X-5.776 Y-7.606 E.01097
G1 X-5.637 Y-7.355 E.01068
G1 X-5.55 Y-7.082 E.01066
G1 X-5.51 Y-6.806 E.0104
G1 X-5.501 Y-6.313 E.01834
G1 X-5.527 Y-6.053 E.00975
G1 X-5.583 Y-5.79 E.01
G1 X-5.693 Y-5.52 E.01088
G1 X-5.862 Y-5.273 E.01113
G1 X-6.063 Y-5.065 E.0108
G1 X-6.293 Y-4.9 E.01052
G1 X-6.548 Y-4.771 E.01067
G1 X-6.828 Y-4.682 E.01093
G1 X-7.111 Y-4.639 E.01066
G1 X-7.396 Y-4.64 E.01063
G1 X-7.672 Y-4.682 E.01038
G1 X-7.944 Y-4.768 E.01062
G1 X-8.201 Y-4.894 E.01066
G1 X-8.44 Y-5.063 E.0109
G1 X-8.646 Y-5.261 E.01066
G1 X-8.818 Y-5.489 E.01063
G1 X-8.951 Y-5.733 E.01038
G1 X-9.048 Y-6.002 E.01064
G1 X-9.052 Y-6.019 E.00064
G1 E-.8 F2100
;WIPE_START
G1 F3000
G1 X-9.104 Y-6.29
G1 X-9.115 Y-6.575
G1 X-9.082 Y-6.852
G1 X-9.007 Y-7.128
G1 X-8.889 Y-7.389
G1 X-8.726 Y-7.636
G1 X-8.526 Y-7.846
G1 X-8.525 Y-7.847
;WIPE_END
G1 X-6.99 Y-.37 Z.6 F30000
G1 X-5.148 Y8.603 Z.6
G1 Z.2
G1 E.8 F2100
G1 F3000
G1 X-5.76 Y8.608 E.02279
G1 X-7.253 Y8.708 E.05574
G1 X-7.731 Y8.686 E.01785
G1 X-8.233 Y8.635 E.01878
G1 X-9.246 Y8.601 E.03774
G1 X-24.85 Y8.6 E.5812
G1 X-24.85 Y-8.6 E.64064
G1 X-9.246 Y-8.601 E.58119
G1 X-8.233 Y-8.633 E.03775
M73 P9 R7
G1 X-7.731 Y-8.685 E.01882
G1 X-7.25 Y-8.711 E.01793
G1 X-6.769 Y-8.686 E.01792
G1 X-6.269 Y-8.634 E.01873
G1 X-5.147 Y-8.602 E.0418
G1 X-5.142 Y-7.99 E.02279
G1 X-5.041 Y-6.498 E.05572
G1 X-5.065 Y-6.019 E.01786
G1 X-5.116 Y-5.517 E.01881
G1 X-5.149 Y-4.504 E.03774
G1 X-5.149 Y4.504 E.33552
G1 X-5.116 Y5.517 E.03775
G1 X-5.063 Y6.019 E.01879
G1 X-5.041 Y6.497 E.01784
G1 X-5.142 Y7.99 E.05574
G1 X-5.147 Y8.563 E.02131
G1 X-5.372 Y8.123 F30000
;TYPE:Gap infill
;WIDTH:0.167962
G1 F3000
G1 X-6.204 Y8.347 E.00878
;WIDTH:0.14979
G1 X-6.325 Y8.373 E.00108
;WIDTH:0.134167
G1 X-6.446 Y8.399 E.00092
G1 X-6.337 Y8.418 F30000
;WIDTH:0.357123
G1 F3000
G1 X-5.371 Y8.05 E.02645
G1 X-5.371 Y8.031 F30000
;WIDTH:0.405629
G1 F3000
G1 X-6.284 Y8.414 E.02925
G1 X-5.7 Y8.379 F30000
;WIDTH:0.396764
G1 F3000
G1 X-5.326 Y7.318 E.03244
G1 X-5.35 Y7.311 F30000
;WIDTH:0.126454
G1 F3000
G1 X-5.387 Y7.467 E.00109
;WIDTH:0.173523
G1 X-5.424 Y7.622 E.0017
;WIDTH:0.197056
G1 X-5.647 Y8.378 E.0099
G1 E-.8 F2100
;WIPE_START
G1 F3000
G1 X-5.424 Y7.622
;WIPE_END
G1 X-6.997 Y.154 Z.6 F30000
G1 X-8.718 Y-8.019 Z.6
G1 Z.2
G1 E.8 F2100
;WIDTH:0.142404
G1 F3000
G1 X-8.633 Y-8.109 E.001
;WIDTH:0.162146
G1 X-8.549 Y-8.198 E.0012
;WIDTH:0.20163
G1 X-8.464 Y-8.288 E.0016
;WIDTH:0.213607
G1 X-8.33 Y-8.334 E.00197
;WIDTH:0.168412
G1 X-8.213 Y-8.363 E.00123
;WIDTH:0.12578
G1 X-8.097 Y-8.393 E.00081
G1 E-.8 F2100
;WIPE_START
G1 F3000
G1 X-8.213 Y-8.363
;WIPE_END
G1 X-6.403 Y-8.409 Z.6 F30000
G1 Z.2
G1 E.8 F2100
;WIDTH:0.251188
G1 F3000
G1 X-5.372 Y-8.096 E.0183
G1 X-5.332 Y-7.414 F30000
;WIDTH:0.402265
G1 F3000
G1 X-5.714 Y-8.387 E.03059
G1 X-5.688 Y-8.386 F30000
;WIDTH:0.286905
G1 F3000
G1 X-5.329 Y-7.365 E.02151
G1 E-.8 F2100
;WIPE_START
G1 F3000
G1 X-5.688 Y-8.386
;WIPE_END
G1 X-5.356 Y-5.672 Z.6 F30000
G1 Z.2
G1 E.8 F2100
;WIDTH:0.12617
G1 F3000
G1 X-5.389 Y-5.527 E.00101
;WIDTH:0.16997
G1 X-5.422 Y-5.383 E.00154
;WIDTH:0.203029
G1 X-5.436 Y-5.339 E.0006
;WIDTH:0.197405
G1 X-5.519 Y-5.255 E.00149
;WIDTH:0.161491
G1 X-5.602 Y-5.171 E.00114
;WIDTH:0.143533
G1 X-5.686 Y-5.087 E.00097
G1 E-.8 F2100
;WIPE_START
G1 F3000
G1 X-5.602 Y-5.171
;WIPE_END
G1 X-5.733 Y-3.662 Z.6 F30000
G1 Z.2
G1 E.8 F2100
;TYPE:Bottom surface
;WIDTH:0.502721
G1 F4800
G1 X-6.148 Y-4.077 E.022
G1 X-6.245 Y-4.028 E.00409
G1 X-6.628 Y-3.907 E.01503
G1 X-5.938 Y-3.217 E.03653
G1 X-5.938 Y-2.567 E.02437
G1 X-7.417 Y-4.046 E.07834
G1 E-.8 F2100
;WIPE_START
