; HEADER_BLOCK_START
; generated by OrcaSlicer 2.3.0 on 2026-04-09 at 18:11:26
; total layer number: 15
;_GP_TOTAL_LAYER_NUMBER_PLACEHOLDER
; filament_density: 1.24
; filament_diameter: 1.75
; max_z_height: 3.00
; HEADER_BLOCK_END

; THUMBNAIL_BLOCK_START

;
; THUMBNAIL_BLOCK_END

; external perimeters extrusion width = 0.42mm
; perimeters extrusion width = 0.45mm
; infill extrusion width = 0.45mm
; solid infill extrusion width = 0.42mm
; top infill extrusion width = 0.42mm
; first layer extrusion width = 0.50mm

; EXECUTABLE_BLOCK_START
M73 P0 R46
M106 S0
M106 P2 S0
;TYPE:Custom
M190 S55
M104 S220
G90
M83
G1 Z5 F6000
G1 E-0.2 F800
G1 X110 Y-110 F6000
G1 E2 F800
G1 Y-110 X55 Z0.25 F4800
G1 X-55 E8 F2400
G1 Y-109.6 F2400
G1 X55 E5 F2400
G1 Y-110 X55 Z0.45 F4800
G1 X-55 E8 F2400
G1 Y-109.6 F2400
G1 X55 E5 F2400
G92 E0
G90
G21
M83 ; use relative distances for extrusion
; filament start gcode
;right_extruder_material: PLA
SET_PRESSURE_ADVANCE ADVANCE=0.025; Override pressure advance value
M106 S0
M106 P2 S0
;LAYER_CHANGE
;Z:0.2
;HEIGHT:0.2
;BEFORE_LAYER_CHANGE
;0.2
G1 E-.8 F2100
;AFTER_LAYER_CHANGE
;0.2
;_SET_FAN_SPEED_CHANGING_LAYER
SET_VELOCITY_LIMIT ACCEL=500
G1 X46.306 Y87.243 F30000
G1 Z.6
G1 Z.2
G1 E.8 F2100
;TYPE:Outer wall
;WIDTH:0.5
G1 F3000
G1 X46.404 Y87.23 E.00368
G1 X46.92 Y87.289 E.01934
G1 X47.373 Y87.476 E.01826
G1 X47.76 Y87.773 E.01817
G1 X48.057 Y88.16 E.01817
G1 X48.244 Y88.611 E.01817
G1 X48.307 Y89.094 E.01817
G1 X48.244 Y89.578 E.01817
G1 X48.057 Y90.029 E.01817
G1 X47.76 Y90.416 E.01817
G1 X47.373 Y90.712 E.01817
G1 X46.922 Y90.899 E.01817
G1 X46.439 Y90.963 E.01817
G1 X45.955 Y90.899 E.01817
G1 X45.505 Y90.712 E.01817
G1 X45.118 Y90.416 E.01817
G1 X44.821 Y90.029 E.01817
G1 X44.634 Y89.578 E.01817
G1 X44.57 Y89.094 E.01817
G1 X44.634 Y88.611 E.01817
G1 X44.807 Y88.192 E.01687
G1 X45.116 Y87.775 E.01934
G1 X45.505 Y87.476 E.01826
G1 X45.955 Y87.29 E.01817
G1 X46.266 Y87.249 E.01169
G1 E-.8 F2100
;WIPE_START
G1 F3000
G1 X46.404 Y87.23
G1 X46.92 Y87.289
G1 X47.373 Y87.476
G1 X47.76 Y87.773
G1 X47.982 Y88.062
;WIPE_END
G1 X53.209 Y82.5 Z.6 F30000
G1 X91.398 Y41.872 Z.6
G1 Z.2
G1 E.8 F2100
G1 F3000
G1 X91.818 Y41.816 E.0158
G1 X92.334 Y41.874 E.01934
G1 X92.787 Y42.062 E.01826
G1 X93.174 Y42.359 E.01817
G1 X93.471 Y42.746 E.01817
G1 X93.658 Y43.196 E.01817
G1 X93.721 Y43.68 E.01817
G1 X93.658 Y44.164 E.01817
G1 X93.471 Y44.614 E.01817
G1 X93.174 Y45.001 E.01817
G1 X92.787 Y45.298 E.01817
G1 X92.337 Y45.485 E.01817
G1 X91.853 Y45.549 E.01817
G1 X91.369 Y45.485 E.01817
G1 X90.919 Y45.298 E.01817
G1 X90.532 Y45.001 E.01817
G1 X90.235 Y44.614 E.01817
G1 X90.048 Y44.164 E.01817
G1 X89.985 Y43.68 E.01817
G1 X90.048 Y43.196 E.01817
G1 X90.235 Y42.746 E.01817
G1 X90.532 Y42.359 E.01817
G1 X90.919 Y42.062 E.01817
G1 X91.359 Y41.88 E.01775
G1 E-.8 F2100
;WIPE_START
G1 F3000
G1 X91.818 Y41.816
G1 X92.334 Y41.874
G1 X92.787 Y42.062
G1 X93.174 Y42.359
G1 X93.198 Y42.39
;WIPE_END
G1 X93.047 Y34.759 Z.6 F30000
G1 X91.348 Y-50.993 Z.6
G1 Z.2
G1 E.8 F2100
G1 F3000
G1 X91.369 Y-51.002 E.00087
G1 X91.818 Y-51.061 E.01687
G1 X92.334 Y-51.003 E.01934
G1 X92.787 Y-50.816 E.01826
G1 X93.174 Y-50.519 E.01817
G1 X93.471 Y-50.132 E.01817
G1 X93.644 Y-49.713 E.01687
G1 X93.722 Y-49.2 E.01934
G1 X93.658 Y-48.714 E.01826
G1 X93.471 Y-48.263 E.01817
G1 X93.174 Y-47.876 E.01817
G1 X92.787 Y-47.579 E.01817
G1 X92.337 Y-47.393 E.01817
G1 X91.853 Y-47.329 E.01817
G1 X91.369 Y-47.393 E.01817
G1 X90.919 Y-47.579 E.01817
G1 X90.532 Y-47.876 E.01817
G1 X90.235 Y-48.263 E.01817
G1 X90.048 Y-48.714 E.01817
G1 X89.985 Y-49.198 E.01817
G1 X90.048 Y-49.681 E.01817
G1 X90.235 Y-50.132 E.01817
G1 X90.532 Y-50.519 E.01817
G1 X90.919 Y-50.816 E.01817
G1 X91.311 Y-50.978 E.0158
G1 E-.8 F2100
;WIPE_START
G1 F3000
G1 X91.369 Y-51.002
G1 X91.818 Y-51.061
G1 X92.334 Y-51.003
G1 X92.787 Y-50.816
G1 X93.164 Y-50.527
;WIPE_END
G1 X87.689 Y-55.845 Z.6 F30000
G1 X45.934 Y-96.408 Z.6
G1 Z.2
G1 E.8 F2100
G1 F3000
G1 X45.955 Y-96.417 E.00087
G1 X46.404 Y-96.476 E.01687
G1 X46.92 Y-96.417 E.01934
G1 X47.373 Y-96.23 E.01826
G1 X47.76 Y-95.933 E.01817
G1 X48.057 Y-95.546 E.01817
G1 X48.244 Y-95.095 E.01817
G1 X48.307 Y-94.612 E.01817
G1 X48.244 Y-94.128 E.01817
G1 X48.057 Y-93.678 E.01817
G1 X47.76 Y-93.291 E.01817
G1 X47.373 Y-92.994 E.01817
G1 X46.922 Y-92.807 E.01817
G1 X46.439 Y-92.743 E.01817
G1 X45.955 Y-92.807 E.01817
G1 X45.505 Y-92.994 E.01817
G1 X45.118 Y-93.291 E.01817
G1 X44.821 Y-93.678 E.01817
G1 X44.647 Y-94.096 E.01687
G1 X44.57 Y-94.609 E.01934
G1 X44.634 Y-95.095 E.01826
G1 X44.807 Y-95.514 E.01687
G1 X45.116 Y-95.932 E.01934
G1 X45.505 Y-96.23 E.01826
G1 X45.897 Y-96.392 E.0158
G1 E-.8 F2100
;WIPE_START
G1 F3000
G1 X45.955 Y-96.417
G1 X46.404 Y-96.476
G1 X46.92 Y-96.417
G1 X47.373 Y-96.23
G1 X47.749 Y-95.941
;WIPE_END
G1 X48.381 Y-88.335 Z.6 F30000
G1 X59.645 Y47.297 Z.6
G1 Z.2
G1 E.8 F2100
;TYPE:Inner wall
G1 F3000
G1 X59.655 Y47.375 E.00295
G1 X59.524 Y48.375 E.03758
G1 X59.137 Y49.307 E.03758
G1 X58.558 Y50.063 E.03546
G1 X52.822 Y55.799 E.30215
G1 X52.066 Y56.379 E.03546
G1 X51.134 Y56.765 E.03758
G1 X50.134 Y56.896 E.03758
G1 X49.134 Y56.765 E.03757
G1 X48.202 Y56.379 E.03758
G1 X47.446 Y55.799 E.03546
G1 X26.466 Y34.819 E1.10511
G1 X25.399 Y33.48 E.06377
G1 X24.635 Y31.894 E.06558
G1 X24.243 Y30.177 E.06558
G1 X24.243 Y28.417 E.06558
G1 X24.635 Y26.7 E.06558
G1 X25.399 Y25.114 E.06558
G1 X26.496 Y23.738 E.06558
G1 X27.873 Y22.64 E.06558
G1 X29.459 Y21.876 E.06558
G1 X31.176 Y21.484 E.06558
G1 X32.936 Y21.484 E.06558
G1 X34.653 Y21.876 E.06558
G1 X36.239 Y22.64 E.06558
G1 X37.578 Y23.707 E.06377
G1 X58.558 Y44.688 E1.10511
G1 X59.137 Y45.443 E.03546
G1 X59.524 Y46.375 E.03758
G1 X59.64 Y47.257 E.03314
G1 X59.192 Y47.394 F30000
;TYPE:Outer wall
G1 F3000
G1 X59.078 Y48.256 E.03239
G1 X58.738 Y49.077 E.03309
G1 X58.213 Y49.761 E.03211
G1 X52.519 Y55.455 E.29992
G1 X51.836 Y55.979 E.03211
G1 X51.015 Y56.319 E.03309
G1 X50.134 Y56.435 E.03309
G1 X49.253 Y56.319 E.03309
G1 X48.432 Y55.979 E.03309
G1 X47.748 Y55.455 E.03211
G1 X26.807 Y34.514 E1.10304
G1 X25.788 Y33.236 E.0609
G1 X25.069 Y31.742 E.06174
G1 X24.7 Y30.126 E.06174
G1 X24.7 Y28.468 E.06174
G1 X25.069 Y26.852 E.06174
G1 X25.788 Y25.359 E.06174
G1 X26.822 Y24.063 E.06174
G1 X28.118 Y23.029 E.06174
G1 X29.611 Y22.31 E.06174
G1 X31.227 Y21.941 E.06174
G1 X32.885 Y21.941 E.06174
G1 X34.501 Y22.31 E.06174
G1 X35.994 Y23.029 E.06174
G1 X37.273 Y24.049 E.0609
G1 X58.213 Y44.99 E1.10304
G1 X58.738 Y45.673 E.03211
G1 X59.078 Y46.494 E.03309
G1 X59.191 Y47.354 E.03231
G1 E-.8 F2100
;WIPE_START
G1 F3000
G1 X59.078 Y48.256
G1 X58.738 Y49.077
G1 X58.615 Y49.238
;WIPE_END
G1 X53.351 Y54.764 Z.6 F30000
G1 X48.245 Y60.126 Z.6
G1 Z.2
G1 E.8 F2100
;TYPE:Inner wall
G1 F3000
G1 X48.266 Y60.355 E.00858
G1 X46.431 Y62.189 E.09662
G1 X46.518 Y62.365 E.00732
G1 X46.984 Y62.304 E.01749
G1 X47.619 Y62.376 E.02382
G1 X48.187 Y62.611 E.0229
G1 X48.67 Y62.981 E.02265
G1 X49.04 Y63.464 E.02265
G1 X49.273 Y64.026 E.02265
G1 X49.352 Y64.629 E.02265
G1 X49.273 Y65.231 E.02265
G1 X49.055 Y65.757 E.02119
G1 X48.675 Y66.272 E.02382
G1 X48.187 Y66.646 E.0229
G1 X47.626 Y66.879 E.02265
G1 X47.023 Y66.958 E.02265
G1 X46.42 Y66.879 E.02265
G1 X45.858 Y66.646 E.02265
G1 X45.375 Y66.276 E.02265
G1 X45.005 Y65.793 E.02265
G1 X44.772 Y65.231 E.02265
G1 X44.693 Y64.629 E.02265
G1 X44.76 Y64.124 E.01894
G1 X44.583 Y64.037 E.00732
G1 X39.877 Y68.744 E.2479
G1 X38.818 Y70.006 E.06139
G1 X38.012 Y71.401 E.05999
G1 X37.461 Y72.914 E.05999
G1 X37.182 Y74.501 E.05999
G1 X37.182 Y76.111 E.05999
G1 X37.461 Y77.697 E.05999
G1 X38.012 Y79.211 E.05999
G1 X38.818 Y80.606 E.05999
G1 X39.877 Y81.868 E.06139
G1 X42.252 Y84.243 E.1251
G1 X42.796 Y84.938 E.03288
G1 X43.179 Y85.792 E.03484
G1 X43.345 Y86.712 E.03484
G1 X43.285 Y87.646 E.03484
G1 X43.003 Y88.537 E.03484
G1 X42.514 Y89.335 E.03484
G1 X41.849 Y89.992 E.03484
G1 X41.081 Y90.448 E.03327
G1 X36.449 Y92.354 E.18654
G1 X31.769 Y94.018 E.18499
G1 X26.978 Y95.462 E.18639
G1 X26.166 Y95.59 E.03061
G1 X25.309 Y95.534 E.03201
M73 P1 R46
G1 X24.485 Y95.289 E.03201
G1 X23.736 Y94.868 E.03201
G1 X23.159 Y94.346 E.02898
G1 X22.643 Y93.847 E.02673
G1 X22.123 Y93.479 E.02372
G1 X21.477 Y93.158 E.02685
G1 X20.75 Y92.758 E.03092
G1 X20.075 Y92.141 E.03406
G1 X19.564 Y91.383 E.03406
G1 X19.245 Y90.526 E.03406
G1 X19.143 Y89.669 E.03215
G1 X19.143 Y38.57 E1.90324
G1 X19.267 Y37.626 E.03546
G1 X19.653 Y36.694 E.03758
G1 X20.267 Y35.893 E.03758
G1 X21.068 Y35.279 E.03757
G1 X22 Y34.893 E.03758
G1 X22.95 Y34.768 E.03568
G1 X23.996 Y34.891 E.03923
G1 X24.932 Y35.279 E.03776
G1 X25.688 Y35.859 E.03546
G1 X47.134 Y57.305 E1.12966
G1 X47.592 Y57.865 E.02696
G1 X47.951 Y58.543 E.02855
G1 X48.169 Y59.277 E.02855
G1 X48.241 Y60.086 E.03022
G1 X47.79 Y60.166 F30000
;TYPE:Outer wall
G1 F3000
G1 X47.791 Y60.183 E.00062
G1 X39.54 Y68.435 E.43465
G1 X38.442 Y69.743 E.06362
G1 X37.596 Y71.207 E.06297
G1 X37.018 Y72.796 E.06297
G1 X36.725 Y74.461 E.06297
G1 X36.725 Y76.151 E.06297
G1 X37.018 Y77.816 E.06297
G1 X37.596 Y79.405 E.06297
G1 X38.442 Y80.869 E.06297
G1 X39.54 Y82.177 E.06362
G1 X41.909 Y84.547 E.12481
G1 X42.402 Y85.176 E.02977
G1 X42.739 Y85.928 E.03068
G1 X42.885 Y86.739 E.03068
G1 X42.832 Y87.561 E.03068
G1 X42.584 Y88.346 E.03068
G1 X42.154 Y89.049 E.03068
G1 X41.567 Y89.627 E.03068
G1 X40.876 Y90.038 E.02995
G1 X36.285 Y91.927 E.18489
G1 X31.626 Y93.583 E.18416
G1 X26.876 Y95.015 E.18481
G1 X26.145 Y95.131 E.02754
G1 X25.39 Y95.081 E.0282
G1 X24.664 Y94.865 E.0282
G1 X24.004 Y94.495 E.0282
G1 X23.471 Y94.012 E.02678
G1 X22.936 Y93.494 E.02775
G1 X22.358 Y93.086 E.02635
G1 X21.689 Y92.753 E.02781
G1 X21.018 Y92.384 E.02854
G1 X20.424 Y91.841 E.03
G1 X19.973 Y91.173 E.03
G1 X19.693 Y90.418 E.03
G1 X19.6 Y89.642 E.02911
G1 X19.6 Y38.6 E1.90111
G1 X19.713 Y37.745 E.03211
G1 X20.053 Y36.924 E.03309
G1 X20.593 Y36.219 E.03309
G1 X21.298 Y35.679 E.03309
G1 X22.119 Y35.339 E.03309
G1 X22.953 Y35.229 E.03132
G1 X23.879 Y35.338 E.03475
G1 X24.702 Y35.679 E.03316
G1 X25.386 Y36.203 E.03211
G1 X46.795 Y57.612 E1.12769
G1 X47.21 Y58.119 E.02441
G1 X47.526 Y58.716 E.02515
G1 X47.718 Y59.364 E.02515
G1 X47.786 Y60.126 E.02852
G1 E-.8 F2100
;WIPE_START
G1 F3000
G1 X47.791 Y60.183
G1 X46.417 Y61.557
;WIPE_END
G1 X46.518 Y62.832 Z.6 F30000
G1 Z.2
G1 E.8 F2100
G1 F3000
G1 X46.539 Y62.824 E.00083
G1 X46.988 Y62.765 E.01687
G1 X47.504 Y62.823 E.01934
G1 X47.957 Y63.01 E.01826
G1 X48.344 Y63.307 E.01817
G1 X48.641 Y63.694 E.01817
G1 X48.827 Y64.145 E.01817
G1 X48.891 Y64.629 E.01817
G1 X48.827 Y65.112 E.01817
G1 X48.654 Y65.531 E.01687
G1 X48.346 Y65.948 E.01934
G1 X47.957 Y66.247 E.01825
G1 X47.506 Y66.433 E.01817
G1 X47.023 Y66.497 E.01817
G1 X46.539 Y66.433 E.01817
G1 X46.088 Y66.247 E.01817
G1 X45.701 Y65.95 E.01817
G1 X45.404 Y65.563 E.01817
G1 X45.218 Y65.112 E.01817
G1 X45.154 Y64.629 E.01817
G1 X45.218 Y64.145 E.01817
G1 X45.404 Y63.694 E.01817
G1 X45.701 Y63.307 E.01817
G1 X46.088 Y63.01 E.01817
G1 X46.481 Y62.848 E.01585
G1 E-.8 F2100
;WIPE_START
G1 F3000
G1 X46.539 Y62.824
G1 X46.988 Y62.765
G1 X47.504 Y62.823
G1 X47.957 Y63.01
G1 X48.334 Y63.3
;WIPE_END
G1 X40.706 Y63.049 Z.6 F30000
G1 X-48.245 Y60.126 Z.6
G1 Z.2
G1 E.8 F2100
;TYPE:Inner wall
G1 F3000
G1 X-48.169 Y59.277 E.03171
G1 X-47.951 Y58.543 E.02855
G1 X-47.592 Y57.865 E.02855
G1 X-47.134 Y57.305 E.02696
G1 X-25.688 Y35.859 E1.12966
G1 X-24.932 Y35.279 E.03546
G1 X-24 Y34.893 E.03758
G1 X-23.05 Y34.768 E.03568
G1 X-22.004 Y34.891 E.03923
G1 X-21.068 Y35.279 E.03776
G1 X-20.267 Y35.893 E.03758
G1 X-19.653 Y36.694 E.03757
G1 X-19.267 Y37.626 E.03758
G1 X-19.143 Y38.57 E.03546
G1 X-19.143 Y89.669 E1.90324
G1 X-19.245 Y90.526 E.03215
G1 X-19.564 Y91.383 E.03406
G1 X-20.075 Y92.141 E.03406
G1 X-20.75 Y92.758 E.03406
G1 X-21.477 Y93.158 E.03092
G1 X-22.123 Y93.479 E.02685
G1 X-22.643 Y93.847 E.02372
G1 X-23.159 Y94.346 E.02673
G1 X-23.736 Y94.868 E.02898
G1 X-24.485 Y95.289 E.03201
G1 X-25.309 Y95.534 E.03201
G1 X-26.166 Y95.59 E.03201
G1 X-26.978 Y95.462 E.03061
G1 X-31.769 Y94.018 E.18638
G1 X-36.449 Y92.354 E.18499
G1 X-41.081 Y90.448 E.18654
G1 X-41.849 Y89.992 E.03327
G1 X-42.514 Y89.335 E.03484
G1 X-43.003 Y88.537 E.03484
G1 X-43.285 Y87.646 E.03484
G1 X-43.345 Y86.712 E.03484
G1 X-43.187 Y85.838 E.03308
G1 X-42.799 Y84.942 E.03638
G1 X-42.252 Y84.243 E.03305
G1 X-39.877 Y81.868 E.1251
G1 X-38.818 Y80.606 E.06139
G1 X-38.012 Y79.211 E.05999
G1 X-37.461 Y77.697 E.05999
G1 X-37.182 Y76.111 E.05999
G1 X-37.182 Y74.501 E.05999
G1 X-37.461 Y72.914 E.05999
G1 X-38.012 Y71.401 E.05999
G1 X-38.818 Y70.006 E.05999
G1 X-39.877 Y68.744 E.06139
G1 X-44.583 Y64.037 E.2479
G1 X-44.76 Y64.124 E.00732
G1 X-44.693 Y64.629 E.01894
G1 X-44.773 Y65.231 E.02265
G1 X-45.005 Y65.793 E.02265
G1 X-45.375 Y66.276 E.02265
G1 X-45.858 Y66.646 E.02265
G1 X-46.42 Y66.879 E.02265
G1 X-47.023 Y66.958 E.02265
G1 X-47.626 Y66.879 E.02265
G1 X-48.187 Y66.646 E.02265
G1 X-48.67 Y66.276 E.02265
G1 X-49.04 Y65.793 E.02265
G1 X-49.273 Y65.231 E.02265
G1 X-49.352 Y64.629 E.02265
G1 X-49.273 Y64.026 E.02265
G1 X-49.04 Y63.464 E.02265
G1 X-48.67 Y62.981 E.02265
G1 X-48.187 Y62.611 E.02265
G1 X-47.626 Y62.378 E.02265
G1 X-47.061 Y62.304 E.02119
G1 X-46.514 Y62.366 E.0205
G1 X-46.43 Y62.191 E.00725
G1 X-48.266 Y60.355 E.09669
G1 X-48.249 Y60.165 E.00709
G1 X-47.79 Y60.166 F30000
;TYPE:Outer wall
G1 F3000
G1 X-47.718 Y59.364 E.03001
G1 X-47.526 Y58.716 E.02516
G1 X-47.21 Y58.119 E.02515
G1 X-46.795 Y57.612 E.02441
G1 X-25.386 Y36.203 E1.12769
G1 X-24.702 Y35.679 E.03211
G1 X-23.881 Y35.339 E.03309
G1 X-23.047 Y35.229 E.03132
G1 X-22.121 Y35.338 E.03475
G1 X-21.298 Y35.679 E.03316
G1 X-20.593 Y36.219 E.03309
G1 X-20.053 Y36.924 E.03309
G1 X-19.713 Y37.745 E.03309
G1 X-19.6 Y38.6 E.03211
G1 X-19.6 Y89.642 E1.90111
G1 X-19.693 Y90.418 E.02911
G1 X-19.973 Y91.173 E.03
G1 X-20.424 Y91.841 E.03
G1 X-21.018 Y92.384 E.03
G1 X-21.689 Y92.753 E.02854
G1 X-22.358 Y93.086 E.02781
G1 X-22.936 Y93.494 E.02635
G1 X-23.471 Y94.012 E.02775
G1 X-24.004 Y94.495 E.02678
G1 X-24.664 Y94.865 E.0282
G1 X-25.39 Y95.081 E.0282
G1 X-26.145 Y95.131 E.0282
G1 X-26.876 Y95.015 E.02754
G1 X-31.626 Y93.583 E.18481
G1 X-36.285 Y91.927 E.18416
G1 X-40.876 Y90.038 E.18489
G1 X-41.567 Y89.627 E.02995
G1 X-42.154 Y89.049 E.03068
G1 X-42.584 Y88.346 E.03068
G1 X-42.832 Y87.561 E.03068
G1 X-42.885 Y86.739 E.03068
G1 X-42.747 Y85.971 E.02904
G1 X-42.403 Y85.177 E.03222
G1 X-41.909 Y84.547 E.02983
G1 X-39.54 Y82.177 E.12481
G1 X-38.442 Y80.869 E.06362
G1 X-37.596 Y79.405 E.06297
G1 X-37.018 Y77.816 E.06297
G1 X-36.725 Y76.151 E.06297
G1 X-36.725 Y74.461 E.06297
G1 X-37.018 Y72.796 E.06297
G1 X-37.596 Y71.207 E.06297
G1 X-38.442 Y69.743 E.06297
G1 X-39.54 Y68.435 E.06362
G1 X-47.775 Y60.199 E.43378
G1 E-.8 F2100
;WIPE_START
G1 F3000
G1 X-47.718 Y59.364
G1 X-47.526 Y58.716
G1 X-47.298 Y58.286
;WIPE_END
G1 X-47.528 Y62.833 Z.6 F30000
G1 Z.2
G1 E.8 F2100
G1 F3000
G1 X-47.506 Y62.824 E.00086
G1 X-47.057 Y62.765 E.01687
G1 X-46.541 Y62.823 E.01934
G1 X-46.088 Y63.01 E.01826
G1 X-45.701 Y63.307 E.01817
G1 X-45.404 Y63.694 E.01817
G1 X-45.218 Y64.145 E.01817
G1 X-45.154 Y64.629 E.01817
G1 X-45.218 Y65.112 E.01817
G1 X-45.404 Y65.563 E.01817
G1 X-45.701 Y65.95 E.01817
G1 X-46.088 Y66.247 E.01817
G1 X-46.539 Y66.433 E.01817
G1 X-47.023 Y66.497 E.01817
G1 X-47.506 Y66.433 E.01817
G1 X-47.957 Y66.247 E.01817
G1 X-48.344 Y65.95 E.01817
G1 X-48.641 Y65.563 E.01817
G1 X-48.827 Y65.112 E.01817
G1 X-48.891 Y64.629 E.01817
G1 X-48.827 Y64.145 E.01817
G1 X-48.641 Y63.694 E.01817
G1 X-48.344 Y63.307 E.01817
G1 X-47.957 Y63.01 E.01817
G1 X-47.564 Y62.848 E.01582
G1 E-.8 F2100
;WIPE_START
G1 F3000
G1 X-47.506 Y62.824
G1 X-47.057 Y62.765
G1 X-46.541 Y62.823
G1 X-46.088 Y63.01
G1 X-45.712 Y63.299
;WIPE_END
G1 X-50.904 Y57.705 Z.6 F30000
G1 X-59.493 Y48.448 Z.6
G1 Z.2
G1 E.8 F2100
;TYPE:Inner wall
G1 F3000
G1 X-59.524 Y48.375 E.00295
G1 X-59.655 Y47.375 E.03758
G1 X-59.524 Y46.375 E.03757
G1 X-59.137 Y45.443 E.03758
G1 X-58.558 Y44.688 E.03546
G1 X-37.642 Y23.771 E1.10173
G1 X-37.603 Y23.788 E.00158
G1 X-36.889 Y23.096 E.037
